; generated by Slic3r 1.2.9 on 2017-07-21 at 12:13:08

; external perimeters extrusion width = 0.35mm
; perimeters extrusion width = 0.52mm
; infill extrusion width = 0.52mm
; solid infill extrusion width = 0.52mm
; top infill extrusion width = 0.52mm

M104 S256 ; set temperature
G28 ; home all axes
G92 E0
G1 X30 Y30 F3000
G1 Z5 F2000 ; lift nozzle
G1 F3000 X220
G1 F2000 Z0
G1 F200 E10
G1 F1000 E9
G1 F3000 X190 Y50
G92 E-1
G1 F2000 Z2
M109 S256 ; wait for temperature to be reached
G21 ; set units to millimeters
G90 ; use absolute coordinates
M82 ; use absolute distances for extrusion
G92 E0
G1 Z0.250 F7800.000
G1 E-2.00000 F2400.00000
G92 E0
G1 X83.465 Y98.632 F7800.000
G1 E2.00000 F2400.00000
G1 X85.433 Y97.496 E2.10542 F1800.000
G1 X114.567 Y97.496 E3.45707
G1 X116.535 Y98.632 E3.56249
G1 X131.103 Y123.864 E4.91413 F1800.000
G1 X131.103 Y126.136 E5.01955
G1 X116.535 Y151.368 E6.37120
G1 X114.567 Y152.504 E6.47662
G1 X85.433 Y152.504 E7.82826
G1 X83.465 Y151.368 E7.93369
G1 X68.897 Y126.136 E9.28533
G1 X68.897 Y123.864 E9.39075
G1 X83.438 Y98.678 E10.73996
G1 X83.791 Y98.959 F7800.000
G1 X85.552 Y97.942 E10.83429 F1800.000
G1 X114.448 Y97.942 E12.17483
G1 X116.209 Y98.959 E12.26916 F1800.000
G1 X130.656 Y123.983 E13.60971
G1 X130.656 Y126.017 E13.70403
G1 X116.209 Y151.041 E15.04458
G1 X114.448 Y152.058 E15.13890
G1 X85.552 Y152.058 E16.47945
G1 X83.791 Y151.041 E16.57378
G1 X69.344 Y126.017 E17.91432
G1 X69.344 Y123.983 E18.00865
G1 X83.765 Y99.004 E19.34676
G1 X84.118 Y99.286 F7800.000
G1 X85.672 Y98.389 E19.42999 F1800.000
G1 X114.328 Y98.389 E20.75944
G1 X115.882 Y99.286 E20.84267
G1 X130.210 Y124.103 E22.17212 F1800.000
G1 X130.210 Y125.897 E22.25534
G1 X115.882 Y150.714 E23.58480
G1 X114.328 Y151.611 E23.66802
G1 X85.672 Y151.611 E24.99747
G1 X84.118 Y150.714 E25.08070
G1 X69.790 Y125.897 E26.41015
G1 X69.790 Y124.103 E26.49338
G1 X84.092 Y99.331 E27.82039
G1 X84.445 Y99.612 F7800.000
G1 X85.791 Y98.835 E27.89253 F1800.000
G1 X114.209 Y98.835 E29.21088
G1 X115.555 Y99.612 E29.28301 F1800.000
G1 X129.764 Y124.223 E30.60136
G1 X129.764 Y125.777 E30.67349
G1 X115.555 Y150.388 E31.99185
G1 X114.209 Y151.165 E32.06398
G1 X85.791 Y151.165 E33.38233
G1 X84.445 Y150.388 E33.45446
G1 X70.236 Y125.777 E34.77282
G1 X70.236 Y124.223 E34.84495
G1 X84.419 Y99.658 E36.16086
G1 X84.772 Y99.939 F7800.000
G1 X85.911 Y99.281 E36.22190 F1800.000
G1 X114.089 Y99.281 E37.52915
G1 X115.228 Y99.939 E37.59019
G1 X129.317 Y124.342 E38.89744 F1800.000
G1 X129.317 Y125.658 E38.95848
G1 X115.228 Y150.061 E40.26573
G1 X114.089 Y150.719 E40.32677
G1 X85.911 Y150.719 E41.63402
G1 X84.772 Y150.061 E41.69506
G1 X70.683 Y125.658 E43.00232
G1 X70.683 Y124.342 E43.06335
G1 X84.745 Y99.985 E44.36817
G1 X85.098 Y100.266 F7800.000
G1 X86.031 Y99.728 E44.41811 F1800.000
G1 X113.969 Y99.728 E45.71427
G1 X114.902 Y100.266 E45.76420 F1800.000
G1 X128.871 Y124.462 E47.06036
G1 X128.871 Y125.538 E47.11030
G1 X114.902 Y149.734 E48.40646
G1 X113.969 Y150.272 E48.45640
G1 X86.031 Y150.272 E49.75255
G1 X85.098 Y149.734 E49.80249
G1 X71.129 Y125.538 E51.09865
G1 X71.129 Y124.462 E51.14859
G1 X85.072 Y100.311 E52.44231
G1 X85.425 Y100.593 F7800.000
G1 X86.150 Y100.174 E52.48115 F1800.000
G1 X113.850 Y100.174 E53.76621
G1 X114.575 Y100.593 E53.80505
G1 X128.425 Y124.581 E55.09012 F1800.000
G1 X128.425 Y125.419 E55.12896
G1 X114.575 Y149.407 E56.41402
G1 X113.850 Y149.826 E56.45286
G1 X86.150 Y149.826 E57.73792
G1 X85.425 Y149.407 E57.77676
G1 X71.575 Y125.419 E59.06182
G1 X71.575 Y124.581 E59.10066
G1 X85.399 Y100.638 E60.38329
G1 X85.752 Y100.919 F7800.000
G1 X86.270 Y100.621 E60.41103 F1800.000
G1 X113.730 Y100.621 E61.68500
G1 X114.248 Y100.920 E61.71274 F1800.000
G1 X127.978 Y124.701 E62.98670
G1 X127.978 Y125.299 E63.01445
G1 X114.248 Y149.081 E64.28841
G1 X113.730 Y149.380 E64.31616
G1 X86.270 Y149.380 E65.59012
G1 X85.752 Y149.081 E65.61786
G1 X72.022 Y125.299 E66.89183
G1 X72.022 Y124.701 E66.91957
G1 X85.726 Y100.965 E68.19110
G1 X86.079 Y101.246 F7800.000
G1 X86.389 Y101.067 E68.20775 F1800.000
G1 X113.611 Y101.067 E69.47062
G1 X113.921 Y101.246 E69.48726
G1 X127.532 Y124.821 E70.75013 F1800.000
G1 X127.532 Y125.179 E70.76678
G1 X113.921 Y148.754 E72.02964
G1 X113.611 Y148.933 E72.04629
G1 X86.389 Y148.933 E73.30916
G1 X86.079 Y148.754 E73.32580
G1 X72.468 Y125.179 E74.58867
G1 X72.468 Y124.821 E74.60532
G1 X86.052 Y101.292 E75.86575
G1 E73.86575 F2400.00000
G92 E0
G1 X113.491 Y101.513 F7800.000
G1 E2.00000 F2400.00000
G1 X113.595 Y101.573 E2.00555 F1800.000
G1 X127.086 Y124.940 E3.25732
G1 X127.086 Y125.060 E3.26287
G1 X113.595 Y148.427 E4.51464
G1 X113.491 Y148.487 E4.52019
G1 X86.509 Y148.487 E5.77196
G1 X86.405 Y148.427 E5.77751
G1 X72.914 Y125.060 E7.02928
G1 X72.914 Y124.940 E7.03483
G1 X86.405 Y101.573 E8.28660
G1 X86.509 Y101.513 E8.29215
G1 X113.439 Y101.513 E9.54148
G1 E7.54148 F2400.00000
G92 E0
G1 X113.287 Y148.014 F7800.000
G1 E2.00000 F2400.00000
G1 X86.713 Y148.014 E3.23283 F1800.000
G1 X73.426 Y125.000 E4.46566
G1 X86.713 Y101.986 E5.69849
G1 X113.287 Y101.986 E6.93132
G1 X126.574 Y125.000 E8.16415
G1 X113.313 Y147.968 E9.39455
G1 X113.019 Y147.789 F7800.000
G1 X113.029 Y147.567 F7800.000
G1 X86.971 Y147.567 E10.60347 F1800.000
G1 X73.942 Y125.000 E11.81239
G1 X86.971 Y102.433 E13.02131
G1 X113.029 Y102.433 E14.23023
G1 X126.058 Y125.000 E15.43915
G1 X113.055 Y147.522 E16.64563
G1 X112.772 Y147.121 F7800.000
G1 X87.228 Y147.121 E17.83064 F1800.000
G1 X74.457 Y125.000 E19.01565
G1 X87.228 Y102.879 E20.20066
G1 X112.772 Y102.879 E21.38567
G1 X125.543 Y125.000 E22.57068
G1 X112.798 Y147.075 E23.75325
G1 X113.608 Y134.178 F7800.000
G1 X106.332 Y137.696 E24.12820 F1800.000
G1 X98.856 Y141.374 E24.51475
G1 X92.171 Y136.831 E24.88970
G1 X85.247 Y132.196 E25.27625
G1 X85.839 Y124.136 E25.65120
G1 X86.392 Y115.822 E26.03775
G1 X93.668 Y112.304 E26.41270
G1 X101.144 Y108.626 E26.79925
G1 X107.829 Y113.169 E27.17420
G1 X114.753 Y117.804 E27.56075
G1 X114.161 Y125.864 E27.93570
G1 X113.612 Y134.126 E28.31982
G1 X113.705 Y134.515 F7800.000
G1 X114.037 Y134.467 F7800.000
G1 X106.528 Y138.097 E28.70675 F1800.000
G1 X98.820 Y141.889 E29.10528
G1 X91.922 Y137.201 E29.49221
G1 X84.783 Y132.423 E29.89074
G1 X85.394 Y124.105 E30.27767
G1 X85.963 Y115.533 E30.67620
G1 X93.472 Y111.903 E31.06313
G1 X101.180 Y108.111 E31.46166
G1 X108.078 Y112.799 E31.84859
G1 X115.217 Y117.577 E32.24712
G1 X114.606 Y125.895 E32.63405
G1 X114.040 Y134.414 E33.03014
G1 X114.465 Y134.756 F7800.000
G1 X106.723 Y138.498 E33.42905 F1800.000
G1 X98.784 Y142.405 E33.83956
G1 X91.672 Y137.571 E34.23847
G1 X84.319 Y132.649 E34.64898
G1 X84.949 Y124.074 E35.04789
G1 X85.535 Y115.244 E35.45840
G1 X93.277 Y111.502 E35.85731
G1 X101.216 Y107.595 E36.26782
G1 X108.328 Y112.429 E36.66673
G1 X115.681 Y117.351 E37.07724
G1 X115.051 Y125.926 E37.47615
G1 X114.468 Y134.703 E37.88422
G1 X114.731 Y134.650 F7800.000
G1 X117.885 Y137.804 E38.09241 F1800.000
G1 X118.117 Y137.402 E38.11411
G1 X114.770 Y134.055 E38.33502
G1 X114.810 Y133.459 E38.36288
G1 X118.350 Y136.999 E38.59653
G1 X118.582 Y136.596 E38.61823
G1 X114.850 Y132.864 E38.86462
G1 X114.889 Y132.268 E38.89247
G1 X118.815 Y136.194 E39.15159
G1 X119.047 Y135.791 E39.17329
G1 X114.929 Y131.673 E39.44514
G1 X114.968 Y131.077 E39.47300
G1 X119.280 Y135.389 E39.75758
G1 X119.512 Y134.986 E39.77928
G1 X115.008 Y130.482 E40.07660
G1 X115.047 Y129.886 E40.10445
G1 X119.744 Y134.583 E40.41450
G1 X119.977 Y134.181 E40.43620
G1 X115.087 Y129.291 E40.75899
G1 X115.126 Y128.695 E40.78684
G1 X120.209 Y133.778 E41.12236
G1 X120.442 Y133.375 E41.14406
G1 X115.166 Y128.100 E41.49231
G1 X115.206 Y127.504 E41.52017
G1 X120.674 Y132.973 E41.88115
G1 X120.907 Y132.570 E41.90285
G1 X115.245 Y126.909 E42.27656
G1 X115.285 Y126.313 E42.30442
G1 X121.139 Y132.168 E42.69087
G1 X121.372 Y131.765 E42.71257
G1 X115.325 Y125.718 E43.11169
G1 X115.369 Y125.127 E43.13938
G1 X121.604 Y131.362 E43.55098
G1 X121.837 Y130.960 E43.57268
G1 X115.412 Y124.535 E43.99675
G1 X115.455 Y123.944 E44.02444
G1 X122.069 Y130.557 E44.46099
G1 X122.301 Y130.154 E44.48269
G1 X115.499 Y123.352 E44.93172
G1 X115.542 Y122.760 E44.95940
G1 X122.534 Y129.752 E45.42091
G1 X122.766 Y129.349 E45.44261
G1 X115.586 Y122.169 E45.91658
G1 X115.629 Y121.577 E45.94427
G1 X122.999 Y128.947 E46.43073
G1 X123.231 Y128.544 E46.45243
G1 X115.673 Y120.985 E46.95135
G1 X115.716 Y120.394 E46.97904
G1 X123.464 Y128.141 E47.49045
G1 X123.696 Y127.739 E47.51215
G1 X115.760 Y119.802 E48.03603
G1 X115.803 Y119.211 E48.06372
G1 X123.929 Y127.336 E48.60008
G1 X124.161 Y126.934 E48.62178
G1 X115.846 Y118.619 E49.17061
G1 X115.890 Y118.027 E49.19830
G1 X124.394 Y126.531 E49.75961
G1 X124.626 Y126.128 E49.78131
G1 X115.933 Y117.436 E50.35509
G1 X114.975 Y116.477 F7800.000
G1 X101.642 Y103.144 E51.23521 F1800.000
G1 X102.277 Y103.144 E51.26485
G1 X124.858 Y125.726 E52.75544
G1 X125.091 Y125.323 E52.77714
G1 X102.912 Y103.144 E54.24116
G1 X103.547 Y103.144 E54.27080
G1 X124.847 Y124.444 E55.67681
G1 X123.980 Y122.942 F7800.000
G1 X104.182 Y103.144 E56.98363 F1800.000
G1 X104.817 Y103.144 E57.01328
G1 X123.112 Y121.439 E58.22092
G1 X122.245 Y119.936 F7800.000
G1 X105.452 Y103.144 E59.32937 F1800.000
G1 X106.087 Y103.144 E59.35901
G1 X121.377 Y118.434 E60.36828
G1 X120.510 Y116.931 F7800.000
G1 X106.722 Y103.144 E61.27837 F1800.000
G1 X107.357 Y103.144 E61.30801
G1 X119.642 Y115.429 E62.11891
G1 X118.774 Y113.926 F7800.000
G1 X107.992 Y103.144 E62.83063 F1800.000
G1 X108.627 Y103.144 E62.86027
G1 X117.907 Y112.423 E63.47281
G1 X117.039 Y110.921 F7800.000
G1 X109.262 Y103.144 E63.98616 F1800.000
G1 X109.897 Y103.144 E64.01580
G1 X116.172 Y109.418 E64.42996
G1 X115.304 Y107.916 F7800.000
G1 X110.533 Y103.144 E64.74494 F1800.000
G1 X111.168 Y103.144 E64.77459
G1 X114.437 Y106.413 E64.99038
G1 X113.569 Y104.910 F7800.000
G1 X111.803 Y103.144 E65.10699 F1800.000
G1 X112.438 Y103.144 E65.13664
G1 X112.702 Y103.408 E65.15406
G1 X107.248 Y111.290 F7800.000
G1 X99.101 Y103.144 E65.69180 F1800.000
G1 X98.466 Y103.144 E65.72144
G1 X105.266 Y109.943 E66.17026
G1 X103.283 Y108.596 F7800.000
G1 X97.831 Y103.144 E66.53017 F1800.000
G1 X97.196 Y103.144 E66.55981
G1 X101.332 Y107.279 E66.83280
G1 X100.906 Y107.489 E66.85494
G1 X96.561 Y103.144 E67.14175
G1 X95.926 Y103.144 E67.17139
G1 X100.480 Y107.698 E67.47203
G1 X100.055 Y107.908 E67.49417
G1 X95.291 Y103.144 E67.80863
G1 X94.656 Y103.144 E67.83827
G1 X99.629 Y108.117 E68.16655
G1 X99.203 Y108.327 E68.18869
G1 X94.021 Y103.144 E68.53080
G1 X93.386 Y103.144 E68.56044
G1 X98.778 Y108.536 E68.91638
G1 X98.352 Y108.745 E68.93852
G1 X92.750 Y103.144 E69.30828
G1 X92.115 Y103.144 E69.33792
G1 X97.927 Y108.955 E69.72150
G1 X97.501 Y109.164 E69.74364
G1 X91.480 Y103.144 E70.14105
G1 X90.845 Y103.144 E70.17069
G1 X97.075 Y109.374 E70.58193
G1 X96.650 Y109.583 E70.60407
G1 X90.210 Y103.144 E71.02912
G1 X89.575 Y103.144 E71.05877
G1 X96.224 Y109.793 E71.49765
G1 X95.798 Y110.002 E71.51979
G1 X88.940 Y103.144 E71.97249
G1 X88.305 Y103.144 E72.00214
G1 X95.373 Y110.212 E72.46867
G1 X94.947 Y110.421 E72.49081
G1 X87.670 Y103.144 E72.97116
G1 X87.229 Y103.338 E72.99365
G1 X94.521 Y110.630 E73.47500
G1 X94.096 Y110.840 E73.49714
G1 X86.997 Y103.741 E73.96574
G1 X86.764 Y104.143 E73.98744
G1 X93.670 Y111.049 E74.44329
G1 X93.244 Y111.259 E74.46544
G1 X86.532 Y104.546 E74.90853
G1 X86.299 Y104.949 E74.93023
G1 X92.817 Y111.466 E75.36043
G1 X92.388 Y111.673 E75.38262
G1 X86.067 Y105.351 E75.79990
G1 X85.834 Y105.754 E75.82160
G1 X91.960 Y111.880 E76.22597
G1 X91.532 Y112.087 E76.24816
G1 X85.602 Y106.156 E76.63961
G1 X85.369 Y106.559 E76.66131
G1 X91.104 Y112.294 E77.03984
G1 X90.676 Y112.501 E77.06204
G1 X85.137 Y106.962 E77.42765
G1 X84.905 Y107.364 E77.44935
G1 X90.248 Y112.708 E77.80206
G1 X89.820 Y112.915 E77.82425
G1 X84.672 Y107.767 E78.16404
G1 X84.440 Y108.170 E78.18574
G1 X89.392 Y113.122 E78.51261
G1 X88.964 Y113.328 E78.53480
G1 X84.207 Y108.572 E78.84876
G1 X83.975 Y108.975 E78.87046
G1 X88.535 Y113.535 E79.17150
G1 X88.107 Y113.742 E79.19369
G1 X83.742 Y109.377 E79.48182
G1 X83.510 Y109.780 E79.50352
G1 X87.679 Y113.949 E79.77873
G1 X87.251 Y114.156 E79.80092
G1 X83.277 Y110.183 E80.06322
G1 X83.045 Y110.585 E80.08492
G1 X86.823 Y114.363 E80.33430
G1 X86.395 Y114.570 E80.35649
G1 X82.812 Y110.988 E80.59295
G1 X82.580 Y111.391 E80.61465
G1 X85.967 Y114.777 E80.83820
G1 X85.539 Y114.984 E80.86040
G1 X82.348 Y111.793 E81.07103
G1 X82.115 Y112.196 E81.09273
G1 X85.269 Y115.350 E81.30092
G1 X85.229 Y115.945 E81.32877
G1 X81.883 Y112.598 E81.54969
G1 X81.650 Y113.001 E81.57139
G1 X85.190 Y116.541 E81.80504
G1 X85.150 Y117.136 E81.83290
G1 X81.418 Y113.404 E82.07929
G1 X81.185 Y113.806 E82.10099
G1 X85.111 Y117.732 E82.36011
G1 X85.071 Y118.327 E82.38796
G1 X80.953 Y114.209 E82.65982
G1 X80.720 Y114.611 E82.68151
G1 X85.032 Y118.923 E82.96610
G1 X84.992 Y119.518 E82.99396
G1 X80.488 Y115.014 E83.29128
G1 X80.255 Y115.417 E83.31297
G1 X84.953 Y120.114 E83.62303
G1 X84.913 Y120.709 E83.65088
G1 X80.023 Y115.819 E83.97367
G1 X79.791 Y116.222 E83.99537
G1 X84.874 Y121.305 E84.33089
G1 X84.834 Y121.900 E84.35874
G1 X79.558 Y116.625 E84.70699
G1 X79.326 Y117.027 E84.72869
G1 X84.794 Y122.496 E85.08968
G1 X84.755 Y123.092 E85.11753
G1 X79.093 Y117.430 E85.49125
G1 X78.861 Y117.832 E85.51295
G1 X84.715 Y123.687 E85.89940
G1 X84.675 Y124.282 E85.92722
G1 X78.628 Y118.235 E86.32634
G1 X78.396 Y118.638 E86.34804
G1 X84.631 Y124.873 E86.75964
G1 X84.588 Y125.465 E86.78733
G1 X78.163 Y119.040 E87.21140
G1 X77.931 Y119.443 E87.23310
G1 X84.545 Y126.057 E87.66966
G1 X84.501 Y126.648 E87.69734
G1 X77.698 Y119.846 E88.14637
G1 X77.466 Y120.248 E88.16807
G1 X84.458 Y127.240 E88.62957
G1 X84.414 Y127.831 E88.65726
G1 X77.234 Y120.651 E89.13124
G1 X77.001 Y121.053 E89.15294
G1 X84.371 Y128.423 E89.63940
G1 X84.327 Y129.015 E89.66708
G1 X76.769 Y121.456 E90.16602
G1 X76.536 Y121.859 E90.18772
G1 X84.284 Y129.606 E90.69912
G1 X84.240 Y130.198 E90.72681
G1 X76.304 Y122.261 E91.25069
G1 X76.071 Y122.664 E91.27239
G1 X84.197 Y130.790 E91.80875
G1 X84.153 Y131.381 E91.83644
G1 X75.839 Y123.067 E92.38528
G1 X75.606 Y123.469 E92.40698
G1 X84.110 Y131.973 E92.96829
G1 X84.067 Y132.564 E92.99598
G1 X75.374 Y123.872 E93.56976
G1 X75.153 Y125.556 F7800.000
G1 X96.453 Y146.856 E94.97576 F1800.000
G1 X97.088 Y146.856 E95.00540
G1 X74.909 Y124.677 E96.46942
G1 X75.142 Y124.274 E96.49112
G1 X97.723 Y146.856 E97.98171
G1 X98.358 Y146.856 E98.01135
G1 X85.025 Y133.523 E98.89147
G1 X86.946 Y134.809 F7800.000
G1 X98.993 Y146.856 E99.68670 F1800.000
G1 X99.629 Y146.856 E99.71634
G1 X88.867 Y136.095 E100.42667
G1 X90.789 Y137.381 F7800.000
G1 X100.264 Y146.856 E101.05211 F1800.000
G1 X100.899 Y146.856 E101.08175
G1 X92.752 Y138.710 E101.61950
G1 X94.734 Y140.057 F7800.000
G1 X101.534 Y146.856 E102.06833 F1800.000
G1 X102.169 Y146.856 E102.09797
G1 X96.716 Y141.404 E102.45789
G1 X98.668 Y142.721 F7800.000
G1 X102.804 Y146.856 E102.73087 F1800.000
G1 X103.439 Y146.856 E102.76051
G1 X99.094 Y142.511 E103.04732
G1 X99.520 Y142.302 E103.06946
G1 X104.074 Y146.856 E103.37010
G1 X104.709 Y146.856 E103.39974
G1 X99.945 Y142.092 E103.71420
G1 X100.371 Y141.883 E103.73634
G1 X105.344 Y146.856 E104.06462
G1 X105.979 Y146.856 E104.09426
G1 X100.797 Y141.673 E104.43637
G1 X101.222 Y141.464 E104.45851
G1 X106.614 Y146.856 E104.81444
G1 X107.249 Y146.856 E104.84409
G1 X101.648 Y141.255 E105.21384
G1 X102.073 Y141.045 E105.23598
G1 X107.885 Y146.856 E105.61957
G1 X108.520 Y146.856 E105.64921
G1 X102.499 Y140.836 E106.04661
G1 X102.925 Y140.626 E106.06876
G1 X109.155 Y146.856 E106.47999
G1 X109.790 Y146.856 E106.50963
G1 X103.350 Y140.417 E106.93468
G1 X103.776 Y140.207 E106.95683
G1 X110.425 Y146.856 E107.39571
G1 X111.060 Y146.856 E107.42535
G1 X104.202 Y139.998 E107.87805
G1 X104.627 Y139.789 E107.90019
G1 X111.695 Y146.856 E108.36672
G1 X112.330 Y146.856 E108.39637
G1 X105.053 Y139.579 E108.87672
G1 X105.479 Y139.370 E108.89886
G1 X112.771 Y146.662 E109.38022
G1 X113.003 Y146.259 E109.40192
G1 X105.904 Y139.160 E109.87052
G1 X106.330 Y138.951 E109.89266
G1 X113.236 Y145.857 E110.34851
G1 X113.468 Y145.454 E110.37021
G1 X106.755 Y138.741 E110.81331
G1 X107.183 Y138.534 E110.83550
G1 X113.701 Y145.051 E111.26570
G1 X113.933 Y144.649 E111.28740
G1 X107.612 Y138.327 E111.70468
G1 X108.040 Y138.120 E111.72688
G1 X114.166 Y144.246 E112.13124
G1 X114.398 Y143.844 E112.15294
G1 X108.468 Y137.913 E112.54439
G1 X108.896 Y137.706 E112.56659
G1 X114.630 Y143.441 E112.94512
G1 X114.863 Y143.038 E112.96682
G1 X109.324 Y137.499 E113.33244
G1 X109.752 Y137.292 E113.35463
G1 X115.095 Y142.636 E113.70734
G1 X115.328 Y142.233 E113.72904
G1 X110.180 Y137.085 E114.06883
G1 X110.608 Y136.879 E114.09102
G1 X115.560 Y141.831 E114.41789
G1 X115.793 Y141.428 E114.43959
G1 X111.036 Y136.672 E114.75355
G1 X111.465 Y136.465 E114.77575
G1 X116.025 Y141.025 E115.07679
G1 X116.258 Y140.623 E115.09849
G1 X111.893 Y136.258 E115.38662
G1 X112.321 Y136.051 E115.40881
G1 X116.490 Y140.220 E115.68402
G1 X116.723 Y139.817 E115.70572
G1 X112.749 Y135.844 E115.96802
G1 X113.177 Y135.637 E115.99021
G1 X116.955 Y139.415 E116.23959
G1 X117.187 Y139.012 E116.26129
G1 X113.605 Y135.430 E116.49776
G1 X114.033 Y135.223 E116.51995
G1 X117.420 Y138.610 E116.74350
G1 X117.652 Y138.207 E116.76520
G1 X114.461 Y135.016 E116.97584
G1 E114.97584 F2400.00000
G92 E0
G1 X113.054 Y115.191 F7800.000
G1 E2.00000 F2400.00000
G1 X101.006 Y103.144 E2.79522 F1800.000
G1 X109.211 Y112.619 F7800.000
G1 X99.736 Y103.144 E3.42064 F1800.000
G1 X100.371 Y103.144 E3.45028
G1 X111.132 Y113.905 E4.16060
G1 E2.16060 F2400.00000
G92 E0
G1 X79.491 Y133.069 F7800.000
G1 E2.00000 F2400.00000
G1 X93.278 Y146.856 E2.91007 F1800.000
G1 X92.643 Y146.856 E2.93972
G1 X80.358 Y134.572 E3.75061
G1 X81.226 Y136.074 F7800.000
G1 X92.008 Y146.856 E4.46231 F1800.000
G1 X91.373 Y146.856 E4.49195
G1 X82.093 Y137.577 E5.10447
G1 X82.961 Y139.079 F7800.000
G1 X90.737 Y146.856 E5.61781 F1800.000
G1 X90.102 Y146.856 E5.64745
G1 X83.828 Y140.582 E6.06161
G1 X84.696 Y142.085 F7800.000
G1 X89.467 Y146.856 E6.37657 F1800.000
G1 X88.832 Y146.856 E6.40622
G1 X85.563 Y143.587 E6.62200
G1 X86.431 Y145.090 F7800.000
G1 X88.197 Y146.856 E6.73860 F1800.000
G1 X87.562 Y146.856 E6.76824
G1 X87.298 Y146.592 E6.78565
G1 X78.623 Y131.566 F7800.000
G1 X93.913 Y146.856 E7.79491 F1800.000
G1 X94.548 Y146.856 E7.82455
G1 X77.755 Y130.064 E8.93300
G1 X76.888 Y128.561 F7800.000
G1 X95.183 Y146.856 E10.14063 F1800.000
G1 X95.818 Y146.856 E10.17027
G1 X76.020 Y127.059 E11.47708
M106 S255
G1 Z0.450 F7800.000
G1 E9.47708 F2400.00000
G92 E0
G1 X115.834 Y117.397 F7800.000
G1 E2.00000 F2400.00000
G1 X115.299 Y124.046 E2.26682 F3000.000
G1 X114.501 Y134.911 E2.70260
G1 X108.476 Y137.773 E2.96942
G1 X98.667 Y142.514 E3.40520
G1 X93.176 Y138.726 E3.67202
G1 X84.166 Y132.603 E4.10780
G1 X84.701 Y125.954 E4.37463
G1 X85.499 Y115.089 E4.81041
G1 X91.524 Y112.227 E5.07723
G1 X101.333 Y107.486 E5.51301
G1 X106.824 Y111.274 E5.77983
G1 X115.791 Y117.368 E6.21351
G1 X115.332 Y117.638 F7800.000
G1 X114.820 Y124.009 E6.46920 F3000.000
G1 X114.042 Y134.597 E6.89385
G1 X108.268 Y137.339 E7.14953
G1 X98.710 Y141.959 E7.57418
G1 X93.448 Y138.330 E7.82987
G1 X84.668 Y132.362 E8.25452
G1 X85.180 Y125.991 E8.51021
G1 X85.958 Y115.403 E8.93486
G1 X91.732 Y112.661 E9.19055
G1 X101.290 Y108.041 E9.61519
G1 X106.552 Y111.670 E9.87088
G1 X115.289 Y117.608 E10.29343
G1 X114.921 Y117.835 F7800.000
G1 X114.427 Y123.979 E10.45083 F1500.000
G1 X113.666 Y134.339 E10.71608
G1 X108.098 Y136.983 E10.87347
G1 X98.745 Y141.505 E11.13872
G1 X93.671 Y138.004 E11.29612
G1 X85.079 Y132.165 E11.56137
G1 X85.573 Y126.021 E11.71877
G1 X86.334 Y115.661 E11.98402
G1 X91.902 Y113.017 E12.14142
G1 X101.255 Y108.495 E12.40667
G1 X106.329 Y111.996 E12.56406
G1 X114.878 Y117.805 E12.82797
G1 X115.260 Y117.922 F7800.000
G1 X112.881 Y102.689 F7800.000
G1 X125.762 Y125.000 E13.85847 F3000.000
G1 X112.881 Y147.311 E14.88897
G1 X87.119 Y147.311 E15.91946
G1 X74.238 Y125.000 E16.94996
G1 X87.119 Y102.689 E17.98046
G1 X112.829 Y102.689 E19.00886
G1 X113.159 Y102.208 F7800.000
G1 X126.318 Y125.000 E20.06157 F3000.000
G1 X113.159 Y147.792 E21.11429
G1 X86.841 Y147.792 E22.16700
G1 X73.682 Y125.000 E23.21972
G1 X86.841 Y102.208 E24.27244
G1 X113.106 Y102.208 E25.32305
G1 X113.386 Y101.814 F7800.000
G1 X126.773 Y125.000 E26.00667 F1500.000
G1 X113.386 Y148.186 E26.69028
G1 X86.614 Y148.186 E27.37390
G1 X73.227 Y125.000 E28.05751
G1 X86.614 Y101.814 E28.74112
G1 X113.334 Y101.814 E29.42340
G1 X113.326 Y102.159 F7800.000
G1 X101.572 Y107.351 F7800.000
G1 X105.948 Y102.976 E29.67227 F1200.000
G1 X106.632 Y102.976 E29.69979
G1 X101.977 Y107.630 E29.96455
G1 X102.382 Y107.910 E29.98433
G1 X107.316 Y102.976 E30.26498
G1 X108.000 Y102.976 E30.29249
G1 X102.787 Y108.189 E30.58902
G1 X103.192 Y108.468 E30.60881
G1 X108.684 Y102.976 E30.92122
G1 X109.368 Y102.976 E30.94874
G1 X103.597 Y108.747 E31.27704
G1 X104.001 Y109.027 E31.29682
G1 X110.052 Y102.976 E31.64101
G1 X110.736 Y102.976 E31.66853
G1 X104.406 Y109.306 E32.02861
G1 X104.811 Y109.585 E32.04839
G1 X111.420 Y102.976 E32.42435
G1 X112.105 Y102.976 E32.45187
G1 X105.216 Y109.865 E32.84371
G1 X105.621 Y110.144 E32.86350
G1 X112.758 Y103.007 E33.26948
G1 X113.020 Y103.429 E33.28946
G1 X106.026 Y110.423 E33.68733
G1 X106.430 Y110.702 E33.70711
G1 X113.270 Y103.862 E34.09620
G1 X113.521 Y104.296 E34.11634
G1 X106.835 Y110.982 E34.49664
G1 X107.242 Y111.259 E34.51644
G1 X113.771 Y104.730 E34.88785
G1 X114.022 Y105.163 E34.90800
G1 X107.649 Y111.536 E35.27048
G1 X108.057 Y111.813 E35.29029
G1 X114.272 Y105.597 E35.64385
G1 X114.522 Y106.031 E35.66400
G1 X108.464 Y112.089 E36.00863
G1 X108.871 Y112.366 E36.02844
G1 X114.773 Y106.465 E36.36415
G1 X115.023 Y106.898 E36.38430
G1 X109.278 Y112.643 E36.71108
G1 X109.686 Y112.920 E36.73089
G1 X115.274 Y107.332 E37.04875
G1 X115.524 Y107.766 E37.06889
G1 X110.093 Y113.197 E37.37783
G1 X110.500 Y113.473 E37.39764
G1 X115.774 Y108.199 E37.69765
G1 X116.025 Y108.633 E37.71779
G1 X110.908 Y113.750 E38.00888
G1 X111.315 Y114.027 E38.02868
G1 X116.275 Y109.067 E38.31084
G1 X116.526 Y109.500 E38.33099
G1 X111.722 Y114.304 E38.60422
G1 X112.130 Y114.581 E38.62403
G1 X116.776 Y109.934 E38.88834
G1 X117.026 Y110.368 E38.90848
G1 X112.537 Y114.857 E39.16387
G1 X112.944 Y115.134 E39.18367
G1 X117.277 Y110.802 E39.43013
G1 X117.527 Y111.235 E39.45028
G1 X113.351 Y115.411 E39.68781
G1 X113.759 Y115.688 E39.70762
G1 X117.778 Y111.669 E39.93623
G1 X118.028 Y112.103 E39.95637
G1 X114.166 Y115.965 E40.17605
G1 X114.573 Y116.241 E40.19586
G1 X118.278 Y112.536 E40.40662
G1 X118.529 Y112.970 E40.42676
G1 X114.981 Y116.518 E40.62860
G1 X115.388 Y116.795 E40.64840
G1 X118.779 Y113.404 E40.84131
G1 X119.030 Y113.837 E40.86146
G1 X115.795 Y117.072 E41.04544
G1 X116.129 Y117.423 E41.06490
G1 X119.280 Y114.271 E41.24417
G1 X119.530 Y114.705 E41.26432
G1 X116.069 Y118.167 E41.46124
G1 X116.009 Y118.911 E41.49126
G1 X119.781 Y115.139 E41.70583
G1 X120.031 Y115.572 E41.72597
G1 X115.949 Y119.655 E41.95819
G1 X115.889 Y120.399 E41.98821
G1 X120.282 Y116.006 E42.23807
G1 X120.532 Y116.440 E42.25822
G1 X115.829 Y121.143 E42.52573
G1 X115.769 Y121.887 E42.55575
G1 X120.782 Y116.873 E42.84091
G1 X121.033 Y117.307 E42.86106
G1 X115.709 Y122.630 E43.16387
G1 X115.650 Y123.374 E43.19389
G1 X121.283 Y117.741 E43.51435
G1 X121.534 Y118.175 E43.53449
G1 X115.590 Y124.118 E43.87260
G1 X115.535 Y124.857 E43.90240
G1 X121.784 Y118.608 E44.25786
G1 X122.034 Y119.042 E44.27800
G1 X115.481 Y125.596 E44.65079
G1 X115.427 Y126.334 E44.68057
G1 X122.285 Y119.476 E45.07069
G1 X122.535 Y119.909 E45.09083
G1 X115.372 Y127.072 E45.49828
G1 X115.318 Y127.810 E45.52806
G1 X122.786 Y120.343 E45.95283
G1 X123.036 Y120.777 E45.97297
G1 X115.264 Y128.549 E46.41507
G1 X115.210 Y129.287 E46.44485
G1 X123.286 Y121.210 E46.90428
G1 X123.537 Y121.644 E46.92442
G1 X115.156 Y130.025 E47.40118
G1 X115.101 Y130.764 E47.43096
G1 X123.787 Y122.078 E47.92504
G1 X124.038 Y122.512 E47.94519
G1 X115.047 Y131.502 E48.45660
G1 X114.993 Y132.240 E48.48638
G1 X124.288 Y122.945 E49.01512
G1 X124.538 Y123.379 E49.03526
G1 X114.939 Y132.979 E49.58133
G1 X114.884 Y133.717 E49.61111
G1 X124.789 Y123.813 E50.17450
G1 X125.039 Y124.246 E50.19465
G1 X114.830 Y134.455 E50.77537
G1 X113.542 Y135.744 F7800.000
G1 X102.262 Y147.024 E51.41701 F1200.000
G1 X102.946 Y147.024 E51.44453
G1 X125.290 Y124.680 E52.71553
G1 X124.950 Y125.704 F7800.000
G1 X103.630 Y147.024 E53.92832 F1200.000
G1 X104.314 Y147.024 E53.95584
G1 X124.016 Y127.322 E55.07655
G1 X123.081 Y128.941 F7800.000
G1 X104.998 Y147.024 E56.10520 F1200.000
G1 X105.682 Y147.024 E56.13272
G1 X122.147 Y130.559 E57.06929
G1 X121.212 Y132.178 F7800.000
G1 X106.366 Y147.024 E57.91379 F1200.000
G1 X107.050 Y147.024 E57.94131
G1 X120.278 Y133.797 E58.69374
G1 X119.343 Y135.415 F7800.000
G1 X107.734 Y147.024 E59.35409 F1200.000
G1 X108.418 Y147.024 E59.38161
G1 X118.409 Y137.034 E59.94990
G1 X117.474 Y138.652 F7800.000
G1 X109.103 Y147.024 E60.42611 F1200.000
G1 X109.787 Y147.024 E60.45363
G1 X116.540 Y140.271 E60.83777
G1 X115.605 Y141.890 F7800.000
G1 X110.471 Y147.024 E61.12984 F1200.000
G1 X111.155 Y147.024 E61.15736
G1 X114.671 Y143.508 E61.35736
G1 X113.736 Y145.127 F7800.000
G1 X111.839 Y147.024 E61.46528 F1200.000
G1 X112.802 Y146.745 E61.50560
G1 X112.523 Y147.024 E61.52146
G1 X108.324 Y138.225 F7800.000
G1 X99.525 Y147.024 E62.02197 F1200.000
G1 X100.209 Y147.024 E62.04949
G1 X109.634 Y137.600 E62.58558
G1 X110.936 Y136.981 F7800.000
G1 X100.893 Y147.024 E63.15685 F1200.000
G1 X101.577 Y147.024 E63.18437
G1 X112.239 Y136.363 E63.79082
G1 X107.000 Y138.865 F7800.000
G1 X98.841 Y147.024 E64.25492 F1200.000
G1 X98.157 Y147.024 E64.28244
G1 X105.675 Y139.506 E64.71012
G1 X104.351 Y140.146 F7800.000
G1 X97.473 Y147.024 E65.10139 F1200.000
G1 X96.789 Y147.024 E65.12890
G1 X103.027 Y140.786 E65.48375
G1 X101.703 Y141.426 F7800.000
G1 X96.105 Y147.024 E65.80219 F1200.000
G1 X95.421 Y147.024 E65.82971
G1 X100.378 Y142.066 E66.11173
G1 X99.054 Y142.706 F7800.000
G1 X94.736 Y147.024 E66.35733 F1200.000
G1 X94.052 Y147.024 E66.38485
G1 X98.427 Y142.649 E66.63372
G1 X98.023 Y142.370 E66.65350
G1 X93.368 Y147.024 E66.91826
G1 X92.684 Y147.024 E66.94578
G1 X97.618 Y142.090 E67.22643
G1 X97.213 Y141.811 E67.24621
G1 X92.000 Y147.024 E67.54274
G1 X91.316 Y147.024 E67.57026
G1 X96.808 Y141.532 E67.88268
G1 X96.403 Y141.253 E67.90246
G1 X90.632 Y147.024 E68.23076
G1 X89.948 Y147.024 E68.25828
G1 X95.998 Y140.973 E68.60247
G1 X95.594 Y140.694 E68.62225
G1 X89.264 Y147.024 E68.98233
G1 X88.579 Y147.024 E69.00985
G1 X95.189 Y140.415 E69.38581
G1 X94.784 Y140.135 E69.40559
G1 X87.895 Y147.024 E69.79744
G1 X87.242 Y146.993 E69.82375
G1 X94.379 Y139.856 E70.22973
G1 X93.974 Y139.577 E70.24951
G1 X86.980 Y146.571 E70.64738
G1 X86.729 Y146.138 E70.66753
G1 X93.570 Y139.298 E71.05661
G1 X93.165 Y139.018 E71.07639
G1 X86.479 Y145.704 E71.45669
G1 X86.229 Y145.270 E71.47684
G1 X92.758 Y138.741 E71.84825
G1 X92.351 Y138.464 E71.86805
G1 X85.978 Y144.837 E72.23054
G1 X85.728 Y144.403 E72.25068
G1 X91.943 Y138.187 E72.60424
G1 X91.536 Y137.911 E72.62405
G1 X85.477 Y143.969 E72.96869
G1 X85.227 Y143.535 E72.98883
G1 X91.129 Y137.634 E73.32454
G1 X90.722 Y137.357 E73.34435
G1 X84.977 Y143.102 E73.67113
G1 X84.726 Y142.668 E73.69128
G1 X90.314 Y137.080 E74.00914
G1 X89.907 Y136.803 E74.02895
G1 X84.476 Y142.234 E74.33788
G1 X84.225 Y141.801 E74.35802
G1 X89.500 Y136.527 E74.65803
G1 X89.092 Y136.250 E74.67784
G1 X83.975 Y141.367 E74.96893
G1 X83.725 Y140.933 E74.98907
G1 X88.685 Y135.973 E75.27123
G1 X88.278 Y135.696 E75.29104
G1 X83.474 Y140.500 E75.56427
G1 X83.224 Y140.066 E75.58441
G1 X87.870 Y135.419 E75.84872
G1 X87.463 Y135.143 E75.86853
G1 X82.973 Y139.632 E76.12391
G1 X82.723 Y139.198 E76.14406
G1 X87.056 Y134.866 E76.39051
G1 X86.648 Y134.589 E76.41032
G1 X82.473 Y138.765 E76.64785
G1 X82.222 Y138.331 E76.66800
G1 X86.241 Y134.312 E76.89661
G1 X85.834 Y134.035 E76.91641
G1 X81.972 Y137.897 E77.13610
G1 X81.722 Y137.464 E77.15624
G1 X85.427 Y133.759 E77.36700
G1 X85.019 Y133.482 E77.38681
G1 X81.471 Y137.030 E77.58864
G1 X81.221 Y136.596 E77.60878
G1 X84.612 Y133.205 E77.80169
G1 X84.205 Y132.928 E77.82150
G1 X80.970 Y136.162 E78.00548
G1 X80.720 Y135.729 E78.02562
G1 X83.871 Y132.577 E78.20489
G1 X83.931 Y131.833 E78.23491
G1 X80.470 Y135.295 E78.43184
G1 X80.219 Y134.861 E78.45198
G1 X83.991 Y131.089 E78.66655
G1 X84.051 Y130.345 E78.69657
G1 X79.969 Y134.428 E78.92879
G1 X79.718 Y133.994 E78.94893
G1 X84.111 Y129.601 E79.19880
G1 X84.171 Y128.857 E79.22882
G1 X79.468 Y133.560 E79.49633
G1 X79.218 Y133.127 E79.51648
G1 X84.231 Y128.113 E79.80164
G1 X84.291 Y127.369 E79.83166
G1 X78.967 Y132.693 E80.13448
G1 X78.717 Y132.259 E80.15462
G1 X84.350 Y126.625 E80.47508
G1 X84.410 Y125.882 E80.50510
G1 X78.466 Y131.825 E80.84321
G1 X78.216 Y131.392 E80.86336
G1 X84.465 Y125.143 E81.21882
G1 X84.519 Y124.404 E81.24860
G1 X77.966 Y130.958 E81.62139
G1 X77.715 Y130.524 E81.64153
G1 X84.573 Y123.666 E82.03165
G1 X84.628 Y122.928 E82.06143
G1 X77.465 Y130.091 E82.46887
G1 X77.214 Y129.657 E82.48902
G1 X84.682 Y122.189 E82.91379
G1 X84.736 Y121.451 E82.94357
G1 X76.964 Y129.223 E83.38567
G1 X76.714 Y128.790 E83.40582
G1 X84.790 Y120.713 E83.86525
G1 X84.844 Y119.974 E83.89502
G1 X76.463 Y128.356 E84.37178
G1 X76.213 Y127.922 E84.39193
G1 X84.899 Y119.236 E84.88601
G1 X84.953 Y118.498 E84.91579
G1 X75.962 Y127.488 E85.42720
G1 X75.712 Y127.055 E85.44735
G1 X85.007 Y117.760 E85.97609
G1 X85.061 Y117.021 E86.00587
G1 X75.462 Y126.621 E86.55194
G1 X75.211 Y126.187 E86.57208
G1 X85.116 Y116.283 E87.13548
G1 X85.170 Y115.545 E87.16525
G1 X74.961 Y125.754 E87.74598
G1 X74.710 Y125.320 E87.76612
G1 X97.054 Y102.976 E89.03712
G1 X96.370 Y102.976 E89.06464
G1 X75.050 Y124.296 E90.27742
G1 X75.984 Y122.678 F7800.000
G1 X95.686 Y102.976 E91.39813 F1200.000
G1 X95.002 Y102.976 E91.42565
G1 X76.919 Y121.059 E92.45429
G1 X77.853 Y119.441 F7800.000
G1 X94.318 Y102.976 E93.39085 F1200.000
G1 X93.634 Y102.976 E93.41837
G1 X78.788 Y117.822 E94.26286
G1 X79.722 Y116.203 F7800.000
G1 X92.950 Y102.976 E95.01529 F1200.000
G1 X92.266 Y102.976 E95.04280
G1 X80.657 Y114.585 E95.70315
G1 X81.591 Y112.966 F7800.000
G1 X91.581 Y102.976 E96.27143 F1200.000
G1 X90.897 Y102.976 E96.29895
G1 X82.526 Y111.348 E96.77516
G1 X83.460 Y109.729 F7800.000
G1 X90.213 Y102.976 E97.15929 F1200.000
G1 X89.529 Y102.976 E97.18681
G1 X84.395 Y108.110 E97.47887
G1 X85.329 Y106.492 F7800.000
G1 X88.845 Y102.976 E97.67887 F1200.000
G1 X88.161 Y102.976 E97.70638
G1 X86.264 Y104.873 E97.81430
G1 X87.198 Y103.255 F7800.000
G1 X87.477 Y102.976 E97.83015 F1200.000
G1 X91.676 Y111.775 F7800.000
G1 X100.475 Y102.976 E98.33067 F1200.000
G1 X101.159 Y102.976 E98.35818
G1 X93.000 Y111.135 E98.82228
G1 X94.324 Y110.495 F7800.000
G1 X101.843 Y102.976 E99.24997 F1200.000
G1 X102.527 Y102.976 E99.27748
G1 X95.649 Y109.854 E99.66875
G1 X96.973 Y109.214 F7800.000
G1 X103.211 Y102.976 E100.02361 F1200.000
G1 X103.895 Y102.976 E100.05112
G1 X98.297 Y108.574 E100.36956
G1 X99.622 Y107.934 F7800.000
G1 X104.579 Y102.976 E100.65158 F1200.000
G1 X105.264 Y102.976 E100.67910
G1 X100.946 Y107.294 E100.92471
G1 X90.366 Y112.400 F7800.000
G1 X99.791 Y102.976 E101.46080 F1200.000
G1 X99.107 Y102.976 E101.48832
G1 X89.064 Y113.019 E102.05959
G1 X87.761 Y113.637 F7800.000
G1 X98.422 Y102.976 E102.66606 F1200.000
G1 X97.738 Y102.976 E102.69357
G1 X86.458 Y114.256 E103.33522
G1 Z0.650 F7800.000
G1 X101.446 Y107.294 F7800.000
G1 X103.983 Y109.070 E103.45908 F3000.000
G1 X116.057 Y117.400 E104.04582
G1 X115.787 Y120.484 E104.16969
G1 X114.611 Y135.106 E104.75642
G1 X111.804 Y136.414 E104.88029
G1 X98.554 Y142.706 E105.46702
G1 X96.017 Y140.930 E105.59089
G1 X83.943 Y132.600 E106.17763
G1 X84.213 Y129.516 E106.30149
G1 X85.389 Y114.894 E106.88823
G1 X88.196 Y113.586 E107.01209
G1 X101.399 Y107.317 E107.59673
G1 X101.400 Y107.849 F7800.000
G1 X103.708 Y109.465 E107.70946 F3000.000
G1 X115.553 Y117.637 E108.28507
G1 X115.308 Y120.444 E108.39780
G1 X114.154 Y134.788 E108.97341
G1 X111.599 Y135.979 E109.08614
G1 X98.600 Y142.151 E109.66174
G1 X96.292 Y140.535 E109.77447
G1 X84.447 Y132.364 E110.35008
G1 X84.692 Y129.556 E110.46281
G1 X85.846 Y115.212 E111.03842
G1 X88.401 Y114.021 E111.15115
G1 X101.352 Y107.871 E111.72465
G1 X101.362 Y108.303 F7800.000
G1 X103.483 Y109.789 E111.79079 F1500.000
G1 X115.141 Y117.831 E112.15241
G1 X114.915 Y120.411 E112.21855
G1 X113.779 Y134.528 E112.58016
G1 X111.432 Y135.622 E112.64630
G1 X98.638 Y141.697 E113.00792
G1 X96.517 Y140.211 E113.07406
G1 X84.859 Y132.169 E113.43567
G1 X85.085 Y129.589 E113.50181
G1 X86.221 Y115.472 E113.86343
G1 X88.568 Y114.378 E113.92957
G1 X101.314 Y108.326 E114.28984
G1 X101.608 Y108.055 F7800.000
G1 X112.931 Y102.602 F7800.000
G1 X125.862 Y125.000 E115.32434 F3000.000
G1 X112.931 Y147.398 E116.35883
G1 X87.069 Y147.398 E117.39333
G1 X74.138 Y125.000 E118.42783
G1 X87.069 Y102.602 E119.46232
G1 X112.879 Y102.602 E120.49472
G1 X113.209 Y102.121 F7800.000
G1 X126.418 Y125.000 E121.55144 F3000.000
G1 X113.209 Y147.879 E122.60815
G1 X86.791 Y147.879 E123.66487
G1 X73.582 Y125.000 E124.72159
G1 X86.791 Y102.121 E125.77830
G1 X113.156 Y102.121 E126.83292
G1 X113.436 Y101.727 F7800.000
G1 X126.873 Y125.000 E127.51909 F1500.000
G1 X113.436 Y148.273 E128.20525
G1 X86.564 Y148.273 E128.89142
G1 X73.127 Y125.000 E129.57759
G1 X86.564 Y101.727 E130.26375
G1 X113.384 Y101.727 E130.94858
G1 X113.376 Y102.072 F7800.000
G1 X112.802 Y103.255 F7800.000
G1 X112.523 Y102.976 E130.96444 F1200.000
G1 X111.839 Y102.976 E130.99195
G1 X113.736 Y104.873 E131.09988
G1 X114.671 Y106.492 F7800.000
G1 X111.155 Y102.976 E131.29988 F1200.000
G1 X110.471 Y102.976 E131.32740
G1 X115.605 Y108.110 E131.61947
G1 X116.540 Y109.729 F7800.000
G1 X109.787 Y102.976 E132.00361 F1200.000
G1 X109.103 Y102.976 E132.03112
G1 X117.474 Y111.348 E132.50734
G1 X118.409 Y112.966 F7800.000
G1 X108.418 Y102.976 E133.07562 F1200.000
G1 X107.734 Y102.976 E133.10314
G1 X119.343 Y114.585 E133.76350
G1 X120.278 Y116.203 F7800.000
G1 X107.050 Y102.976 E134.51592 F1200.000
G1 X106.366 Y102.976 E134.54344
G1 X121.212 Y117.822 E135.38794
G1 X122.147 Y119.441 F7800.000
G1 X105.682 Y102.976 E136.32451 F1200.000
G1 X104.998 Y102.976 E136.35203
G1 X123.081 Y121.059 E137.38067
G1 X124.016 Y122.678 F7800.000
G1 X104.314 Y102.976 E138.50138 F1200.000
G1 X103.630 Y102.976 E138.52890
G1 X124.950 Y124.296 E139.74168
G1 X125.290 Y125.320 F7800.000
G1 X102.946 Y102.976 E141.01269 F1200.000
G1 X102.262 Y102.976 E141.04020
G1 X125.039 Y125.754 E142.33587
G1 X124.789 Y126.187 E142.35602
G1 X116.309 Y117.708 E142.83835
G1 X116.254 Y118.337 E142.86375
G1 X124.538 Y126.621 E143.33498
G1 X124.288 Y127.055 E143.35512
G1 X116.199 Y118.966 E143.81523
G1 X116.144 Y119.595 E143.84063
G1 X124.038 Y127.488 E144.28963
G1 X123.787 Y127.922 E144.30977
G1 X116.089 Y120.224 E144.74766
G1 X116.037 Y120.856 E144.77316
G1 X123.537 Y128.356 E145.19977
G1 X123.286 Y128.790 E145.21992
G1 X115.986 Y121.489 E145.63518
G1 X115.935 Y122.122 E145.66073
G1 X123.036 Y129.223 E146.06465
G1 X122.786 Y129.657 E146.08479
G1 X115.884 Y122.756 E146.47737
G1 X115.833 Y123.389 E146.50292
G1 X122.535 Y130.091 E146.88415
G1 X122.285 Y130.524 E146.90429
G1 X115.782 Y124.022 E147.27417
G1 X115.731 Y124.655 E147.29972
G1 X122.034 Y130.958 E147.65826
G1 X121.784 Y131.392 E147.67840
G1 X115.680 Y125.288 E148.02559
G1 X115.630 Y125.921 E148.05114
G1 X121.534 Y131.825 E148.38699
G1 X121.283 Y132.259 E148.40713
G1 X115.579 Y126.555 E148.73163
G1 X115.528 Y127.188 E148.75718
G1 X121.033 Y132.693 E149.07034
G1 X120.782 Y133.127 E149.09048
G1 X115.477 Y127.821 E149.39229
G1 X115.426 Y128.454 E149.41784
G1 X120.532 Y133.560 E149.70830
G1 X120.282 Y133.994 E149.72844
G1 X115.375 Y129.087 E150.00756
G1 X115.324 Y129.720 E150.03311
G1 X120.031 Y134.428 E150.30088
G1 X119.781 Y134.861 E150.32103
G1 X115.273 Y130.353 E150.57745
G1 X115.222 Y130.987 E150.60300
G1 X119.530 Y135.295 E150.84809
G1 X119.280 Y135.729 E150.86823
G1 X115.171 Y131.620 E151.10196
G1 X115.120 Y132.253 E151.12751
G1 X119.030 Y136.162 E151.34990
G1 X118.779 Y136.596 E151.37005
G1 X115.069 Y132.886 E151.58109
G1 X115.018 Y133.519 E151.60664
G1 X118.529 Y137.030 E151.80634
G1 X118.278 Y137.464 E151.82648
G1 X114.967 Y134.152 E152.01484
G1 X114.916 Y134.786 E152.04038
G1 X118.028 Y137.897 E152.21739
G1 X117.778 Y138.331 E152.23754
G1 X114.761 Y135.315 E152.40911
G1 X114.295 Y135.532 E152.42982
G1 X117.527 Y138.765 E152.61369
G1 X117.277 Y139.198 E152.63384
G1 X113.828 Y135.750 E152.83000
G1 X113.362 Y135.967 E152.85071
G1 X117.026 Y139.632 E153.05917
G1 X116.776 Y140.066 E153.07932
G1 X112.895 Y136.185 E153.30008
G1 X112.429 Y136.402 E153.32078
G1 X116.526 Y140.500 E153.55384
G1 X116.275 Y140.933 E153.57398
G1 X111.962 Y136.620 E153.81933
G1 X111.498 Y136.840 E153.83999
G1 X116.025 Y141.367 E154.09752
G1 X115.774 Y141.801 E154.11766
G1 X111.034 Y137.060 E154.38732
G1 X110.570 Y137.280 E154.40798
G1 X115.524 Y142.234 E154.68978
G1 X115.274 Y142.668 E154.70993
G1 X110.106 Y137.501 E155.00387
G1 X109.642 Y137.721 E155.02453
G1 X115.023 Y143.102 E155.33062
G1 X114.773 Y143.535 E155.35076
G1 X109.178 Y137.941 E155.66899
G1 X108.715 Y138.161 E155.68965
G1 X114.522 Y143.969 E156.02002
G1 X114.272 Y144.403 E156.04016
G1 X108.251 Y138.382 E156.38268
G1 X107.787 Y138.602 E156.40333
G1 X114.022 Y144.837 E156.75799
G1 X113.771 Y145.270 E156.77813
G1 X107.323 Y138.822 E157.14493
G1 X106.859 Y139.042 E157.16559
G1 X113.521 Y145.704 E157.54453
G1 X113.270 Y146.138 E157.56467
G1 X106.395 Y139.263 E157.95575
G1 X105.931 Y139.483 E157.97641
G1 X113.020 Y146.571 E158.37963
G1 X112.758 Y146.993 E158.39961
G1 X105.468 Y139.703 E158.81431
G1 X105.004 Y139.923 E158.83496
G1 X112.105 Y147.024 E159.23888
G1 X111.420 Y147.024 E159.26640
G1 X104.540 Y140.144 E159.65778
G1 X104.076 Y140.364 E159.67844
G1 X110.736 Y147.024 E160.05730
G1 X110.052 Y147.024 E160.08481
G1 X103.612 Y140.584 E160.45114
G1 X103.148 Y140.804 E160.47180
G1 X109.368 Y147.024 E160.82560
G1 X108.684 Y147.024 E160.85312
G1 X102.685 Y141.025 E161.19439
G1 X102.221 Y141.245 E161.21504
G1 X108.000 Y147.024 E161.54379
G1 X107.316 Y147.024 E161.57131
G1 X101.757 Y141.465 E161.88752
G1 X101.293 Y141.685 E161.90818
G1 X106.632 Y147.024 E162.21186
G1 X105.948 Y147.024 E162.23938
G1 X100.829 Y141.906 E162.53054
G1 X100.365 Y142.126 E162.55119
G1 X105.264 Y147.024 E162.82982
G1 X104.579 Y147.024 E162.85734
G1 X99.901 Y142.346 E163.12344
G1 X99.438 Y142.566 E163.14409
G1 X103.895 Y147.024 E163.39767
G1 X103.211 Y147.024 E163.42518
G1 X98.974 Y142.787 E163.66623
G1 X98.510 Y143.007 E163.68688
G1 X102.527 Y147.024 E163.91540
G1 X101.843 Y147.024 E163.94291
G1 X96.604 Y141.785 E164.24095
G1 X94.367 Y140.233 F7800.000
G1 X101.159 Y147.024 E164.62727 F1200.000
G1 X100.475 Y147.024 E164.65479
G1 X92.162 Y138.711 E165.12766
G1 X89.956 Y137.189 F7800.000
G1 X99.791 Y147.024 E165.68709 F1200.000
G1 X99.107 Y147.024 E165.71461
G1 X87.750 Y135.668 E166.36060
G1 X85.545 Y134.146 F7800.000
G1 X98.423 Y147.024 E167.09313 F1200.000
G1 X97.738 Y147.024 E167.12065
G1 X74.961 Y124.246 E168.41632
G1 X75.211 Y123.813 E168.43646
G1 X83.691 Y132.292 E168.91880
G1 X83.746 Y131.663 E168.94420
G1 X75.462 Y123.379 E169.41543
G1 X75.712 Y122.945 E169.43557
G1 X83.801 Y131.034 E169.89568
G1 X83.856 Y130.405 E169.92108
G1 X75.962 Y122.512 E170.37008
G1 X76.213 Y122.078 E170.39022
G1 X83.911 Y129.776 E170.82811
G1 X83.963 Y129.144 E170.85362
G1 X76.463 Y121.644 E171.28023
G1 X76.714 Y121.210 E171.30037
G1 X84.014 Y128.511 E171.71564
G1 X84.065 Y127.878 E171.74119
G1 X76.964 Y120.777 E172.14511
G1 X77.214 Y120.343 E172.16525
G1 X84.116 Y127.244 E172.55782
G1 X84.167 Y126.611 E172.58337
G1 X77.465 Y119.909 E172.96460
G1 X77.715 Y119.476 E172.98475
G1 X84.218 Y125.978 E173.35463
G1 X84.269 Y125.345 E173.38018
G1 X77.966 Y119.042 E173.73872
G1 X78.216 Y118.608 E173.75886
G1 X84.320 Y124.712 E174.10605
G1 X84.370 Y124.079 E174.13160
G1 X78.466 Y118.175 E174.46745
G1 X78.717 Y117.741 E174.48759
G1 X84.421 Y123.446 E174.81210
G1 X84.472 Y122.812 E174.83765
G1 X78.967 Y117.307 E175.15080
G1 X79.218 Y116.873 E175.17094
G1 X84.523 Y122.179 E175.47275
G1 X84.574 Y121.546 E175.49830
G1 X79.468 Y116.440 E175.78877
G1 X79.718 Y116.006 E175.80891
G1 X84.625 Y120.913 E176.08803
G1 X84.676 Y120.280 E176.11358
G1 X79.969 Y115.572 E176.38135
G1 X80.219 Y115.139 E176.40150
G1 X84.727 Y119.647 E176.65792
G1 X84.778 Y119.013 E176.68347
G1 X80.470 Y114.705 E176.92856
G1 X80.720 Y114.271 E176.94870
G1 X84.829 Y118.380 E177.18244
G1 X84.880 Y117.747 E177.20798
G1 X80.970 Y113.838 E177.43038
G1 X81.221 Y113.404 E177.45052
G1 X84.931 Y117.114 E177.66156
G1 X84.982 Y116.481 E177.68711
G1 X81.471 Y112.970 E177.88681
G1 X81.722 Y112.536 E177.90696
G1 X85.033 Y115.848 E178.09531
G1 X85.084 Y115.214 E178.12086
G1 X81.972 Y112.103 E178.29787
G1 X82.222 Y111.669 E178.31801
G1 X85.239 Y114.685 E178.48959
G1 X85.705 Y114.468 E178.51029
G1 X82.473 Y111.235 E178.69417
G1 X82.723 Y110.802 E178.71431
G1 X86.172 Y114.250 E178.91048
G1 X86.638 Y114.033 E178.93118
G1 X82.974 Y110.368 E179.13965
G1 X83.224 Y109.934 E179.15979
G1 X87.105 Y113.815 E179.38055
G1 X87.571 Y113.598 E179.40125
G1 X83.474 Y109.500 E179.63431
G1 X83.725 Y109.067 E179.65445
G1 X88.038 Y113.380 E179.89980
G1 X88.502 Y113.160 E179.92046
G1 X83.975 Y108.633 E180.17798
G1 X84.226 Y108.199 E180.19813
G1 X88.966 Y112.940 E180.46779
G1 X89.430 Y112.720 E180.48844
G1 X84.476 Y107.766 E180.77025
G1 X84.726 Y107.332 E180.79039
G1 X89.894 Y112.500 E181.08434
G1 X90.358 Y112.279 E181.10499
G1 X84.977 Y106.898 E181.41108
G1 X85.227 Y106.465 E181.43122
G1 X90.822 Y112.059 E181.74946
G1 X91.285 Y111.839 E181.77011
G1 X85.478 Y106.031 E182.10048
G1 X85.728 Y105.597 E182.12063
G1 X91.749 Y111.618 E182.46314
G1 X92.213 Y111.398 E182.48379
G1 X85.978 Y105.163 E182.83845
G1 X86.229 Y104.730 E182.85859
G1 X92.677 Y111.178 E183.22539
G1 X93.141 Y110.958 E183.24604
G1 X86.479 Y104.296 E183.62498
G1 X86.729 Y103.862 E183.64513
G1 X93.605 Y110.737 E184.03621
G1 X94.068 Y110.517 E184.05686
G1 X86.980 Y103.429 E184.46009
G1 X87.242 Y103.007 E184.48007
G1 X94.532 Y110.297 E184.89476
G1 X94.996 Y110.077 E184.91542
G1 X87.895 Y102.976 E185.31934
G1 X88.579 Y102.976 E185.34685
G1 X95.460 Y109.856 E185.73824
G1 X95.924 Y109.636 E185.75889
G1 X89.264 Y102.976 E186.13776
G1 X89.948 Y102.976 E186.16527
G1 X96.388 Y109.416 E186.53160
G1 X96.852 Y109.196 E186.55226
G1 X90.632 Y102.976 E186.90606
G1 X91.316 Y102.976 E186.93358
G1 X97.315 Y108.975 E187.27485
G1 X97.779 Y108.755 E187.29551
G1 X92.000 Y102.976 E187.62425
G1 X92.684 Y102.976 E187.65177
G1 X98.243 Y108.535 E187.96798
G1 X98.707 Y108.315 E187.98864
G1 X93.368 Y102.976 E188.29233
G1 X94.052 Y102.976 E188.31984
G1 X99.171 Y108.094 E188.61100
G1 X99.635 Y107.874 E188.63166
G1 X94.736 Y102.976 E188.91029
G1 X95.421 Y102.976 E188.93780
G1 X100.099 Y107.654 E189.20391
G1 X100.562 Y107.434 E189.22456
G1 X96.105 Y102.976 E189.47813
G1 X96.789 Y102.976 E189.50565
G1 X101.026 Y107.213 E189.74669
G1 X101.490 Y106.993 E189.76735
G1 X97.473 Y102.976 E189.99586
G1 X98.157 Y102.976 E190.02338
G1 X103.396 Y108.215 E190.32141
G1 X105.632 Y109.767 F7800.000
G1 X98.841 Y102.976 E190.70773 F1200.000
G1 X99.525 Y102.976 E190.73524
G1 X107.838 Y111.289 E191.20811
G1 X110.044 Y112.811 F7800.000
G1 X100.209 Y102.976 E191.76754 F1200.000
G1 X100.893 Y102.976 E191.79505
G1 X112.250 Y114.332 E192.44103
G1 X114.455 Y115.854 F7800.000
G1 X101.577 Y102.976 E193.17357 F1200.000
G1 X74.710 Y124.680 F7800.000
G1 X97.054 Y147.024 E194.44457 F1200.000
G1 X96.370 Y147.024 E194.47208
G1 X75.050 Y125.704 E195.68486
G1 X75.984 Y127.322 F7800.000
G1 X95.686 Y147.024 E196.80557 F1200.000
G1 X95.002 Y147.024 E196.83309
G1 X76.919 Y128.941 E197.86172
G1 X77.853 Y130.559 F7800.000
G1 X94.318 Y147.024 E198.79829 F1200.000
G1 X93.634 Y147.024 E198.82581
G1 X78.788 Y132.178 E199.67030
G1 X79.722 Y133.797 F7800.000
G1 X92.950 Y147.024 E200.42272 F1200.000
G1 X92.266 Y147.024 E200.45024
G1 X80.657 Y135.415 E201.11059
G1 X81.591 Y137.034 F7800.000
G1 X91.581 Y147.024 E201.67886 F1200.000
G1 X90.897 Y147.024 E201.70638
G1 X82.526 Y138.652 E202.18259
G1 X83.460 Y140.271 F7800.000
G1 X90.213 Y147.024 E202.56672 F1200.000
G1 X89.529 Y147.024 E202.59424
G1 X84.395 Y141.890 E202.88630
G1 X85.329 Y143.508 F7800.000
G1 X88.845 Y147.024 E203.08629 F1200.000
G1 X88.161 Y147.024 E203.11381
G1 X86.264 Y145.127 E203.22173
G1 X87.198 Y146.745 F7800.000
G1 X87.477 Y147.024 E203.23758 F1200.000
G1 Z0.850 F7800.000
G1 E201.23758 F2400.00000
G92 E0
G1 X101.553 Y107.102 F7800.000
G1 E2.00000 F2400.00000
G1 X116.276 Y117.401 E2.71869 F3000.000
G1 X114.719 Y135.296 E3.43719
G1 X98.443 Y142.895 E4.15569
G1 X83.724 Y132.599 E4.87419
G1 X85.281 Y114.704 E5.59271
G1 X101.506 Y107.125 E6.30901
G1 X101.507 Y107.657 F7800.000
G1 X115.773 Y117.636 E7.00539 F3000.000
G1 X114.264 Y134.977 E7.70168
G1 X98.491 Y142.342 E8.39796
G1 X84.227 Y132.364 E9.09424
G1 X85.736 Y115.022 E9.79053
G1 X101.459 Y107.680 E10.48466
G1 X101.469 Y108.111 F7800.000
G1 X115.360 Y117.828 E10.91753 F1500.000
G1 X113.891 Y134.717 E11.35038
G1 X98.531 Y141.888 E11.78323
G1 X84.640 Y132.172 E12.21608
G1 X86.109 Y115.283 E12.64893
G1 X101.421 Y108.134 E13.08043
G1 X101.716 Y107.864 F7800.000
G1 X87.019 Y102.516 F7800.000
G1 X112.981 Y102.516 E14.11893 F3000.000
G1 X125.962 Y125.000 E15.15742
G1 X112.981 Y147.484 E16.19592
G1 X87.019 Y147.484 E17.23442
G1 X74.038 Y125.000 E18.27291
G1 X86.993 Y102.561 E19.30931
G1 X86.741 Y102.035 F7800.000
G1 X113.259 Y102.035 E20.37003 F3000.000
G1 X126.518 Y125.000 E21.43074
G1 X113.259 Y147.965 E22.49146
G1 X86.741 Y147.965 E23.55218
G1 X73.482 Y125.000 E24.61289
G1 X86.715 Y102.080 E25.67151
G1 X86.514 Y101.641 F7800.000
G1 X113.486 Y101.641 E26.36023 F1500.000
G1 X126.973 Y125.000 E27.04895
G1 X113.486 Y148.359 E27.73767
G1 X86.514 Y148.359 E28.42639
G1 X73.027 Y125.000 E29.11511
G1 X86.487 Y101.686 E29.80249
G1 X86.782 Y101.866 F7800.000
G1 X87.751 Y103.031 F7800.000
G1 X87.967 Y103.835 E29.83582 F4800.000
G1 X86.789 Y105.014 E29.90248
G1 X86.148 Y104.842 E29.92901
G1 X87.255 Y102.925 E30.01756
G1 X87.857 Y102.925 E30.04166
G1 X87.751 Y103.031 E30.04764
G1 X91.435 Y103.769 F7800.000
G1 X90.630 Y103.553 E30.08097 F4800.000
G1 X89.452 Y104.731 E30.14763
G1 X89.668 Y105.536 E30.18095
G1 X88.489 Y106.715 E30.24761
G1 X87.685 Y106.499 E30.28094
G1 X86.506 Y107.677 E30.34760
G1 X86.722 Y108.482 E30.38093
G1 X85.544 Y109.660 E30.44758
G1 X84.739 Y109.445 E30.48091
G1 X83.560 Y110.623 E30.54757
G1 X83.776 Y111.428 E30.58090
G1 X82.598 Y112.606 E30.64755
G1 X81.786 Y112.398 E30.68109
G1 X83.035 Y110.233 E30.78107
G1 X83.220 Y110.283 E30.78874
G1 X84.399 Y109.105 E30.85539
G1 X84.183 Y108.300 E30.88872
G1 X85.361 Y107.121 E30.95538
G1 X86.166 Y107.337 E30.98871
G1 X87.344 Y106.159 E31.05536
G1 X87.129 Y105.354 E31.08869
G1 X88.307 Y104.176 E31.15535
G1 X89.112 Y104.391 E31.18868
G1 X90.290 Y103.213 E31.25534
G1 X90.213 Y102.925 E31.26726
G1 X92.279 Y102.925 E31.34991
G1 X91.435 Y103.769 E31.39764
G1 X94.099 Y103.486 F7800.000
G1 X94.314 Y104.291 E31.43097 F4800.000
G1 X93.136 Y105.469 E31.49763
G1 X92.331 Y105.254 E31.53096
G1 X91.153 Y106.432 E31.59762
G1 X91.369 Y107.237 E31.63094
G1 X90.190 Y108.415 E31.69760
G1 X89.385 Y108.200 E31.73093
G1 X88.207 Y109.378 E31.79759
G1 X88.423 Y110.183 E31.83092
G1 X87.244 Y111.361 E31.89757
G1 X86.440 Y111.146 E31.93090
G1 X85.261 Y112.324 E31.99756
G1 X85.477 Y113.129 E32.03089
G1 X84.299 Y114.307 E32.09754
G1 X83.494 Y114.091 E32.13087
G1 X82.315 Y115.270 E32.19753
G1 X82.531 Y116.075 E32.23086
G1 X81.353 Y117.253 E32.29752
G1 X80.548 Y117.037 E32.33084
G1 X79.369 Y118.216 E32.39750
G1 X79.585 Y119.020 E32.43083
G1 X78.407 Y120.199 E32.49749
G1 X77.602 Y119.983 E32.53082
G1 X77.139 Y120.446 E32.55701
G1 X78.678 Y117.781 E32.68011
G1 X79.029 Y117.875 E32.69468
G1 X80.208 Y116.697 E32.76133
G1 X79.992 Y115.892 E32.79466
G1 X81.170 Y114.714 E32.86132
G1 X81.975 Y114.930 E32.89465
G1 X83.154 Y113.751 E32.96130
G1 X82.938 Y112.946 E32.99463
G1 X84.116 Y111.768 E33.06129
G1 X84.921 Y111.984 E33.09462
G1 X86.099 Y110.805 E33.16128
G1 X85.884 Y110.001 E33.19460
G1 X87.062 Y108.822 E33.26126
G1 X87.867 Y109.038 E33.29459
G1 X89.045 Y107.859 E33.36125
G1 X88.830 Y107.055 E33.39458
G1 X90.008 Y105.876 E33.46123
G1 X90.813 Y106.092 E33.49456
G1 X91.991 Y104.914 E33.56122
G1 X91.775 Y104.109 E33.59455
G1 X92.954 Y102.930 E33.66120
G1 X93.759 Y103.146 E33.69453
G1 X93.980 Y102.925 E33.70705
G1 X94.660 Y102.925 E33.73427
G1 X94.099 Y103.486 E33.76603
G1 X98.961 Y103.046 F7800.000
G1 X97.783 Y104.224 E33.83269 F4800.000
G1 X96.978 Y104.009 E33.86602
G1 X95.800 Y105.187 E33.93267
G1 X96.015 Y105.992 E33.96600
G1 X94.837 Y107.170 E34.03266
G1 X94.032 Y106.955 E34.06599
G1 X92.854 Y108.133 E34.13265
G1 X93.069 Y108.938 E34.16597
G1 X91.891 Y110.116 E34.23263
G1 X91.086 Y109.900 E34.26596
G1 X89.908 Y111.079 E34.33262
G1 X90.124 Y111.884 E34.36595
G1 X89.915 Y112.092 E34.37771
G1 X88.240 Y112.873 E34.45167
G1 X88.140 Y112.846 E34.45579
G1 X88.003 Y112.983 E34.46354
G1 X86.729 Y113.578 E34.51980
G1 X87.800 Y112.506 E34.58042
G1 X87.585 Y111.701 E34.61374
G1 X88.763 Y110.523 E34.68040
G1 X89.568 Y110.739 E34.71373
G1 X90.746 Y109.560 E34.78039
G1 X90.530 Y108.755 E34.81372
G1 X91.709 Y107.577 E34.88037
G1 X92.514 Y107.793 E34.91370
G1 X93.692 Y106.614 E34.98036
G1 X93.476 Y105.810 E35.01369
G1 X94.655 Y104.631 E35.08034
G1 X95.459 Y104.847 E35.11367
G1 X96.638 Y103.669 E35.18033
G1 X96.438 Y102.925 E35.21113
G1 X98.929 Y102.925 E35.31074
G1 X98.961 Y103.046 E35.31576
G1 X100.446 Y103.942 F7800.000
G1 X100.662 Y104.747 E35.34909 F4800.000
G1 X99.484 Y105.925 E35.41574
G1 X98.679 Y105.710 E35.44907
G1 X97.500 Y106.888 E35.51573
G1 X97.716 Y107.693 E35.54906
G1 X96.538 Y108.871 E35.61572
G1 X95.733 Y108.655 E35.64904
G1 X94.555 Y109.834 E35.71570
G1 X94.577 Y109.918 E35.71919
G1 X92.364 Y110.950 E35.81688
G1 X92.231 Y110.456 E35.83733
G1 X93.410 Y109.278 E35.90399
G1 X94.214 Y109.494 E35.93732
G1 X95.393 Y108.315 E36.00398
G1 X95.177 Y107.510 E36.03731
G1 X96.355 Y106.332 E36.10396
G1 X97.160 Y106.548 E36.13729
G1 X98.339 Y105.369 E36.20395
G1 X98.123 Y104.565 E36.23728
G1 X99.301 Y103.386 E36.30393
G1 X100.106 Y103.602 E36.33726
G1 X100.783 Y102.925 E36.37556
G1 X101.463 Y102.925 E36.40278
G1 X100.446 Y103.942 E36.46032
G1 X102.429 Y102.979 F7800.000
G1 X102.226 Y102.925 E36.46875 F4800.000
G1 X102.484 Y102.925 E36.47907
G1 X102.429 Y102.979 E36.48216
G1 X105.309 Y103.502 F7800.000
G1 X104.130 Y104.680 E36.54882 F4800.000
G1 X103.325 Y104.464 E36.58215
G1 X102.147 Y105.643 E36.64880
G1 X102.363 Y106.448 E36.68213
G1 X101.938 Y106.872 E36.70617
G1 X101.593 Y106.631 E36.72302
G1 X99.476 Y107.633 E36.81669
G1 X100.039 Y107.070 E36.84856
G1 X99.824 Y106.265 E36.88189
G1 X101.002 Y105.087 E36.94855
G1 X101.807 Y105.303 E36.98188
G1 X102.985 Y104.124 E37.04853
G1 X102.770 Y103.319 E37.08186
G1 X103.164 Y102.925 E37.10419
G1 X105.154 Y102.925 E37.18378
G1 X105.309 Y103.502 E37.20767
G1 X108.777 Y103.435 F7800.000
G1 X107.972 Y103.219 E37.24100 F4800.000
G1 X106.794 Y104.398 E37.30766
G1 X107.009 Y105.203 E37.34098
G1 X105.831 Y106.381 E37.40764
G1 X105.026 Y106.165 E37.44097
G1 X103.848 Y107.344 E37.50763
G1 X104.063 Y108.148 E37.54096
G1 X103.939 Y108.273 E37.54798
G1 X102.338 Y107.152 E37.62614
G1 X102.703 Y106.788 E37.64677
G1 X103.508 Y107.003 E37.68010
G1 X104.686 Y105.825 E37.74676
G1 X104.470 Y105.020 E37.78009
G1 X105.649 Y103.842 E37.84674
G1 X106.453 Y104.058 E37.88007
G1 X107.586 Y102.925 E37.94415
G1 X109.287 Y102.925 E38.01218
G1 X108.777 Y103.435 E38.04105
G1 X111.440 Y103.153 F7800.000
G1 X111.656 Y103.957 E38.07438 F4800.000
G1 X110.478 Y105.136 E38.14104
G1 X109.673 Y104.920 E38.17436
G1 X108.494 Y106.099 E38.24102
G1 X108.710 Y106.903 E38.27435
G1 X107.532 Y108.082 E38.34101
G1 X106.727 Y107.866 E38.37434
G1 X105.549 Y109.044 E38.44099
G1 X105.665 Y109.480 E38.45902
G1 X104.340 Y108.553 E38.52373
G1 X104.404 Y108.489 E38.52735
G1 X105.208 Y108.704 E38.56068
G1 X106.387 Y107.526 E38.62734
G1 X106.171 Y106.721 E38.66067
G1 X107.349 Y105.543 E38.72733
G1 X108.154 Y105.758 E38.76065
G1 X109.333 Y104.580 E38.82731
G1 X109.117 Y103.775 E38.86064
G1 X109.967 Y102.925 E38.90875
G1 X111.668 Y102.925 E38.97678
G1 X111.440 Y103.153 E38.98967
G1 X113.596 Y104.399 F7800.000
G1 X113.141 Y104.853 E39.01540 F4800.000
G1 X113.357 Y105.658 E39.04873
G1 X112.178 Y106.837 E39.11539
G1 X111.374 Y106.621 E39.14872
G1 X110.195 Y107.799 E39.21538
G1 X110.411 Y108.604 E39.24870
G1 X109.233 Y109.782 E39.31536
G1 X108.428 Y109.567 E39.34869
G1 X107.342 Y110.653 E39.41011
G1 X106.942 Y110.373 E39.42965
G1 X108.088 Y109.227 E39.49448
G1 X107.872 Y108.422 E39.52781
G1 X109.050 Y107.243 E39.59446
G1 X109.855 Y107.459 E39.62779
G1 X111.033 Y106.281 E39.69445
G1 X110.818 Y105.476 E39.72778
G1 X111.996 Y104.298 E39.79443
G1 X112.801 Y104.513 E39.82776
G1 X113.347 Y103.967 E39.85865
G1 X113.596 Y104.399 E39.87857
G1 X114.502 Y106.214 F7800.000
G1 X114.592 Y106.124 E39.88368 F4800.000
G1 X114.843 Y106.558 E39.90376
G1 X115.058 Y107.359 E39.93692
G1 X113.879 Y108.537 E40.00357
G1 X113.074 Y108.322 E40.03690
G1 X111.896 Y109.500 E40.10356
G1 X112.112 Y110.305 E40.13689
G1 X110.933 Y111.483 E40.20354
G1 X110.129 Y111.268 E40.23687
G1 X109.343 Y112.053 E40.28128
G1 X108.943 Y111.773 E40.30082
G1 X109.788 Y110.927 E40.34863
G1 X109.573 Y110.123 E40.38196
G1 X110.751 Y108.944 E40.44862
G1 X111.556 Y109.160 E40.48195
G1 X112.734 Y107.982 E40.54861
G1 X112.519 Y107.177 E40.58193
G1 X113.697 Y105.998 E40.64859
G1 X114.502 Y106.214 E40.68192
G1 X115.521 Y107.732 F7800.000
G1 X116.460 Y109.359 E40.75704 F4800.000
G1 X115.580 Y110.238 E40.80680
G1 X114.775 Y110.023 E40.84013
G1 X113.597 Y111.201 E40.90679
G1 X113.812 Y112.006 E40.94011
G1 X112.634 Y113.184 E41.00677
G1 X111.829 Y112.968 E41.04010
G1 X111.345 Y113.453 E41.06750
G1 X110.945 Y113.173 E41.08704
G1 X111.489 Y112.628 E41.11784
G1 X111.273 Y111.823 E41.15116
G1 X112.452 Y110.645 E41.21782
G1 X113.257 Y110.861 E41.25115
G1 X114.435 Y109.682 E41.31781
G1 X114.219 Y108.878 E41.35114
G1 X115.398 Y107.699 E41.41779
G1 X115.521 Y107.732 E41.42289
G1 X117.705 Y111.515 F7800.000
G1 X117.281 Y111.939 E41.44687 F4800.000
G1 X116.476 Y111.723 E41.48020
G1 X115.298 Y112.902 E41.54685
G1 X115.513 Y113.707 E41.58018
G1 X114.335 Y114.885 E41.64684
G1 X113.530 Y114.669 E41.68017
G1 X113.347 Y114.853 E41.69055
G1 X112.946 Y114.573 E41.71009
G1 X113.190 Y114.329 E41.72388
G1 X112.974 Y113.524 E41.75721
G1 X114.153 Y112.346 E41.82386
G1 X114.957 Y112.562 E41.85719
G1 X116.136 Y111.383 E41.92385
G1 X115.920 Y110.578 E41.95718
G1 X116.709 Y109.790 E42.00178
G1 X117.705 Y111.515 E42.08147
G1 X118.922 Y113.624 F7800.000
G1 X118.177 Y113.424 E42.11234 F4800.000
G1 X116.998 Y114.602 E42.17900
G1 X117.214 Y115.407 E42.21233
G1 X116.036 Y116.586 E42.27898
G1 X115.692 Y116.494 E42.29320
G1 X114.859 Y115.911 E42.33390
G1 X114.675 Y115.225 E42.36228
G1 X115.853 Y114.047 E42.42894
G1 X116.658 Y114.262 E42.46227
G1 X117.837 Y113.084 E42.52893
G1 X117.621 Y112.279 E42.56225
G1 X117.954 Y111.946 E42.58108
G1 X118.922 Y113.624 E42.65856
G1 X119.821 Y115.181 F7800.000
G1 X118.699 Y116.303 E42.72204 F4800.000
G1 X118.915 Y117.108 E42.75537
G1 X117.737 Y118.286 E42.82203
G1 X116.932 Y118.071 E42.85536
G1 X116.599 Y118.403 E42.87417
G1 X116.704 Y117.201 E42.92244
G1 X116.391 Y116.982 E42.93770
G1 X116.376 Y116.926 E42.94004
G1 X117.554 Y115.747 E43.00670
G1 X118.359 Y115.963 E43.04003
G1 X119.537 Y114.785 E43.10669
G1 X119.490 Y114.607 E43.11406
G1 X119.821 Y115.181 E43.14060
G1 X121.066 Y117.338 F7800.000
G1 X120.400 Y118.004 E43.17830 F4800.000
G1 X120.616 Y118.809 E43.21163
G1 X119.437 Y119.987 E43.27828
G1 X118.632 Y119.772 E43.31161
G1 X117.454 Y120.950 E43.37827
G1 X117.670 Y121.755 E43.41160
G1 X116.491 Y122.933 E43.47826
G1 X116.212 Y122.858 E43.48985
G1 X116.423 Y120.425 E43.58755
G1 X117.114 Y120.610 E43.61615
G1 X118.292 Y119.431 E43.68281
G1 X118.077 Y118.627 E43.71614
G1 X119.255 Y117.448 E43.78279
G1 X120.060 Y117.664 E43.81612
G1 X120.817 Y116.906 E43.85898
G1 X121.066 Y117.338 E43.87890
G1 X122.311 Y119.494 F7800.000
G1 X122.101 Y119.705 E43.89082 F4800.000
G1 X122.316 Y120.510 E43.92414
G1 X121.138 Y121.688 E43.99080
G1 X120.333 Y121.472 E44.02413
G1 X119.155 Y122.651 E44.09079
G1 X119.371 Y123.456 E44.12412
G1 X118.192 Y124.634 E44.19077
G1 X117.387 Y124.418 E44.22410
G1 X116.209 Y125.597 E44.29076
G1 X116.425 Y126.401 E44.32409
G1 X115.854 Y126.972 E44.35639
G1 X116.016 Y125.110 E44.43119
G1 X117.047 Y124.078 E44.48955
G1 X116.832 Y123.273 E44.52287
G1 X118.010 Y122.095 E44.58953
G1 X118.815 Y122.311 E44.62286
G1 X119.993 Y121.132 E44.68952
G1 X119.777 Y120.327 E44.72285
G1 X120.956 Y119.149 E44.78950
G1 X121.761 Y119.365 E44.82283
G1 X122.062 Y119.063 E44.83991
G1 X122.311 Y119.494 E44.85983
G1 X123.174 Y120.989 F7800.000
G1 X123.930 Y122.298 E44.92029 F4800.000
G1 X122.839 Y123.389 E44.98202
G1 X122.034 Y123.173 E45.01535
G1 X120.856 Y124.351 E45.08200
G1 X121.071 Y125.156 E45.11533
G1 X119.893 Y126.335 E45.18199
G1 X119.088 Y126.119 E45.21532
G1 X117.910 Y127.297 E45.28197
G1 X118.126 Y128.102 E45.31530
G1 X116.947 Y129.281 E45.38196
G1 X116.142 Y129.065 E45.41529
G1 X115.627 Y129.581 E45.44446
G1 X115.692 Y128.835 E45.47438
G1 X115.802 Y128.725 E45.48064
G1 X115.726 Y128.440 E45.49242
G1 X115.789 Y127.718 E45.52143
G1 X116.765 Y126.742 E45.57665
G1 X117.570 Y126.957 E45.60998
G1 X118.748 Y125.779 E45.67663
G1 X118.532 Y124.974 E45.70996
G1 X119.711 Y123.796 E45.77662
G1 X120.516 Y124.011 E45.80995
G1 X121.694 Y122.833 E45.87660
G1 X121.478 Y122.028 E45.90993
G1 X122.657 Y120.850 E45.97659
G1 X123.174 Y120.989 E45.99803
G1 X125.175 Y124.454 F7800.000
G1 X124.540 Y125.090 E46.03397 F4800.000
G1 X123.735 Y124.874 E46.06730
G1 X122.557 Y126.052 E46.13396
G1 X122.772 Y126.857 E46.16729
G1 X121.594 Y128.035 E46.23394
G1 X120.789 Y127.820 E46.26727
G1 X119.611 Y128.998 E46.33393
G1 X119.826 Y129.803 E46.36726
G1 X118.648 Y130.981 E46.43392
G1 X117.843 Y130.766 E46.46724
G1 X116.665 Y131.944 E46.53390
G1 X116.880 Y132.749 E46.56723
G1 X115.702 Y133.927 E46.63389
G1 X115.259 Y133.808 E46.65224
G1 X115.465 Y131.443 E46.74720
G1 X115.520 Y131.388 E46.75032
G1 X116.325 Y131.604 E46.78365
G1 X117.503 Y130.425 E46.85031
G1 X117.287 Y129.621 E46.88364
G1 X118.466 Y128.442 E46.95029
G1 X119.270 Y128.658 E46.98362
G1 X120.449 Y127.480 E47.05028
G1 X120.233 Y126.675 E47.08361
G1 X121.412 Y125.496 E47.15027
G1 X122.216 Y125.712 E47.18359
G1 X123.395 Y124.534 E47.25025
G1 X123.179 Y123.729 E47.28358
G1 X124.179 Y122.729 E47.34015
G1 X125.175 Y124.454 E47.41983
G1 X125.490 Y125.000 F7800.000
G1 X124.995 Y125.858 E47.45948 F4800.000
G1 X124.880 Y125.430 E47.47723
G1 X125.424 Y124.885 E47.50802
G1 X125.490 Y125.000 E47.51331
G1 X122.828 Y129.611 F7800.000
G1 X122.490 Y129.521 E47.52732 F4800.000
G1 X121.311 Y130.699 E47.59398
G1 X121.527 Y131.504 E47.62730
G1 X120.349 Y132.682 E47.69396
G1 X119.544 Y132.466 E47.72729
G1 X118.366 Y133.645 E47.79395
G1 X118.581 Y134.450 E47.82728
G1 X117.403 Y135.628 E47.89393
G1 X116.598 Y135.412 E47.92726
G1 X115.420 Y136.591 E47.99392
G1 X115.635 Y137.395 E48.02725
G1 X114.457 Y138.574 E48.09390
G1 X113.652 Y138.358 E48.12723
G1 X112.474 Y139.536 E48.19389
G1 X112.690 Y140.341 E48.22722
G1 X111.511 Y141.520 E48.29388
G1 X110.706 Y141.304 E48.32720
G1 X109.528 Y142.482 E48.39386
G1 X109.744 Y143.287 E48.42719
G1 X108.565 Y144.466 E48.49385
G1 X107.760 Y144.250 E48.52718
G1 X106.582 Y145.428 E48.59383
G1 X106.798 Y146.233 E48.62716
G1 X105.956 Y147.075 E48.67480
G1 X104.255 Y147.075 E48.74284
G1 X104.474 Y146.856 E48.75526
G1 X104.259 Y146.051 E48.78859
G1 X105.437 Y144.872 E48.85525
G1 X106.242 Y145.088 E48.88858
G1 X107.420 Y143.910 E48.95523
G1 X107.205 Y143.105 E48.98856
G1 X108.383 Y141.927 E49.05522
G1 X109.188 Y142.142 E49.08855
G1 X110.366 Y140.964 E49.15520
G1 X110.151 Y140.159 E49.18853
G1 X111.329 Y138.981 E49.25519
G1 X112.134 Y139.196 E49.28852
G1 X113.312 Y138.018 E49.35518
G1 X113.096 Y137.213 E49.38850
G1 X114.275 Y136.035 E49.45516
G1 X115.080 Y136.250 E49.48849
G1 X116.258 Y135.072 E49.55515
G1 X116.042 Y134.267 E49.58848
G1 X117.221 Y133.089 E49.65513
G1 X118.025 Y133.305 E49.68846
G1 X119.204 Y132.126 E49.75512
G1 X118.988 Y131.321 E49.78845
G1 X120.166 Y130.143 E49.85510
G1 X120.971 Y130.359 E49.88843
G1 X122.150 Y129.180 E49.95509
G1 X121.934 Y128.376 E49.98842
G1 X123.112 Y127.197 E50.05508
G1 X123.917 Y127.413 E50.08840
G1 X124.343 Y126.987 E50.11250
G1 X122.828 Y129.611 E50.23371
G1 X120.743 Y133.223 F7800.000
G1 X120.689 Y133.022 E50.24202 F4800.000
G1 X121.090 Y132.621 E50.26474
G1 X120.743 Y133.223 E50.29256
G1 X119.715 Y135.003 F7800.000
G1 X118.470 Y137.159 E50.39217 F4800.000
G1 X118.299 Y137.113 E50.39926
G1 X117.121 Y138.291 E50.46592
G1 X117.336 Y139.096 E50.49925
G1 X116.158 Y140.275 E50.56591
G1 X115.353 Y140.059 E50.59924
G1 X114.175 Y141.237 E50.66589
G1 X114.390 Y142.042 E50.69922
G1 X113.212 Y143.220 E50.76588
G1 X112.407 Y143.005 E50.79921
G1 X111.229 Y144.183 E50.86586
G1 X111.444 Y144.988 E50.89919
G1 X110.266 Y146.166 E50.96585
G1 X109.461 Y145.951 E50.99918
G1 X108.337 Y147.075 E51.06279
G1 X106.636 Y147.075 E51.13083
G1 X107.138 Y146.573 E51.15922
G1 X107.943 Y146.789 E51.19255
G1 X109.121 Y145.611 E51.25921
G1 X108.905 Y144.806 E51.29254
G1 X110.084 Y143.627 E51.35920
G1 X110.889 Y143.843 E51.39252
G1 X112.067 Y142.665 E51.45918
G1 X111.851 Y141.860 E51.49251
G1 X113.030 Y140.681 E51.55917
G1 X113.835 Y140.897 E51.59250
G1 X115.013 Y139.719 E51.65915
G1 X114.797 Y138.914 E51.69248
G1 X115.976 Y137.736 E51.75914
G1 X116.780 Y137.951 E51.79247
G1 X117.959 Y136.773 E51.85912
G1 X117.743 Y135.968 E51.89245
G1 X118.921 Y134.790 E51.95911
G1 X119.715 Y135.003 E51.99199
G1 X112.756 Y136.873 F7800.000
G1 X112.471 Y136.797 E52.00380 F4800.000
G1 X113.149 Y136.480 E52.03374
G1 X112.756 Y136.873 E52.05598
G1 X110.773 Y137.836 F7800.000
G1 X110.989 Y138.641 E52.08931 F4800.000
G1 X109.810 Y139.819 E52.15597
G1 X109.006 Y139.603 E52.18929
G1 X107.827 Y140.782 E52.25595
G1 X108.043 Y141.586 E52.28928
G1 X106.865 Y142.765 E52.35594
G1 X106.060 Y142.549 E52.38926
G1 X104.881 Y143.727 E52.45592
G1 X105.097 Y144.532 E52.48925
G1 X103.919 Y145.711 E52.55591
G1 X103.114 Y145.495 E52.58924
G1 X101.936 Y146.673 E52.65589
G1 X102.043 Y147.075 E52.67254
G1 X99.833 Y147.075 E52.76096
G1 X100.791 Y146.117 E52.81514
G1 X101.595 Y146.333 E52.84846
G1 X102.774 Y145.155 E52.91512
G1 X102.558 Y144.350 E52.94845
G1 X103.736 Y143.172 E53.01511
G1 X104.541 Y143.387 E53.04844
G1 X105.720 Y142.209 E53.11509
G1 X105.504 Y141.404 E53.14842
G1 X106.682 Y140.226 E53.21508
G1 X107.487 Y140.441 E53.24841
G1 X108.665 Y139.263 E53.31506
G1 X108.501 Y138.650 E53.34045
G1 X111.235 Y137.374 E53.46114
G1 X110.773 Y137.836 E53.48728
G1 X106.342 Y139.886 F7800.000
G1 X105.164 Y141.064 E53.55393 F4800.000
G1 X104.359 Y140.848 E53.58726
G1 X103.181 Y142.027 E53.65392
G1 X103.396 Y142.831 E53.68725
G1 X102.218 Y144.010 E53.75390
G1 X101.413 Y143.794 E53.78723
G1 X100.235 Y144.972 E53.85389
G1 X100.450 Y145.777 E53.88722
G1 X99.272 Y146.956 E53.95388
G1 X98.467 Y146.740 E53.98720
G1 X98.132 Y147.075 E54.00617
G1 X97.452 Y147.075 E54.03338
G1 X98.127 Y146.400 E54.07159
G1 X97.911 Y145.595 E54.10491
G1 X99.090 Y144.417 E54.17157
G1 X99.895 Y144.632 E54.20490
G1 X101.073 Y143.454 E54.27156
G1 X100.857 Y142.649 E54.30489
G1 X101.664 Y141.842 E54.35053
G1 X102.305 Y141.543 E54.37883
G1 X102.840 Y141.686 E54.40099
G1 X103.578 Y140.949 E54.44273
G1 X106.288 Y139.683 E54.56235
G1 X106.342 Y139.886 E54.57072
G1 X97.526 Y142.753 F7800.000
G1 X98.402 Y143.365 E54.61347 F4800.000
G1 X98.542 Y143.300 E54.61962
G1 X98.750 Y144.077 E54.65177
G1 X97.571 Y145.255 E54.71843
G1 X96.766 Y145.039 E54.75176
G1 X95.588 Y146.218 E54.81841
G1 X95.804 Y147.022 E54.85174
G1 X95.751 Y147.075 E54.85473
G1 X93.328 Y147.075 E54.95166
G1 X93.265 Y146.840 E54.96139
G1 X94.443 Y145.662 E55.02805
G1 X95.248 Y145.877 E55.06138
G1 X96.426 Y144.699 E55.12804
G1 X96.211 Y143.894 E55.16137
G1 X97.389 Y142.716 E55.22802
G1 X97.526 Y142.753 E55.23371
G1 X97.024 Y142.401 F7800.000
G1 X95.870 Y143.554 E55.29894 F4800.000
G1 X95.066 Y143.338 E55.33227
G1 X93.887 Y144.517 E55.39893
G1 X94.103 Y145.322 E55.43226
G1 X92.925 Y146.500 E55.49891
G1 X92.120 Y146.284 E55.53224
G1 X91.329 Y147.075 E55.57699
G1 X90.648 Y147.075 E55.60420
G1 X91.780 Y145.944 E55.66818
G1 X91.564 Y145.139 E55.70151
G1 X92.742 Y143.961 E55.76817
G1 X93.547 Y144.177 E55.80150
G1 X94.725 Y142.998 E55.86816
G1 X94.510 Y142.193 E55.90148
G1 X95.422 Y141.281 E55.95310
G1 X97.024 Y142.401 E56.03127
G1 X95.022 Y141.001 F7800.000
G1 X94.170 Y141.853 E56.07948 F4800.000
G1 X93.365 Y141.638 E56.11281
G1 X92.186 Y142.816 E56.17947
G1 X92.402 Y143.621 E56.21280
G1 X91.224 Y144.799 E56.27945
G1 X90.419 Y144.583 E56.31278
G1 X89.241 Y145.762 E56.37944
G1 X89.456 Y146.567 E56.41277
G1 X88.948 Y147.075 E56.44154
G1 X87.255 Y147.075 E56.50925
G1 X86.970 Y146.583 E56.53201
G1 X86.917 Y146.384 E56.54022
G1 X88.096 Y145.206 E56.60687
G1 X88.900 Y145.422 E56.64020
G1 X90.079 Y144.243 E56.70686
G1 X89.863 Y143.439 E56.74019
G1 X91.042 Y142.260 E56.80684
G1 X91.846 Y142.476 E56.84017
G1 X93.025 Y141.297 E56.90683
G1 X92.809 Y140.493 E56.94016
G1 X93.421 Y139.881 E56.97476
G1 X95.022 Y141.001 E57.05293
G1 X93.020 Y139.601 F7800.000
G1 X92.469 Y140.152 E57.08413 F4800.000
G1 X91.664 Y139.937 E57.11746
G1 X90.486 Y141.115 E57.18412
G1 X90.701 Y141.920 E57.21745
G1 X89.523 Y143.098 E57.28410
G1 X88.718 Y142.883 E57.31743
G1 X87.540 Y144.061 E57.38409
G1 X87.755 Y144.866 E57.41742
G1 X86.629 Y145.992 E57.48112
G1 X85.633 Y144.267 E57.56080
G1 X86.395 Y143.505 E57.60388
G1 X87.200 Y143.721 E57.63721
G1 X88.378 Y142.543 E57.70386
G1 X88.162 Y141.738 E57.73719
G1 X89.341 Y140.559 E57.80385
G1 X90.146 Y140.775 E57.83718
G1 X91.324 Y139.597 E57.90383
G1 X91.108 Y138.792 E57.93716
G1 X91.419 Y138.481 E57.95476
G1 X93.020 Y139.601 E58.03292
G1 X91.019 Y138.201 F7800.000
G1 X90.768 Y138.452 E58.04711 F4800.000
G1 X89.963 Y138.236 E58.08044
G1 X88.785 Y139.414 E58.14710
G1 X89.001 Y140.219 E58.18042
G1 X87.822 Y141.398 E58.24708
G1 X87.017 Y141.182 E58.28041
G1 X85.839 Y142.360 E58.34707
G1 X86.055 Y143.165 E58.38040
G1 X85.384 Y143.835 E58.41832
G1 X84.388 Y142.110 E58.49800
G1 X84.694 Y141.804 E58.51530
G1 X85.499 Y142.020 E58.54863
G1 X86.677 Y140.842 E58.61528
G1 X86.462 Y140.037 E58.64861
G1 X87.640 Y138.859 E58.71527
G1 X88.445 Y139.074 E58.74860
G1 X89.623 Y137.896 E58.81525
G1 X89.418 Y137.081 E58.84888
G1 X91.019 Y138.201 E58.92704
G1 X88.871 Y136.698 F7800.000
G1 X88.262 Y136.535 E58.95223 F4800.000
G1 X87.084 Y137.714 E59.01889
G1 X87.300 Y138.518 E59.05222
G1 X86.121 Y139.697 E59.11888
G1 X85.317 Y139.481 E59.15221
G1 X84.138 Y140.659 E59.21886
G1 X84.354 Y141.464 E59.25219
G1 X84.139 Y141.679 E59.26433
G1 X83.273 Y140.179 E59.33363
G1 X83.798 Y140.319 E59.35537
G1 X84.976 Y139.141 E59.42202
G1 X84.761 Y138.336 E59.45535
G1 X85.939 Y137.158 E59.52201
G1 X86.744 Y137.373 E59.55534
G1 X87.922 Y136.195 E59.62200
G1 X87.869 Y135.998 E59.63017
G1 X88.871 Y136.698 E59.67905
G1 X86.415 Y134.981 F7800.000
G1 X85.383 Y136.013 E59.73743 F4800.000
G1 X85.599 Y136.818 E59.77076
G1 X84.421 Y137.996 E59.83742
G1 X83.616 Y137.780 E59.87075
G1 X82.521 Y138.875 E59.93269
G1 X82.272 Y138.444 E59.95262
G1 X83.276 Y137.440 E60.00941
G1 X83.060 Y136.635 E60.04274
G1 X84.238 Y135.457 E60.10939
G1 X85.043 Y135.673 E60.14272
G1 X86.015 Y134.701 E60.19770
G1 X86.415 Y134.981 E60.21724
G1 X84.414 Y133.581 F7800.000
G1 X83.683 Y134.312 E60.25861 F4800.000
G1 X83.898 Y135.117 E60.29194
G1 X82.720 Y136.295 E60.35860
G1 X81.915 Y136.080 E60.39193
G1 X81.276 Y136.719 E60.42810
G1 X81.027 Y136.288 E60.44802
G1 X81.575 Y135.739 E60.47903
G1 X81.359 Y134.935 E60.51236
G1 X82.538 Y133.756 E60.57902
G1 X83.342 Y133.972 E60.61235
G1 X84.014 Y133.301 E60.65031
G1 X84.414 Y133.581 E60.66985
G1 X83.409 Y131.500 F7800.000
G1 X83.160 Y131.433 E60.68017 F4800.000
G1 X81.982 Y132.611 E60.74683
G1 X82.197 Y133.416 E60.78016
G1 X81.019 Y134.594 E60.84682
G1 X80.214 Y134.379 E60.88014
G1 X80.031 Y134.562 E60.89053
G1 X79.782 Y134.131 E60.91045
G1 X79.874 Y134.039 E60.91569
G1 X79.658 Y133.234 E60.94902
G1 X80.837 Y132.055 E61.01567
G1 X81.642 Y132.271 E61.04900
G1 X82.820 Y131.093 E61.11566
G1 X82.604 Y130.288 E61.14899
G1 X83.601 Y129.291 E61.20540
G1 X83.409 Y131.500 E61.29409
G1 X83.764 Y127.428 F7800.000
G1 X83.227 Y127.965 E61.32445 F4800.000
G1 X83.442 Y128.769 E61.35778
G1 X82.264 Y129.948 E61.42444
G1 X81.459 Y129.732 E61.45776
G1 X80.281 Y130.910 E61.52442
G1 X80.497 Y131.715 E61.55775
G1 X79.318 Y132.894 E61.62441
G1 X79.021 Y132.814 E61.63671
G1 X78.163 Y131.328 E61.70536
G1 X79.136 Y130.355 E61.76041
G1 X79.941 Y130.570 E61.79373
G1 X81.119 Y129.392 E61.86039
G1 X80.903 Y128.587 E61.89372
G1 X82.082 Y127.409 E61.96038
G1 X82.887 Y127.624 E61.99371
G1 X83.828 Y126.683 E62.04698
G1 X83.764 Y127.428 E62.07690
G1 X83.902 Y125.837 F7800.000
G1 X83.849 Y125.641 E62.08502 F4800.000
G1 X83.926 Y125.565 E62.08934
G1 X83.902 Y125.837 E62.10028
G1 X84.132 Y122.978 F7800.000
G1 X84.153 Y122.957 E62.10145 F4800.000
G1 X83.990 Y124.820 E62.17625
G1 X83.509 Y125.301 E62.20348
G1 X82.704 Y125.085 E62.23680
G1 X81.526 Y126.264 E62.30346
G1 X81.742 Y127.069 E62.33679
G1 X80.563 Y128.247 E62.40345
G1 X79.759 Y128.031 E62.43678
G1 X78.580 Y129.210 E62.50343
G1 X78.796 Y130.014 E62.53676
G1 X77.914 Y130.896 E62.58665
G1 X76.918 Y129.171 E62.66633
G1 X77.435 Y128.654 E62.69559
G1 X78.240 Y128.869 E62.72892
G1 X79.418 Y127.691 E62.79558
G1 X79.203 Y126.886 E62.82891
G1 X80.381 Y125.708 E62.89556
G1 X81.186 Y125.924 E62.92889
G1 X82.364 Y124.745 E62.99555
G1 X82.149 Y123.940 E63.02888
G1 X83.327 Y122.762 E63.09553
G1 X84.132 Y122.978 E63.12886
G1 X84.574 Y118.116 F7800.000
G1 X84.362 Y120.549 E63.22657 F4800.000
G1 X83.949 Y120.439 E63.24365
G1 X82.771 Y121.617 E63.31031
G1 X82.987 Y122.422 E63.34364
G1 X81.808 Y123.600 E63.41030
G1 X81.004 Y123.385 E63.44362
G1 X79.825 Y124.563 E63.51028
G1 X80.041 Y125.368 E63.54361
G1 X78.863 Y126.546 E63.61027
G1 X78.058 Y126.331 E63.64360
G1 X76.879 Y127.509 E63.71025
G1 X77.095 Y128.314 E63.74358
G1 X76.669 Y128.740 E63.76769
G1 X75.673 Y127.015 E63.84737
G1 X75.734 Y126.953 E63.85085
G1 X76.539 Y127.169 E63.88418
G1 X77.718 Y125.990 E63.95084
G1 X77.502 Y125.186 E63.98417
G1 X78.680 Y124.007 E64.05082
G1 X79.485 Y124.223 E64.08415
G1 X80.663 Y123.044 E64.15081
G1 X80.448 Y122.240 E64.18414
G1 X81.626 Y121.061 E64.25079
G1 X82.431 Y121.277 E64.28412
G1 X83.609 Y120.099 E64.35078
G1 X83.394 Y119.294 E64.38411
G1 X84.574 Y118.116 E64.45080
G1 X84.736 Y116.251 F7800.000
G1 X84.016 Y116.970 E64.49152 F4800.000
G1 X84.232 Y117.775 E64.52485
G1 X83.053 Y118.954 E64.59151
G1 X82.249 Y118.738 E64.62484
G1 X81.070 Y119.916 E64.69150
G1 X81.286 Y120.721 E64.72482
G1 X80.108 Y121.900 E64.79148
G1 X79.303 Y121.684 E64.82481
G1 X78.124 Y122.862 E64.89147
G1 X78.340 Y123.667 E64.92480
G1 X77.162 Y124.845 E64.99145
G1 X76.357 Y124.630 E65.02478
G1 X75.179 Y125.808 E65.09144
G1 X75.354 Y126.462 E65.11852
G1 X74.769 Y125.449 E65.16529
G1 X74.838 Y125.468 E65.16816
G1 X76.017 Y124.290 E65.23481
G1 X75.801 Y123.485 E65.26814
G1 X76.979 Y122.306 E65.33480
G1 X77.784 Y122.522 E65.36813
G1 X78.963 Y121.344 E65.43479
G1 X78.747 Y120.539 E65.46811
G1 X79.925 Y119.361 E65.53477
G1 X80.730 Y119.576 E65.56810
G1 X81.908 Y118.398 E65.63476
G1 X81.693 Y117.593 E65.66809
G1 X82.871 Y116.415 E65.73474
G1 X83.676 Y116.630 E65.76807
G1 X84.801 Y115.505 E65.83170
G1 X84.736 Y116.251 E65.86162
G1 X86.544 Y113.664 F7800.000
G1 X84.894 Y114.433 E65.93445 F4800.000
G1 X84.817 Y115.314 E65.96983
G1 X84.639 Y114.647 E65.99747
G1 X85.817 Y113.469 E66.06412
G1 X86.544 Y113.664 E66.09424
G1 X80.830 Y114.374 F7800.000
G1 X80.392 Y114.812 E66.11906 F4800.000
G1 X80.771 Y114.154 E66.14945
G1 X80.830 Y114.374 E66.15853
G1 X76.639 Y121.966 F7800.000
G1 X75.745 Y122.861 E66.20913 F4800.000
G1 X76.519 Y121.519 E66.27110
G1 X76.639 Y121.966 E66.28962
G1 E64.28962 F2400.00000
G92 E0
G1 X98.414 Y108.129 F7800.000
G1 E2.00000 F2400.00000
G1 X97.564 Y108.525 E2.03752 F4800.000
G1 X98.056 Y108.033 E2.06537
G1 X98.414 Y108.129 E2.08018
G1 E0.08018 F2400.00000
G92 E0
G1 X115.358 Y142.550 F7800.000
G1 E2.00000 F2400.00000
G1 X114.113 Y144.707 E2.09961 F4800.000
G1 X112.930 Y145.884 E2.16636
G1 X113.089 Y146.479 E2.19102
G1 X112.745 Y147.075 E2.21854
G1 X110.759 Y147.075 E2.29800
G1 X110.606 Y146.506 E2.32155
G1 X111.785 Y145.328 E2.38821
G1 X112.589 Y145.544 E2.42153
G1 X113.768 Y144.365 E2.48819
G1 X113.552 Y143.561 E2.52152
G1 X114.730 Y142.382 E2.58818
G1 X115.358 Y142.550 E2.61415
G1 X90.425 Y147.075 F7800.000
G1 X89.628 Y147.075 E2.64603 F4800.000
G1 X89.796 Y146.907 E2.65555
G1 X90.425 Y147.075 E2.68158
G1 Z1.050 F7800.000
G1 E0.68158 F2400.00000
G92 E0
G1 X85.171 Y114.508 F7800.000
G1 E2.00000 F2400.00000
G1 X96.728 Y109.217 E2.50842 F3000.000
G1 X101.672 Y106.912 E2.72660
G1 X112.032 Y114.275 E3.23502
G1 X116.500 Y117.404 E3.45320
G1 X115.304 Y130.058 E3.96162
G1 X114.829 Y135.492 E4.17980
G1 X103.272 Y140.783 E4.68822
G1 X98.328 Y143.088 E4.90640
G1 X87.968 Y135.725 E5.41482
G1 X83.500 Y132.596 E5.63300
G1 X84.696 Y119.942 E6.14142
G1 X85.167 Y114.561 E6.35750
G1 X85.626 Y114.829 F7800.000
G1 X96.930 Y109.654 E6.85479 F3000.000
G1 X101.621 Y107.466 E7.06184
G1 X111.755 Y114.668 E7.55913
G1 X115.995 Y117.637 E7.76618
G1 X114.825 Y130.014 E8.26347
G1 X114.374 Y135.171 E8.47051
G1 X103.070 Y140.346 E8.96780
G1 X98.379 Y142.534 E9.17485
G1 X88.245 Y135.332 E9.67214
G1 X84.005 Y132.363 E9.87919
G1 X85.175 Y119.986 E10.37647
G1 X85.622 Y114.882 E10.58142
G1 X85.999 Y115.092 F7800.000
G1 X97.095 Y110.012 E10.89304 F1500.000
G1 X101.580 Y107.921 E11.01939
G1 X111.528 Y114.990 E11.33101
G1 X115.581 Y117.828 E11.45736
G1 X114.433 Y129.978 E11.76898
G1 X114.001 Y134.908 E11.89532
G1 X102.905 Y139.988 E12.20694
G1 X98.420 Y142.079 E12.33329
G1 X88.472 Y135.010 E12.64491
G1 X84.419 Y132.172 E12.77126
G1 X85.567 Y120.022 E13.08288
G1 X85.994 Y115.144 E13.20788
G1 X85.910 Y114.754 F7800.000
G1 X81.380 Y112.429 F7800.000
G1 X86.963 Y102.746 E13.65497 F3000.000
G1 X87.151 Y102.708 E13.66263
G1 X87.953 Y102.654 E13.69481
G1 X89.941 Y102.615 E13.77434
G1 X94.016 Y102.593 E13.93735
G1 X112.753 Y102.583 E14.68683
G1 X112.836 Y102.667 E14.69155
G1 X113.124 Y103.075 E14.71153 F3000.000
G1 X114.358 Y105.098 E14.80632
G1 X116.413 Y108.615 E14.96923
G1 X125.797 Y124.848 E15.71925
G1 X125.602 Y125.297 E15.73885
G1 X125.248 Y125.979 E15.76957
G1 X123.748 Y128.660 E15.89246
G1 X113.035 Y147.257 E16.75094
G1 X112.726 Y147.306 E16.76346
G1 X112.053 Y147.346 E16.79043
G1 X108.704 Y147.396 E16.92441
G1 X87.244 Y147.417 E17.78281
G1 X87.183 Y147.356 E17.78626
G1 X86.948 Y147.033 E17.80225
G1 X86.055 Y145.596 E17.86992
G1 X83.587 Y141.384 E18.06519
G1 X74.209 Y125.164 E18.81462
G1 X74.242 Y125.050 E18.81935
G1 X74.451 Y124.597 E18.83933
G1 X75.586 Y122.517 E18.93412
G1 X81.354 Y112.475 E19.39735
G1 X80.963 Y112.189 F7800.000
G1 X86.600 Y102.413 E19.84873 F3000.000
G1 X86.818 Y102.285 E19.85884
G1 X87.086 Y102.230 E19.86980
G1 X87.932 Y102.173 E19.90372
G1 X89.935 Y102.134 E19.98385
G1 X94.015 Y102.112 E20.14704
G1 X112.863 Y102.102 E20.90096
G1 X113.068 Y102.216 E20.91034
G1 X113.207 Y102.359 E20.91833 F3000.000
G1 X113.526 Y102.811 E20.94045
G1 X114.771 Y104.852 E21.03607
G1 X116.829 Y108.373 E21.19921
G1 X126.262 Y124.690 E21.95312
G1 X126.265 Y124.942 E21.96321
G1 X126.037 Y125.504 E21.98747
G1 X125.672 Y126.207 E22.01916
G1 X124.166 Y128.897 E22.14246
G1 X113.399 Y147.589 E23.00530
G1 X113.177 Y147.722 E23.01568
G1 X112.778 Y147.785 E23.03181
G1 X112.071 Y147.827 E23.06014
G1 X108.708 Y147.877 E23.19468
G1 X87.137 Y147.898 E24.05752
G1 X86.929 Y147.782 E24.06707
G1 X86.816 Y147.670 E24.07343
G1 X86.549 Y147.302 E24.09163
G1 X85.643 Y145.845 E24.16024
G1 X83.171 Y141.627 E24.35581
G1 X73.738 Y125.310 E25.10970
G1 X73.735 Y125.075 E25.11909
G1 X73.789 Y124.883 E25.12708
G1 X74.021 Y124.381 E25.14920
G1 X75.165 Y122.282 E25.24482
G1 X80.937 Y112.234 E25.70833
G1 X80.622 Y111.992 F7800.000
G1 X86.310 Y102.126 E25.99912 F1500.000
G1 X86.674 Y101.912 E26.00990
G1 X87.033 Y101.839 E26.01926
G1 X87.915 Y101.780 E26.04183
G1 X89.930 Y101.740 E26.09328
G1 X94.014 Y101.718 E26.19755
G1 X112.965 Y101.707 E26.68146
G1 X113.310 Y101.900 E26.69154
G1 X113.511 Y102.107 E26.69890 F1500.000
G1 X113.855 Y102.594 E26.71415
G1 X115.109 Y104.649 E26.77562
G1 X117.169 Y108.175 E26.87988
G1 X126.655 Y124.582 E27.36378
G1 X126.660 Y124.987 E27.37412
G1 X126.621 Y125.148 E27.37837
G1 X126.393 Y125.673 E27.39298
G1 X126.019 Y126.394 E27.41372
G1 X124.509 Y129.091 E27.49264
G1 X113.689 Y147.875 E28.04612
G1 X113.286 Y148.103 E28.05797
G1 X112.821 Y148.177 E28.06999
G1 X112.086 Y148.220 E28.08879
G1 X108.711 Y148.271 E28.17497
G1 X87.035 Y148.293 E28.72845
G1 X86.689 Y148.099 E28.73857
G1 X86.516 Y147.926 E28.74482
G1 X86.222 Y147.522 E28.75759
G1 X85.306 Y146.048 E28.80189
G1 X82.831 Y141.825 E28.92688
G1 X73.345 Y125.418 E29.41078
G1 X73.340 Y125.023 E29.42087
G1 X73.418 Y124.746 E29.42822
G1 X73.668 Y124.204 E29.44347
G1 X74.821 Y122.090 E29.50494
G1 X80.596 Y112.037 E29.80096
G1 X80.972 Y111.992 F7800.000
G1 X82.598 Y112.606 F7800.000
G1 X83.029 Y114.216 E29.86762 F4800.000
G1 X82.440 Y114.805 E29.90095
G1 X82.871 Y116.415 E29.96760
G1 X83.676 Y116.630 E30.00093
G1 X84.107 Y118.240 E30.06759
G1 X83.518 Y118.829 E30.10092
G1 X83.949 Y120.439 E30.16757
G1 X84.231 Y120.514 E30.17924
G1 X84.001 Y122.943 E30.27682
G1 X83.327 Y122.762 E30.30475
G1 X82.896 Y121.152 E30.37141
G1 X83.485 Y120.563 E30.40474
G1 X83.053 Y118.954 E30.47139
G1 X82.249 Y118.738 E30.50472
G1 X81.817 Y117.128 E30.57138
G1 X82.406 Y116.539 E30.60471
G1 X81.975 Y114.930 E30.67137
G1 X81.170 Y114.714 E30.70469
G1 X80.969 Y113.961 E30.73587
G1 X81.863 Y112.409 E30.80751
G1 X82.598 Y112.606 E30.83793
G1 X80.706 Y114.838 F7800.000
G1 X80.132 Y115.412 E30.87038 F4800.000
G1 X80.629 Y114.551 E30.91015
G1 X80.706 Y114.838 E30.92206
G1 X80.548 Y117.037 F7800.000
G1 X81.353 Y117.253 E30.95539 F4800.000
G1 X81.784 Y118.863 E31.02205
G1 X81.195 Y119.452 E31.05538
G1 X81.626 Y121.061 E31.12203
G1 X82.431 Y121.277 E31.15536
G1 X82.862 Y122.887 E31.22202
G1 X82.273 Y123.476 E31.25535
G1 X82.704 Y125.085 E31.32201
G1 X83.509 Y125.301 E31.35533
G1 X83.708 Y126.044 E31.38611
G1 X83.594 Y127.258 E31.43486
G1 X83.351 Y127.500 E31.44857
G1 X83.513 Y128.105 E31.47363
G1 X83.198 Y131.443 E31.60774
G1 X83.160 Y131.433 E31.60931
G1 X82.729 Y129.823 E31.67597
G1 X83.318 Y129.234 E31.70930
G1 X82.887 Y127.624 E31.77595
G1 X82.082 Y127.409 E31.80928
G1 X81.651 Y125.799 E31.87594
G1 X82.240 Y125.210 E31.90927
G1 X81.808 Y123.600 E31.97592
G1 X81.004 Y123.385 E32.00925
G1 X80.572 Y121.775 E32.07591
G1 X81.161 Y121.186 E32.10924
G1 X80.730 Y119.576 E32.17590
G1 X79.925 Y119.361 E32.20922
G1 X79.494 Y117.751 E32.27588
G1 X80.083 Y117.162 E32.30921
G1 X79.779 Y116.025 E32.35628
G1 X80.119 Y115.435 E32.38351
G1 X80.548 Y117.037 E32.44985
G1 X79.029 Y117.875 F7800.000
G1 X79.461 Y119.485 E32.51650 F4800.000
G1 X78.871 Y120.074 E32.54983
G1 X79.303 Y121.684 E32.61649
G1 X80.108 Y121.900 E32.64982
G1 X80.539 Y123.509 E32.71648
G1 X79.950 Y124.098 E32.74980
G1 X80.381 Y125.708 E32.81646
G1 X81.186 Y125.924 E32.84979
G1 X81.617 Y127.533 E32.91645
G1 X81.028 Y128.122 E32.94978
G1 X81.459 Y129.732 E33.01643
G1 X82.264 Y129.948 E33.04976
G1 X82.695 Y131.557 E33.11642
G1 X82.106 Y132.147 E33.14975
G1 X82.538 Y133.756 E33.21640
G1 X83.342 Y133.972 E33.24973
G1 X83.774 Y135.582 E33.31639
G1 X83.185 Y136.171 E33.34972
G1 X83.616 Y137.780 E33.41638
G1 X84.421 Y137.996 E33.44970
G1 X84.852 Y139.606 E33.51636
G1 X84.263 Y140.195 E33.54969
G1 X84.694 Y141.804 E33.61635
G1 X85.499 Y142.020 E33.64968
G1 X85.930 Y143.630 E33.71633
G1 X85.581 Y143.979 E33.73608
G1 X84.103 Y141.456 E33.85304
G1 X83.798 Y140.319 E33.90012
G1 X83.378 Y140.207 E33.91751
G1 X82.712 Y139.055 E33.97073
G1 X82.562 Y138.494 E33.99396
G1 X83.151 Y137.905 E34.02729
G1 X82.720 Y136.295 E34.09394
G1 X81.915 Y136.080 E34.12727
G1 X81.484 Y134.470 E34.19393
G1 X82.073 Y133.881 E34.22726
G1 X81.642 Y132.271 E34.29391
G1 X80.837 Y132.055 E34.32724
G1 X80.405 Y130.446 E34.39390
G1 X80.995 Y129.857 E34.42723
G1 X80.563 Y128.247 E34.49389
G1 X79.758 Y128.031 E34.52721
G1 X79.327 Y126.422 E34.59387
G1 X79.916 Y125.833 E34.62720
G1 X79.485 Y124.223 E34.69386
G1 X78.680 Y124.007 E34.72719
G1 X78.249 Y122.398 E34.79384
G1 X78.838 Y121.808 E34.82717
G1 X78.407 Y120.199 E34.89383
G1 X77.602 Y119.983 E34.92716
G1 X77.570 Y119.863 E34.93212
G1 X78.754 Y117.802 E35.02722
G1 X79.029 Y117.875 E35.03862
G1 X76.979 Y122.306 F7800.000
G1 X77.784 Y122.522 E35.07194 F4800.000
G1 X78.216 Y124.132 E35.13860
G1 X77.626 Y124.721 E35.17193
G1 X78.058 Y126.331 E35.23859
G1 X78.863 Y126.546 E35.27192
G1 X79.294 Y128.156 E35.33857
G1 X78.705 Y128.745 E35.37190
G1 X79.136 Y130.355 E35.43856
G1 X79.941 Y130.570 E35.47189
G1 X80.372 Y132.180 E35.53854
G1 X79.783 Y132.769 E35.57187
G1 X80.214 Y134.379 E35.63853
G1 X81.019 Y134.594 E35.67186
G1 X81.450 Y136.204 E35.73852
G1 X81.206 Y136.449 E35.75236
G1 X79.463 Y133.435 E35.89160
G1 X79.318 Y132.894 E35.91403
G1 X79.119 Y132.840 E35.92226
G1 X78.090 Y131.060 E36.00451
G1 X78.671 Y130.479 E36.03738
G1 X78.240 Y128.870 E36.10404
G1 X77.435 Y128.654 E36.13736
G1 X77.004 Y127.044 E36.20402
G1 X77.593 Y126.455 E36.23735
G1 X77.162 Y124.845 E36.30401
G1 X76.357 Y124.630 E36.33734
G1 X75.926 Y123.020 E36.40399
G1 X76.515 Y122.431 E36.43732
G1 X76.384 Y121.942 E36.45756
G1 X76.723 Y121.348 E36.48491
G1 X76.979 Y122.306 E36.52459
G1 X75.892 Y124.754 F7800.000
G1 X75.303 Y125.343 E36.55792 F4800.000
G1 X75.734 Y126.953 E36.62457
G1 X76.539 Y127.169 E36.65790
G1 X76.971 Y128.778 E36.72456
G1 X76.844 Y128.905 E36.73171
G1 X74.658 Y125.124 E36.90642
G1 X74.816 Y124.781 E36.92152
G1 X75.543 Y123.449 E36.98219
G1 X75.892 Y124.754 E37.03623
G1 X84.476 Y117.759 F7800.000
G1 X84.141 Y116.506 E37.08812 F4800.000
G1 X84.629 Y116.018 E37.11573
G1 X84.476 Y117.759 E37.18565
G1 X84.274 Y109.569 F7800.000
G1 X83.685 Y110.158 E37.21897 F4800.000
G1 X84.116 Y111.768 E37.28563
G1 X84.921 Y111.984 E37.31896
G1 X85.352 Y113.593 E37.38562
G1 X84.763 Y114.183 E37.41895
G1 X84.783 Y114.256 E37.42199
G1 X84.660 Y115.657 E37.47825
G1 X84.299 Y114.307 E37.53416
G1 X83.494 Y114.091 E37.56749
G1 X83.062 Y112.482 E37.63415
G1 X83.652 Y111.893 E37.66748
G1 X83.220 Y110.283 E37.73414
G1 X83.107 Y110.253 E37.73883
G1 X84.029 Y108.654 E37.81265
G1 X84.274 Y109.569 E37.85057
G1 X85.361 Y107.121 F7800.000
G1 X86.166 Y107.337 E37.88389 F4800.000
G1 X86.597 Y108.947 E37.95055
G1 X86.008 Y109.536 E37.98388
G1 X86.440 Y111.146 E38.05054
G1 X87.244 Y111.361 E38.08387
G1 X87.662 Y112.919 E38.14836
G1 X86.222 Y113.577 E38.21167
G1 X85.817 Y113.469 E38.22846
G1 X85.386 Y111.859 E38.29512
G1 X85.975 Y111.270 E38.32845
G1 X85.544 Y109.660 E38.39511
G1 X84.739 Y109.445 E38.42844
G1 X84.369 Y108.064 E38.48561
G1 X84.764 Y107.379 E38.51726
G1 X84.897 Y107.246 E38.52476
G1 X84.879 Y107.179 E38.52752
G1 X85.219 Y106.590 E38.55475
G1 X85.361 Y107.121 E38.57676
G1 X87.842 Y104.300 F7800.000
G1 X87.253 Y104.889 E38.61009 F4800.000
G1 X87.685 Y106.499 E38.67675
G1 X88.489 Y106.715 E38.71008
G1 X88.921 Y108.324 E38.77674
G1 X88.332 Y108.913 E38.81006
G1 X88.763 Y110.523 E38.87672
G1 X89.568 Y110.739 E38.91005
G1 X89.880 Y111.903 E38.95827
G1 X88.105 Y112.715 E39.03633
G1 X87.709 Y111.237 E39.09757
G1 X88.298 Y110.647 E39.13090
G1 X87.867 Y109.038 E39.19756
G1 X87.062 Y108.822 E39.23088
G1 X86.631 Y107.213 E39.29754
G1 X87.220 Y106.623 E39.33087
G1 X86.789 Y105.014 E39.39753
G1 X86.216 Y104.860 E39.42124
G1 X87.224 Y103.113 E39.50193
G1 X87.519 Y103.093 E39.51378
G1 X87.842 Y104.300 E39.56376
G1 X90.166 Y103.678 F7800.000
G1 X89.577 Y104.267 E39.59709 F4800.000
G1 X90.008 Y105.876 E39.66375
G1 X90.813 Y106.092 E39.69708
G1 X91.244 Y107.702 E39.76374
G1 X90.655 Y108.291 E39.79706
G1 X91.086 Y109.900 E39.86372
G1 X91.891 Y110.116 E39.89705
G1 X92.098 Y110.888 E39.92900
G1 X90.323 Y111.700 E40.00706
G1 X90.032 Y110.614 E40.05202
G1 X90.622 Y110.025 E40.08535
G1 X90.190 Y108.415 E40.15201
G1 X89.385 Y108.200 E40.18534
G1 X88.954 Y106.590 E40.25200
G1 X89.543 Y106.001 E40.28532
G1 X89.112 Y104.391 E40.35198
G1 X88.307 Y104.176 E40.38531
G1 X88.009 Y103.062 E40.43143
G1 X89.991 Y103.023 E40.51071
G1 X90.166 Y103.678 E40.53780
G1 X92.489 Y103.055 F7800.000
G1 X91.900 Y103.644 E40.57113 F4800.000
G1 X92.331 Y105.254 E40.63779
G1 X93.136 Y105.469 E40.67111
G1 X93.567 Y107.079 E40.73777
G1 X92.978 Y107.668 E40.77110
G1 X93.410 Y109.278 E40.83776
G1 X94.214 Y109.494 E40.87109
G1 X94.316 Y109.872 E40.88676
G1 X92.541 Y110.684 E40.96482
G1 X92.356 Y109.992 E40.99351
G1 X92.945 Y109.402 E41.02684
G1 X92.514 Y107.793 E41.09350
G1 X91.709 Y107.577 E41.12683
G1 X91.277 Y105.967 E41.19349
G1 X91.867 Y105.378 E41.22681
G1 X91.435 Y103.769 E41.29347
G1 X90.630 Y103.553 E41.32680
G1 X90.488 Y103.021 E41.34884
G1 X92.477 Y103.010 E41.42841
G1 X92.489 Y103.055 E41.43026
G1 X94.223 Y103.022 F7800.000
G1 X94.655 Y104.631 E41.49692 F4800.000
G1 X95.459 Y104.847 E41.53024
G1 X95.891 Y106.457 E41.59690
G1 X95.302 Y107.046 E41.63023
G1 X95.733 Y108.655 E41.69689
G1 X96.515 Y108.865 E41.72929
G1 X94.759 Y109.669 E41.80654
G1 X94.679 Y109.369 E41.81896
G1 X95.268 Y108.780 E41.85229
G1 X94.837 Y107.170 E41.91894
G1 X94.032 Y106.955 E41.95227
G1 X93.601 Y105.345 E42.01893
G1 X94.190 Y104.756 E42.05226
G1 X93.759 Y103.146 E42.11892
G1 X93.237 Y103.006 E42.14050
G1 X94.243 Y103.002 E42.18072
G1 X94.223 Y103.022 E42.18182
G1 X96.978 Y104.009 F7800.000
G1 X97.783 Y104.224 E42.21514 F4800.000
G1 X98.214 Y105.834 E42.28180
G1 X97.625 Y106.423 E42.31513
G1 X98.056 Y108.033 E42.38179
G1 X98.211 Y108.074 E42.38822
G1 X97.205 Y108.544 E42.43263
G1 X97.592 Y108.157 E42.45449
G1 X97.160 Y106.548 E42.52114
G1 X96.355 Y106.332 E42.55447
G1 X95.924 Y104.722 E42.62113
G1 X96.513 Y104.133 E42.65446
G1 X96.210 Y103.001 E42.70134
G1 X96.708 Y103.001 E42.72126
G1 X96.978 Y104.009 E42.76300
G1 X99.301 Y103.386 F7800.000
G1 X100.106 Y103.602 E42.79633 F4800.000
G1 X100.537 Y105.212 E42.86298
G1 X99.948 Y105.801 E42.89631
G1 X100.297 Y107.102 E42.95020
G1 X99.854 Y107.308 E42.96974
G1 X99.484 Y105.925 E43.02703
G1 X98.679 Y105.710 E43.06035
G1 X98.247 Y104.100 E43.12701
G1 X98.837 Y103.511 E43.16034
G1 X98.700 Y103.000 E43.18150
G1 X99.198 Y102.999 E43.20142
G1 X99.301 Y103.386 E43.21744
G1 X102.861 Y104.589 F7800.000
G1 X102.272 Y105.178 E43.25077 F4800.000
G1 X102.703 Y106.788 E43.31743
G1 X103.508 Y107.003 E43.35075
G1 X103.743 Y107.883 E43.38717
G1 X102.205 Y106.790 E43.46264
G1 X101.807 Y105.303 E43.52423
G1 X101.002 Y105.087 E43.55755
G1 X100.571 Y103.477 E43.62421
G1 X101.050 Y102.998 E43.65131
G1 X102.434 Y102.998 E43.70669
G1 X102.861 Y104.589 E43.77259
G1 X105.184 Y103.966 F7800.000
G1 X104.595 Y104.556 E43.80592 F4800.000
G1 X105.026 Y106.165 E43.87258
G1 X105.831 Y106.381 E43.90591
G1 X106.262 Y107.991 E43.97257
G1 X105.673 Y108.580 E44.00589
G1 X105.896 Y109.413 E44.04040
G1 X105.281 Y108.976 E44.07059
G1 X105.208 Y108.704 E44.08183
G1 X104.712 Y108.571 E44.10239
G1 X104.358 Y108.320 E44.11974
G1 X103.972 Y106.879 E44.17941
G1 X104.561 Y106.290 E44.21274
G1 X104.130 Y104.680 E44.27940
G1 X103.325 Y104.464 E44.31273
G1 X102.932 Y102.997 E44.37349
G1 X104.924 Y102.996 E44.45316
G1 X105.184 Y103.966 E44.49334
G1 X107.507 Y103.344 F7800.000
G1 X106.918 Y103.933 E44.52667 F4800.000
G1 X107.349 Y105.543 E44.59333
G1 X108.154 Y105.758 E44.62666
G1 X108.586 Y107.368 E44.69331
G1 X107.996 Y107.957 E44.72664
G1 X108.428 Y109.567 E44.79330
G1 X109.233 Y109.782 E44.82663
G1 X109.664 Y111.392 E44.89329
G1 X109.256 Y111.800 E44.91637
G1 X107.434 Y110.506 E45.00576
G1 X107.374 Y110.281 E45.01509
G1 X107.963 Y109.691 E45.04842
G1 X107.532 Y108.082 E45.11507
G1 X106.727 Y107.866 E45.14840
G1 X106.296 Y106.256 E45.21506
G1 X106.885 Y105.667 E45.24839
G1 X106.453 Y104.058 E45.31504
G1 X105.649 Y103.842 E45.34837
G1 X105.422 Y102.996 E45.38341
G1 X107.414 Y102.995 E45.46308
G1 X107.507 Y103.344 E45.47755
G1 X109.241 Y103.311 F7800.000
G1 X109.673 Y104.920 E45.54421 F4800.000
G1 X110.478 Y105.136 E45.57753
G1 X110.909 Y106.745 E45.64419
G1 X110.320 Y107.335 E45.67752
G1 X110.751 Y108.944 E45.74418
G1 X111.556 Y109.160 E45.77751
G1 X111.987 Y110.770 E45.84416
G1 X111.398 Y111.359 E45.87749
G1 X111.829 Y112.968 E45.94415
G1 X112.634 Y113.184 E45.97748
G1 X112.968 Y114.431 E46.02913
G1 X111.244 Y113.213 E46.11357
G1 X111.365 Y113.093 E46.12039
G1 X110.933 Y111.483 E46.18704
G1 X110.129 Y111.268 E46.22037
G1 X109.697 Y109.658 E46.28703
G1 X110.286 Y109.069 E46.32036
G1 X109.855 Y107.459 E46.38701
G1 X109.050 Y107.244 E46.42034
G1 X108.619 Y105.634 E46.48700
G1 X109.208 Y105.045 E46.52033
G1 X108.777 Y103.435 E46.58699
G1 X107.972 Y103.219 E46.62031
G1 X107.912 Y102.994 E46.62963
G1 X109.559 Y102.993 E46.69551
G1 X109.241 Y103.311 E46.71345
G1 X111.996 Y104.298 F7800.000
G1 X112.801 Y104.513 E46.74678 F4800.000
G1 X113.232 Y106.123 E46.81344
G1 X112.643 Y106.712 E46.84677
G1 X113.074 Y108.322 E46.91342
G1 X113.879 Y108.537 E46.94675
G1 X114.310 Y110.147 E47.01341
G1 X113.721 Y110.736 E47.04674
G1 X114.153 Y112.346 E47.11339
G1 X114.957 Y112.562 E47.14672
G1 X115.389 Y114.171 E47.21338
G1 X114.800 Y114.760 E47.24671
G1 X115.114 Y115.934 E47.29530
G1 X114.501 Y115.505 E47.32524
G1 X114.335 Y114.885 E47.35090
G1 X113.530 Y114.669 E47.38423
G1 X113.099 Y113.060 E47.45089
G1 X113.688 Y112.470 E47.48422
G1 X113.257 Y110.861 E47.55087
G1 X112.452 Y110.645 E47.58420
G1 X112.021 Y109.035 E47.65086
G1 X112.610 Y108.446 E47.68419
G1 X112.178 Y106.837 E47.75084
G1 X111.374 Y106.621 E47.78417
G1 X110.942 Y105.011 E47.85083
G1 X111.531 Y104.422 E47.88416
G1 X111.148 Y102.992 E47.94336
G1 X111.646 Y102.992 E47.96328
G1 X111.996 Y104.298 E48.01734
G1 X114.007 Y105.308 F7800.000
G1 X116.528 Y109.631 E48.21751 F4800.000
G1 X116.045 Y110.114 E48.24484
G1 X116.476 Y111.723 E48.31149
G1 X117.281 Y111.939 E48.34482
G1 X117.712 Y113.549 E48.41148
G1 X117.123 Y114.138 E48.44481
G1 X117.554 Y115.747 E48.51147
G1 X118.359 Y115.963 E48.54479
G1 X118.790 Y117.573 E48.61145
G1 X118.201 Y118.162 E48.64478
G1 X118.632 Y119.772 E48.71144
G1 X119.437 Y119.987 E48.74477
G1 X119.869 Y121.597 E48.81142
G1 X119.279 Y122.186 E48.84475
G1 X119.711 Y123.796 E48.91141
G1 X120.516 Y124.011 E48.94474
G1 X120.947 Y125.621 E49.01139
G1 X120.358 Y126.210 E49.04472
G1 X120.789 Y127.820 E49.11138
G1 X121.594 Y128.035 E49.14471
G1 X122.025 Y129.645 E49.21137
G1 X121.436 Y130.234 E49.24469
G1 X121.732 Y131.339 E49.29046
G1 X121.392 Y131.930 E49.31770
G1 X120.971 Y130.359 E49.38274
G1 X120.166 Y130.143 E49.41607
G1 X119.735 Y128.533 E49.48273
G1 X120.324 Y127.944 E49.51606
G1 X119.893 Y126.335 E49.58271
G1 X119.088 Y126.119 E49.61604
G1 X118.657 Y124.509 E49.68270
G1 X119.246 Y123.920 E49.71603
G1 X118.815 Y122.311 E49.78269
G1 X118.010 Y122.095 E49.81601
G1 X117.579 Y120.485 E49.88267
G1 X118.168 Y119.896 E49.91600
G1 X117.737 Y118.286 E49.98266
G1 X116.932 Y118.071 E50.01599
G1 X116.870 Y117.840 E50.02555
G1 X116.930 Y117.205 E50.05105
G1 X116.647 Y117.007 E50.06487
G1 X116.500 Y116.461 E50.08748
G1 X117.090 Y115.872 E50.12081
G1 X116.658 Y114.262 E50.18746
G1 X115.853 Y114.047 E50.22079
G1 X115.422 Y112.437 E50.28745
G1 X116.011 Y111.848 E50.32078
G1 X115.580 Y110.238 E50.38743
G1 X114.775 Y110.023 E50.42076
G1 X114.344 Y108.413 E50.48742
G1 X114.933 Y107.824 E50.52075
G1 X114.502 Y106.214 E50.58741
G1 X113.697 Y105.998 E50.62073
G1 X113.266 Y104.389 E50.68739
G1 X113.378 Y104.277 E50.69374
G1 X114.007 Y105.308 E50.74205
G1 X118.821 Y113.597 F7800.000
G1 X118.177 Y113.424 E50.76872 F4800.000
G1 X117.745 Y111.815 E50.83537
G1 X117.774 Y111.786 E50.83698
G1 X118.821 Y113.597 E50.92064
G1 X120.889 Y117.175 F7800.000
G1 X120.524 Y117.539 E50.94127 F4800.000
G1 X120.956 Y119.149 E51.00793
G1 X121.761 Y119.365 E51.04125
G1 X122.192 Y120.974 E51.10791
G1 X121.603 Y121.564 E51.14124
G1 X122.034 Y123.173 E51.20790
G1 X122.839 Y123.389 E51.24123
G1 X123.270 Y124.998 E51.30788
G1 X122.681 Y125.588 E51.34121
G1 X123.112 Y127.197 E51.40787
G1 X123.917 Y127.413 E51.44120
G1 X123.936 Y127.485 E51.44419
G1 X122.741 Y129.588 E51.54094
G1 X122.490 Y129.521 E51.55134
G1 X122.058 Y127.911 E51.61800
G1 X122.648 Y127.322 E51.65133
G1 X122.216 Y125.712 E51.71799
G1 X121.412 Y125.496 E51.75131
G1 X120.980 Y123.887 E51.81797
G1 X121.569 Y123.298 E51.85130
G1 X121.138 Y121.688 E51.91796
G1 X120.333 Y121.472 E51.95129
G1 X119.902 Y119.863 E52.01794
G1 X120.491 Y119.274 E52.05127
G1 X120.060 Y117.664 E52.11793
G1 X119.255 Y117.448 E52.15126
G1 X118.824 Y115.839 E52.21791
G1 X119.413 Y115.249 E52.25124
G1 X119.099 Y114.078 E52.29974
G1 X120.889 Y117.175 E52.44281
G1 X123.079 Y120.963 F7800.000
G1 X122.657 Y120.850 E52.46032 F4800.000
G1 X122.348 Y119.698 E52.50801
G1 X123.079 Y120.963 E52.56647
G1 X125.251 Y124.719 F7800.000
G1 X125.004 Y124.965 E52.58040 F4800.000
G1 X125.110 Y125.358 E52.59668
G1 X124.779 Y125.981 E52.62489
G1 X124.540 Y125.090 E52.66181
G1 X123.735 Y124.874 E52.69514
G1 X123.304 Y123.264 E52.76180
G1 X123.893 Y122.675 E52.79512
G1 X123.740 Y122.106 E52.81867
G1 X125.251 Y124.719 E52.93937
G1 X117.114 Y120.610 F7800.000
G1 X117.545 Y122.219 E53.00603 F4800.000
G1 X116.956 Y122.809 E53.03936
G1 X117.387 Y124.418 E53.10602
G1 X118.192 Y124.634 E53.13935
G1 X118.624 Y126.244 E53.20600
G1 X118.034 Y126.833 E53.23933
G1 X118.466 Y128.442 E53.30599
G1 X119.270 Y128.658 E53.33932
G1 X119.702 Y130.268 E53.40597
G1 X119.113 Y130.857 E53.43930
G1 X119.544 Y132.466 E53.50596
G1 X120.349 Y132.682 E53.53929
G1 X120.542 Y133.405 E53.56922
G1 X119.635 Y134.981 E53.64197
G1 X118.921 Y134.790 E53.67150
G1 X118.490 Y133.180 E53.73816
G1 X119.079 Y132.591 E53.77149
G1 X118.648 Y130.981 E53.83815
G1 X117.843 Y130.766 E53.87147
G1 X117.412 Y129.156 E53.93813
G1 X118.001 Y128.567 E53.97146
G1 X117.570 Y126.957 E54.03812
G1 X116.765 Y126.742 E54.07145
G1 X116.334 Y125.132 E54.13810
G1 X116.923 Y124.543 E54.17143
G1 X116.491 Y122.933 E54.23809
G1 X116.391 Y122.906 E54.24225
G1 X116.620 Y120.478 E54.33983
G1 X117.114 Y120.610 E54.36027
G1 X116.300 Y126.866 F7800.000
G1 X115.987 Y127.179 E54.37799 F4800.000
G1 X116.091 Y126.084 E54.42201
G1 X116.300 Y126.866 E54.45441
G1 X116.142 Y129.065 F7800.000
G1 X116.947 Y129.281 E54.48774 F4800.000
G1 X117.378 Y130.890 E54.55440
G1 X116.789 Y131.479 E54.58773
G1 X117.221 Y133.089 E54.65439
G1 X118.025 Y133.305 E54.68771
G1 X118.457 Y134.914 E54.75437
G1 X117.868 Y135.503 E54.78770
G1 X118.299 Y137.113 E54.85436
G1 X118.392 Y137.138 E54.85821
G1 X117.483 Y138.716 E54.93105
G1 X117.245 Y137.827 E54.96786
G1 X117.834 Y137.238 E55.00119
G1 X117.403 Y135.628 E55.06785
G1 X116.598 Y135.412 E55.10118
G1 X116.167 Y133.803 E55.16783
G1 X116.756 Y133.214 E55.20116
G1 X116.325 Y131.604 E55.26782
G1 X115.596 Y131.409 E55.29797
G1 X115.896 Y128.145 E55.42909
G1 X116.142 Y129.065 E55.46720
G1 X115.702 Y133.927 F7800.000
G1 X116.133 Y135.537 E55.53386 F4800.000
G1 X115.544 Y136.126 E55.56719
G1 X115.976 Y137.736 E55.63385
G1 X116.780 Y137.951 E55.66718
G1 X117.143 Y139.306 E55.72327
G1 X116.704 Y140.069 E55.75847
G1 X116.622 Y140.150 E55.76309
G1 X116.633 Y140.191 E55.76479
G1 X116.294 Y140.781 E55.79203
G1 X116.158 Y140.275 E55.81301
G1 X115.353 Y140.059 E55.84634
G1 X114.922 Y138.449 E55.91299
G1 X115.511 Y137.860 E55.94632
G1 X115.080 Y136.251 E56.01298
G1 X114.495 Y136.094 E56.03718
G1 X115.215 Y135.764 E56.06885
G1 X115.384 Y133.842 E56.14605
G1 X115.702 Y133.927 E56.15924
G1 X113.221 Y136.749 F7800.000
G1 X113.652 Y138.358 E56.22589 F4800.000
G1 X114.457 Y138.574 E56.25922
G1 X114.888 Y140.183 E56.32588
G1 X114.299 Y140.773 E56.35921
G1 X114.730 Y142.382 E56.42587
G1 X115.286 Y142.531 E56.44886
G1 X114.084 Y144.617 E56.54514
G1 X113.677 Y143.096 E56.60813
G1 X114.266 Y142.507 E56.64146
G1 X113.834 Y140.897 E56.70812
G1 X113.030 Y140.682 E56.74145
G1 X112.598 Y139.072 E56.80810
G1 X113.188 Y138.483 E56.84143
G1 X112.760 Y136.888 E56.90746
G1 X113.352 Y136.617 E56.93349
G1 X113.221 Y136.749 E56.94092
G1 X111.329 Y138.981 F7800.000
G1 X112.134 Y139.196 E56.97425 F4800.000
G1 X112.565 Y140.806 E57.04090
G1 X111.976 Y141.395 E57.07423
G1 X112.407 Y143.005 E57.14089
G1 X113.212 Y143.220 E57.17422
G1 X113.643 Y144.830 E57.24087
G1 X113.054 Y145.419 E57.27420
G1 X113.234 Y146.092 E57.30207
G1 X112.895 Y146.682 E57.32931
G1 X112.589 Y145.544 E57.37646
G1 X111.785 Y145.328 E57.40979
G1 X111.353 Y143.719 E57.47645
G1 X111.942 Y143.129 E57.50977
G1 X111.511 Y141.520 E57.57643
G1 X110.706 Y141.304 E57.60976
G1 X110.275 Y139.694 E57.67642
G1 X110.864 Y139.105 E57.70975
G1 X110.542 Y137.904 E57.75950
G1 X110.986 Y137.701 E57.77902
G1 X111.329 Y138.981 E57.83203
G1 X109.006 Y139.603 F7800.000
G1 X109.810 Y139.819 E57.86535 F4800.000
G1 X110.242 Y141.429 E57.93201
