; generated by Slic3r 1.2.9 on 2017-07-24 at 10:19:11

; external perimeters extrusion width = 0.50mm
; perimeters extrusion width = 0.52mm
; infill extrusion width = 0.52mm
; solid infill extrusion width = 0.52mm
; top infill extrusion width = 0.52mm

M104 S256 ; set temperature
G28 ; home all axes
G92 E0
G1 X30 Y30 F3000
G1 Z5 F2000 ; lift nozzle
G1 F3000 X220
G1 F2000 Z0
G1 F200 E10
G1 F1000 E9
G1 F3000 X190 Y50
G92 E-1
G1 F2000 Z2
M109 S256 ; wait for temperature to be reached
G21 ; set units to millimeters
G90 ; use absolute coordinates
M82 ; use absolute distances for extrusion
G92 E0
G1 Z-7.700 F4500.000
G1 E-2.00000 F2400.00000
G92 E0
G1 X93.078 Y116.727 F4500.000
G1 E2.00000 F2400.00000
G1 X93.677 Y116.261 E14.94697 F1800.000
G1 X94.014 Y116.027 E21.93996
G1 X94.677 Y115.618 E35.22157
G1 X95.055 Y115.414 E42.55207
G1 X95.742 Y115.090 E55.49233
G1 X96.140 Y114.928 E62.81985
G1 X96.858 Y114.682 E75.76556
G1 X97.272 Y114.565 E83.09135
G1 X98.013 Y114.399 E96.03941
G1 X98.437 Y114.328 E103.37483
G1 X99.191 Y114.244 E116.31143
G1 X99.601 Y114.222 E123.30427
G1 X100.380 Y114.221 E136.58589
G1 X100.809 Y114.244 E143.92318 F1800.000
G1 X101.564 Y114.328 E156.85819
G1 X101.987 Y114.399 E164.18589
G1 X102.728 Y114.565 E177.13272
G1 X103.142 Y114.682 E184.45849
G1 X103.860 Y114.928 E197.40351
G1 X104.258 Y115.090 E204.72930
G1 X104.945 Y115.414 E217.67844
G1 X105.323 Y115.619 E225.00771
G1 X105.970 Y116.016 E237.95133
G1 X106.323 Y116.261 E245.27729
G1 X106.922 Y116.727 E258.22446
G1 X107.246 Y117.010 E265.55028
G1 X107.791 Y117.539 E278.49707
G1 X108.068 Y117.841 E285.49305
G1 X108.564 Y118.442 E298.77165
G1 X108.819 Y118.788 E306.09749
G1 X109.234 Y119.423 E319.04270
G1 X109.449 Y119.796 E326.36853
G1 X109.792 Y120.473 E339.31539
G1 X109.965 Y120.867 E346.64123
G1 X110.231 Y121.578 E359.59036
G1 X110.359 Y121.988 E366.91622
G1 X110.546 Y122.724 E379.86335
G1 X110.628 Y123.146 E387.18917
G1 X110.732 Y123.898 E400.13562
G1 X110.768 Y124.326 E407.46141
G1 X110.789 Y125.085 E420.40978
G1 X110.777 Y125.515 E427.73993
G1 X110.714 Y126.272 E440.68283
G1 X110.655 Y126.697 E448.00866
G1 X110.509 Y127.443 E460.95460
G1 X110.404 Y127.859 E468.28038
G1 X110.177 Y128.584 E481.22909
G1 X110.027 Y128.986 E488.55504
G1 X109.722 Y129.682 E501.50088
G1 X109.528 Y130.065 E508.82676
G1 X109.148 Y130.723 E521.77652
G1 X108.913 Y131.083 E529.10224
G1 X108.463 Y131.695 E542.04766
G1 X108.190 Y132.026 E549.37472
G1 X107.676 Y132.585 E562.32242
G1 X107.368 Y132.885 E569.64818
G1 X106.795 Y133.383 E582.59303
G1 X106.471 Y133.635 E589.58595
G1 X105.832 Y134.080 E602.86930
G1 X105.465 Y134.305 E610.20007
G1 X104.798 Y134.666 E623.14009
G1 X104.409 Y134.850 E630.47126
G1 X103.706 Y135.135 E643.41122
G1 X103.299 Y135.275 E650.73710
G1 X102.569 Y135.482 E663.68697
G1 X102.149 Y135.576 E671.01272
G1 X101.400 Y135.701 E683.96331
G1 X100.973 Y135.748 E691.28913
G1 X100.215 Y135.790 E704.23323
G1 X99.785 Y135.790 E711.55912
G1 X99.027 Y135.748 E724.50324
G1 X98.600 Y135.701 E731.82905
G1 X97.851 Y135.576 E744.77961
G1 X97.431 Y135.482 E752.10537
G1 X96.701 Y135.275 E765.05515
G1 X96.294 Y135.135 E772.38104
G1 X95.591 Y134.850 E785.32606
G1 X95.202 Y134.666 E792.65186
G1 X94.534 Y134.305 E805.59701
G1 X94.185 Y134.090 E812.59018
G1 X93.544 Y133.647 E825.87312
G1 X93.205 Y133.383 E833.20145
G1 X92.632 Y132.885 E846.14417
G1 X92.324 Y132.585 E853.46995
G1 X91.810 Y132.026 E866.41878
G1 X91.537 Y131.695 E873.74468
G1 X91.087 Y131.083 E886.69022
G1 X90.852 Y130.723 E894.01596
G1 X90.472 Y130.065 E906.96534
G1 X90.278 Y129.682 E914.29348
G1 X89.973 Y128.986 E927.23711
G1 X89.823 Y128.584 E934.56876
G1 X89.596 Y127.859 E947.51186
G1 X89.491 Y127.443 E954.83951
G1 X89.345 Y126.697 E967.78326
G1 X89.286 Y126.272 E975.11302
G1 X89.223 Y125.515 E988.05679
G1 X89.212 Y125.105 E995.04960
G1 X89.232 Y124.326 E1008.32989
G1 X89.268 Y123.898 E1015.66218
G1 X89.372 Y123.146 E1028.60271
G1 X89.454 Y122.724 E1035.92853
G1 X89.641 Y121.988 E1048.87573
G1 X89.769 Y121.578 E1056.20157
G1 X90.035 Y120.867 E1069.15032
G1 X90.208 Y120.473 E1076.47785
G1 X90.551 Y119.796 E1089.42335
G1 X90.766 Y119.423 E1096.75204
G1 X91.181 Y118.788 E1109.69404
G1 X91.436 Y118.442 E1117.02199
G1 X91.918 Y117.855 E1129.96939
G1 X92.209 Y117.539 E1137.29611
G1 X92.754 Y117.010 E1150.24207
G1 X93.021 Y116.777 E1156.28919
G1 E1154.28919 F2400.00000
G92 E0
G1 X101.470 Y126.707 F4500.000
G1 E2.00000 F2400.00000
G1 X101.212 Y126.900 E7.48942 F1800.000
G1 X100.905 Y127.064 E13.43267
G1 X100.549 Y127.187 E19.85267
G1 X100.176 Y127.248 E26.29558
G1 X99.826 Y127.248 E32.26782
G1 X99.480 Y127.193 E38.22332
G1 X99.122 Y127.077 E44.64932
G1 X98.788 Y126.900 E51.08683
G1 X98.507 Y126.689 E57.08172
G1 X98.246 Y126.415 E63.52963
G1 X98.038 Y126.104 E69.91105
G1 X97.900 Y125.813 E75.40322
G1 X97.800 Y125.479 E81.34035
G1 X97.751 Y125.106 E87.75718
G1 X97.765 Y124.726 E94.23868
G1 X97.843 Y124.358 E100.66468
G1 X97.969 Y124.032 E106.62024
G1 X98.144 Y123.728 E112.59252
G1 X98.382 Y123.438 E118.99405
G1 X98.645 Y123.205 E124.98865
G1 X98.965 Y123.003 E131.43435
G1 X99.313 Y122.860 E137.85097
G1 X99.652 Y122.779 E143.78811
G1 X99.973 Y122.753 E149.28050 F1800.000
G1 X100.346 Y122.778 E155.66177
G1 X100.714 Y122.867 E162.11020
G1 X101.040 Y123.006 E168.15455
G1 X101.376 Y123.223 E174.96586
G1 X101.618 Y123.437 E180.47981
G1 X101.840 Y123.706 E186.42919
G1 X102.031 Y124.031 E192.85221
G1 X102.166 Y124.386 E199.33391
G1 X102.237 Y124.756 E205.75380
G1 X102.249 Y125.105 E211.70351
G1 X102.206 Y125.451 E217.65341
G1 X102.110 Y125.787 E223.61456
G1 X101.950 Y126.129 E230.04631
G1 X101.733 Y126.441 E236.52768
G1 X101.522 Y126.653 E241.62393
G1 X101.524 Y127.024 F4500.000
G1 X102.174 Y127.612 F4500.000
G1 X101.937 Y127.796 E246.75158 F1800.000
G1 X101.618 Y127.993 E253.13665
G1 X101.279 Y128.152 E259.52202
G1 X100.942 Y128.268 E265.59472
G1 X100.558 Y128.356 E272.31067
G1 X100.187 Y128.397 E278.67538
G1 X99.813 Y128.397 E285.06089
G1 X99.440 Y128.356 E291.44605
G1 X99.075 Y128.274 E297.83097
G1 X98.721 Y128.152 E304.21622
G1 X98.382 Y127.993 E310.60154
G1 X98.063 Y127.796 E316.98661
G1 X97.768 Y127.566 E323.37183
G1 X97.499 Y127.305 E329.75702
G1 X97.261 Y127.016 E336.14229
G1 X97.056 Y126.703 E342.52738
G1 X96.887 Y126.368 E348.91259
G1 X96.762 Y126.035 E354.98527
G1 X96.664 Y125.653 E361.70145
G1 X96.612 Y125.284 E368.06623
G1 X96.602 Y124.909 E374.45138
G1 X96.633 Y124.536 E380.83654
G1 X96.701 Y124.186 E386.90921
G1 X96.817 Y123.810 E393.62543
G1 X96.967 Y123.468 E399.99012
G1 X97.154 Y123.144 E406.37540
G1 X97.376 Y122.842 E412.76062
G1 X97.630 Y122.566 E419.14563
G1 X97.912 Y122.320 E425.53084
G1 X98.220 Y122.107 E431.91614
G1 X98.549 Y121.929 E438.30116
G1 X98.896 Y121.788 E444.68649
G1 X99.257 Y121.686 E451.07159
G1 X99.626 Y121.624 E457.45684
G1 X100.000 Y121.604 E463.84202
G1 X100.356 Y121.623 E469.91459
G1 X100.745 Y121.686 E476.63089 F1800.000
G1 X101.104 Y121.788 E482.99562
G1 X101.451 Y121.929 E489.38079
G1 X101.780 Y122.107 E495.76586
G1 X102.088 Y122.320 E502.15121
G1 X102.370 Y122.566 E508.53642
G1 X102.624 Y122.842 E514.92142
G1 X102.846 Y123.144 E521.30664
G1 X103.033 Y123.468 E527.69193
G1 X103.183 Y123.811 E534.07709
G1 X103.295 Y124.169 E540.46226
G1 X103.367 Y124.536 E546.84749
G1 X103.398 Y124.909 E553.23262
G1 X103.388 Y125.284 E559.61776
G1 X103.336 Y125.655 E566.00301
G1 X103.244 Y126.018 E572.38816
G1 X103.113 Y126.368 E578.77336
G1 X102.952 Y126.686 E584.84601
G1 X102.738 Y127.017 E591.56215
G1 X102.501 Y127.305 E597.92702
G1 X102.233 Y127.565 E604.29103
G1 X101.892 Y127.507 F4500.000
G1 X101.826 Y127.156 F4500.000
G1 X101.528 Y127.377 E610.62077 F1800.000
G1 X101.142 Y127.585 E618.08166
G1 X100.784 Y127.714 E624.57446
G1 X100.462 Y127.786 E630.20611
G1 X100.156 Y127.822 E635.46383
G1 X99.771 Y127.818 E642.02102
G1 X99.337 Y127.747 E649.51110
G1 X98.909 Y127.609 E657.19108
G1 X98.490 Y127.389 E665.25623
G1 X98.145 Y127.133 E672.57774
G1 X97.924 Y126.914 E677.88121
G1 X97.726 Y126.674 E683.18149
G1 X97.543 Y126.396 E688.85498
G1 X97.362 Y126.009 E696.14465
G1 X97.238 Y125.590 E703.59875
G1 X97.179 Y125.123 E711.62301
G1 X97.196 Y124.666 E719.40751 F1800.000
G1 X97.261 Y124.327 E725.30477
G1 X97.359 Y124.011 E730.93630
G1 X97.456 Y123.776 E735.27535
G1 X97.636 Y123.459 E741.49950
G1 X97.822 Y123.210 E746.80132
G1 X98.031 Y122.979 E752.10223
G1 X98.310 Y122.740 E758.35697
G1 X98.712 Y122.490 E766.43488
G1 X99.083 Y122.333 E773.31041
G1 X99.383 Y122.250 E778.61202
G1 X99.690 Y122.198 E783.91271
G1 X100.000 Y122.179 E789.21570
G1 X100.443 Y122.215 E796.80135
G1 X100.904 Y122.326 E804.87205
G1 X101.205 Y122.450 E810.42327
G1 X101.477 Y122.600 E815.72325
G1 X101.735 Y122.774 E821.02559
G1 X102.023 Y123.032 E827.62026
G1 X102.303 Y123.370 E835.09455
G1 X102.520 Y123.728 E842.23345
G1 X102.642 Y124.014 E847.53528
G1 X102.719 Y124.240 E851.61612
G1 X102.796 Y124.615 E858.14080
G1 X102.820 Y124.925 E863.44187
G1 X102.813 Y125.236 E868.74269
G1 X102.771 Y125.556 E874.24164
G1 X102.649 Y125.979 E881.74285
G1 X102.455 Y126.401 E889.66483
G1 X102.272 Y126.676 E895.30019
G1 X102.076 Y126.914 E900.55630
G1 X101.882 Y127.106 E905.21579
M106 S255
G1 Z-7.200 F4500.000
G1 X101.534 Y126.852 F4500.000
G1 X101.315 Y127.018 E907.40725 F300.000
G1 X101.013 Y127.184 E910.15584
G1 X100.608 Y127.333 E913.60155
G1 X100.178 Y127.404 E917.07695
G1 X99.828 Y127.404 E919.86791
G1 X99.484 Y127.353 E922.63701
G1 X99.071 Y127.225 E926.09041
G1 X98.687 Y127.020 E929.55865
G1 X98.404 Y126.805 E932.39352
G1 X98.105 Y126.488 E935.87587
G1 X97.877 Y126.131 E939.24896
G1 X97.765 Y125.894 E941.34329
G1 X97.662 Y125.567 E944.08159
G1 X97.596 Y125.140 E947.52335
G1 X97.612 Y124.697 E951.06412
G1 X97.707 Y124.274 E954.51746
G1 X97.835 Y123.952 E957.28656
G1 X98.007 Y123.654 E960.03362
G1 X98.223 Y123.381 E962.80274
G1 X98.540 Y123.088 E966.25605
G1 X98.917 Y122.853 E969.79689
G1 X99.319 Y122.696 E973.23852
G1 X99.654 Y122.622 E975.97689
G1 X99.916 Y122.601 E978.07131 F300.000
G1 X100.338 Y122.619 E981.44424
G1 X100.770 Y122.721 E984.98496
G1 X101.175 Y122.902 E988.52523
G1 X101.520 Y123.142 E991.87725
G1 X101.716 Y123.316 E993.96451
G1 X101.940 Y123.580 E996.72336
G1 X102.165 Y123.949 E1000.17296
G1 X102.322 Y124.364 E1003.71377
G1 X102.396 Y124.790 E1007.15943
G1 X102.403 Y125.136 E1009.92100
G1 X102.360 Y125.477 E1012.66795
G1 X102.266 Y125.813 E1015.44447
G1 X102.085 Y126.207 E1018.90536
G1 X101.828 Y126.569 E1022.44593
G1 X101.588 Y126.800 E1025.10874
G1 X101.262 Y126.552 F4500.000
G1 X101.095 Y126.677 E1026.67515 F300.000
G1 X100.845 Y126.815 E1028.81238
G1 X100.504 Y126.939 E1031.53386
G1 X100.145 Y126.998 E1034.26669
G1 X99.858 Y126.998 E1036.41968
G1 X99.575 Y126.957 E1038.56450
G1 X99.228 Y126.849 E1041.28908
G1 X98.906 Y126.678 E1044.01932
G1 X98.676 Y126.503 E1046.18800
G1 X98.426 Y126.238 E1048.92328
G1 X98.233 Y125.935 E1051.61825
G1 X98.143 Y125.746 E1053.18597
G1 X98.058 Y125.474 E1055.31937
G1 X98.002 Y125.116 E1058.03920
G1 X98.015 Y124.749 E1060.79547
G1 X98.095 Y124.394 E1063.52000
G1 X98.201 Y124.129 E1065.66484
G1 X98.343 Y123.882 E1067.80206
G1 X98.521 Y123.658 E1069.94693
G1 X98.787 Y123.411 E1072.67143
G1 X99.099 Y123.216 E1075.42774
G1 X99.437 Y123.085 E1078.14751
G1 X99.715 Y123.023 E1080.28094
G1 X99.923 Y123.006 E1081.84870 F300.000
G1 X100.282 Y123.022 E1084.54357
G1 X100.640 Y123.107 E1087.29979
G1 X100.975 Y123.257 E1090.05564
G1 X101.269 Y123.461 E1092.74248
G1 X101.426 Y123.600 E1094.30765
G1 X101.610 Y123.818 E1096.44872
G1 X101.799 Y124.128 E1099.17175
G1 X101.929 Y124.471 E1101.92807
G1 X101.991 Y124.829 E1104.64950
G1 X101.997 Y125.114 E1106.79139
G1 X101.961 Y125.397 E1108.92855
G1 X101.885 Y125.673 E1111.07622
G1 X101.733 Y126.004 E1113.80368
G1 X101.520 Y126.303 E1116.55976
G1 X101.316 Y126.500 E1118.68819
G1 X101.295 Y126.758 F4500.000
G1 X102.024 Y127.532 F4500.000
G1 X101.848 Y127.669 E1120.46689 F300.000
G1 X101.544 Y127.856 E1123.31791
G1 X101.221 Y128.008 E1126.16904
G1 X100.883 Y128.124 E1129.02010
G1 X100.534 Y128.203 E1131.87099
G1 X100.179 Y128.242 E1134.72205
G1 X99.821 Y128.242 E1137.57326
G1 X99.466 Y128.203 E1140.42432
G1 X99.117 Y128.124 E1143.27521
G1 X98.779 Y128.008 E1146.12627
G1 X98.456 Y127.856 E1148.97743
G1 X98.152 Y127.669 E1151.82843
G1 X97.870 Y127.449 E1154.67948
G1 X97.613 Y127.200 E1157.53052
G1 X97.386 Y126.924 E1160.38164
G1 X97.191 Y126.625 E1163.23264
G1 X97.029 Y126.306 E1166.08368
G1 X96.923 Y126.022 E1168.50194
G1 X96.816 Y125.621 E1171.81787
G1 X96.767 Y125.271 E1174.63431
G1 X96.757 Y124.914 E1177.48533
G1 X96.787 Y124.557 E1180.33638
G1 X96.845 Y124.260 E1182.75462
G1 X96.964 Y123.862 E1186.07056
G1 X97.106 Y123.538 E1188.88697
G1 X97.284 Y123.229 E1191.73806
G1 X97.496 Y122.941 E1194.58912
G1 X97.738 Y122.678 E1197.44008
G1 X98.008 Y122.443 E1200.29115
G1 X98.301 Y122.240 E1203.14225
G1 X98.616 Y122.069 E1205.99324
G1 X98.947 Y121.935 E1208.84435
G1 X99.291 Y121.838 E1211.69535
G1 X99.643 Y121.779 E1214.54645
G1 X100.000 Y121.759 E1217.39747
G1 X100.303 Y121.776 E1219.81569
G1 X100.714 Y121.839 E1223.13167 F300.000
G1 X101.053 Y121.935 E1225.94808
G1 X101.384 Y122.069 E1228.79913
G1 X101.699 Y122.240 E1231.65012
G1 X101.992 Y122.443 E1234.50125
G1 X102.262 Y122.678 E1237.35230
G1 X102.504 Y122.941 E1240.20328
G1 X102.716 Y123.229 E1243.05434
G1 X102.894 Y123.538 E1245.90544
G1 X103.038 Y123.866 E1248.75649
G1 X103.145 Y124.207 E1251.60751
G1 X103.213 Y124.557 E1254.45858
G1 X103.243 Y124.914 E1257.30963
G1 X103.233 Y125.271 E1260.16063
G1 X103.184 Y125.625 E1263.01172
G1 X103.096 Y125.971 E1265.86276
G1 X102.971 Y126.306 E1268.71382
G1 X102.809 Y126.625 E1271.56486
G1 X102.614 Y126.924 E1274.41588
G1 X102.387 Y127.200 E1277.26697
G1 X102.083 Y127.486 E1280.58959
G1 X102.273 Y127.851 F4500.000
G1 X102.080 Y128.002 E1282.42953 F300.000
G1 X101.737 Y128.213 E1285.44525
G1 X101.373 Y128.384 E1288.46102
G1 X100.993 Y128.515 E1291.47678
G1 X100.601 Y128.603 E1294.49245
G1 X100.201 Y128.647 E1297.50819
G1 X99.799 Y128.647 E1300.52401
G1 X99.399 Y128.603 E1303.53975
G1 X99.007 Y128.515 E1306.55542
G1 X98.627 Y128.384 E1309.57118
G1 X98.263 Y128.213 E1312.58696
G1 X97.920 Y128.002 E1315.60266
G1 X97.603 Y127.755 E1318.61843
G1 X97.315 Y127.475 E1321.63415
G1 X97.059 Y127.164 E1324.64995
G1 X96.839 Y126.828 E1327.66565
G1 X96.658 Y126.469 E1330.68140
G1 X96.537 Y126.146 E1333.27013
G1 X96.418 Y125.701 E1336.72293
G1 X96.363 Y125.304 E1339.72626
G1 X96.352 Y124.902 E1342.74199
G1 X96.385 Y124.502 E1345.75773
G1 X96.451 Y124.163 E1348.34643
G1 X96.583 Y123.722 E1351.79926
G1 X96.744 Y123.355 E1354.80260
G1 X96.945 Y123.007 E1357.81834
G1 X97.183 Y122.683 E1360.83410
G1 X97.455 Y122.387 E1363.84978
G1 X97.758 Y122.123 E1366.86553
G1 X98.089 Y121.894 E1369.88134
G1 X98.442 Y121.702 E1372.89701
G1 X98.815 Y121.551 E1375.91279
G1 X99.202 Y121.442 E1378.92849
G1 X99.599 Y121.375 E1381.94427
G1 X100.000 Y121.353 E1384.95999
G1 X100.345 Y121.372 E1387.54870
G1 X100.800 Y121.442 E1391.00156 F300.000
G1 X101.185 Y121.551 E1394.00485
G1 X101.558 Y121.702 E1397.02059
G1 X101.911 Y121.894 E1400.03630
G1 X102.242 Y122.123 E1403.05211
G1 X102.545 Y122.387 E1406.06785
G1 X102.817 Y122.683 E1409.08354
G1 X103.055 Y123.007 E1412.09928
G1 X103.256 Y123.355 E1415.11504
G1 X103.418 Y123.723 E1418.13079
G1 X103.538 Y124.107 E1421.14653
G1 X103.615 Y124.502 E1424.16227
G1 X103.648 Y124.902 E1427.17801
G1 X103.637 Y125.304 E1430.19372
G1 X103.582 Y125.703 E1433.20949
G1 X103.483 Y126.092 E1436.22522
G1 X103.342 Y126.469 E1439.24097
G1 X103.161 Y126.828 E1442.25672
G1 X102.941 Y127.164 E1445.27243
G1 X102.685 Y127.475 E1448.28820
G1 X102.332 Y127.805 E1451.91417
G1 X102.044 Y127.765 F4500.000
G1 X101.773 Y127.197 F4500.000
G1 X101.529 Y127.376 E1457.36179 F1200.000
G1 X101.171 Y127.571 E1464.68605
G1 X100.768 Y127.720 E1472.42790
G1 X100.464 Y127.785 E1478.02593
G1 X100.156 Y127.823 E1483.62458
G1 X99.782 Y127.818 E1490.34732
G1 X99.376 Y127.756 E1497.74130
G1 X98.893 Y127.601 E1506.87929
G1 X98.477 Y127.380 E1515.36294
G1 X98.145 Y127.133 E1522.81180
G1 X97.925 Y126.913 E1528.41174
G1 X97.725 Y126.675 E1534.00908
G1 X97.518 Y126.345 E1541.02120
G1 X97.372 Y126.033 E1547.23110
G1 X97.253 Y125.646 E1554.51775
G1 X97.180 Y125.146 E1563.62019
G1 X97.202 Y124.615 E1573.18191 F1200.000
G1 X97.315 Y124.137 E1582.03333
G1 X97.466 Y123.756 E1589.39749
G1 X97.636 Y123.458 E1595.57396
G1 X97.822 Y123.209 E1601.17388
G1 X98.033 Y122.981 E1606.77002
G1 X98.303 Y122.745 E1613.23202
G1 X98.713 Y122.489 E1621.93172
G1 X99.084 Y122.335 E1629.16097
G1 X99.383 Y122.250 E1634.75690
G1 X99.689 Y122.197 E1640.35509
G1 X100.000 Y122.182 E1645.95288
G1 X100.414 Y122.212 E1653.43297
G1 X100.918 Y122.330 E1662.73957
G1 X101.204 Y122.452 E1668.34059
G1 X101.478 Y122.599 E1673.93649
G1 X101.770 Y122.805 E1680.37361
G1 X102.004 Y123.014 E1686.01853
G1 X102.268 Y123.323 E1693.34229
G1 X102.520 Y123.728 E1701.92459
G1 X102.641 Y124.014 E1707.52383
G1 X102.729 Y124.273 E1712.44720
G1 X102.794 Y124.616 E1718.72262
G1 X102.820 Y124.925 E1724.31874
G1 X102.814 Y125.236 E1729.91711
G1 X102.773 Y125.545 E1735.52721
G1 X102.652 Y125.971 E1743.50132
G1 X102.447 Y126.416 E1752.31499
G1 X102.273 Y126.673 E1757.91622
G1 X102.076 Y126.914 E1763.51295
G1 X101.831 Y127.150 E1769.63628
G1 Z-6.700 F4500.000
G1 X101.488 Y126.888 F4500.000
G1 X101.072 Y127.158 E1773.59512 F300.000
G1 X100.627 Y127.328 E1777.39236
G1 X100.167 Y127.404 E1781.11497
G1 X99.843 Y127.404 E1783.69921
G1 X99.525 Y127.361 E1786.26118
G1 X99.080 Y127.229 E1789.96148
G1 X98.670 Y127.009 E1793.67681
G1 X98.405 Y126.806 E1796.33997
G1 X98.086 Y126.464 E1800.06970
G1 X97.839 Y126.059 E1803.85148
G1 X97.678 Y125.634 E1807.48117
G1 X97.597 Y125.166 E1811.27065
G1 X97.612 Y124.687 E1815.09420
G1 X97.723 Y124.220 E1818.91713
G1 X97.922 Y123.793 E1822.67530
G1 X98.185 Y123.422 E1826.30475
G1 X98.532 Y123.093 E1830.11729
G1 X98.940 Y122.841 E1833.94089
G1 X99.385 Y122.677 E1837.73034
G1 X99.834 Y122.603 E1841.36001 F300.000
G1 X100.308 Y122.615 E1845.14173
G1 X100.775 Y122.723 E1848.96520
G1 X101.211 Y122.922 E1852.78834
G1 X101.592 Y123.201 E1856.55439
G1 X101.905 Y123.531 E1860.18394
G1 X102.159 Y123.935 E1863.98890
G1 X102.327 Y124.384 E1867.81249
G1 X102.400 Y124.841 E1871.50501
G1 X102.401 Y125.161 E1874.05931
G1 X102.360 Y125.472 E1876.56443
G1 X102.276 Y125.783 E1879.13395
G1 X102.086 Y126.207 E1882.84190
G1 X101.806 Y126.596 E1886.66520
G1 X101.543 Y126.837 E1889.50639
G1 X101.214 Y126.590 F4500.000
G1 X100.890 Y126.793 E1892.37667 F300.000
G1 X100.521 Y126.935 E1895.34418
G1 X100.134 Y126.999 E1898.28560
G1 X99.870 Y126.999 E1900.26143
G1 X99.610 Y126.964 E1902.22893
G1 X99.235 Y126.852 E1905.16197
G1 X98.890 Y126.667 E1908.10076
G1 X98.678 Y126.505 E1910.10486
G1 X98.410 Y126.218 E1913.04877
G1 X98.204 Y125.881 E1916.01034
G1 X98.071 Y125.527 E1918.84787
G1 X98.004 Y125.137 E1921.81239
G1 X98.016 Y124.740 E1924.79001
G1 X98.108 Y124.354 E1927.76705
G1 X98.274 Y123.997 E1930.71932
G1 X98.493 Y123.688 E1933.55662
G1 X98.781 Y123.416 E1936.52992
G1 X99.118 Y123.207 E1939.50757
G1 X99.489 Y123.070 E1942.47208
G1 X99.862 Y123.009 E1945.30961 F300.000
G1 X100.257 Y123.019 E1948.27111
G1 X100.644 Y123.108 E1951.24865
G1 X101.005 Y123.273 E1954.22589
G1 X101.323 Y123.506 E1957.18128
G1 X101.583 Y123.781 E1960.01870
G1 X101.794 Y124.116 E1962.98914
G1 X101.934 Y124.488 E1965.96681
G1 X101.995 Y124.874 E1968.89674
G1 X101.996 Y125.135 E1970.86122
G1 X101.962 Y125.393 E1972.80862
G1 X101.894 Y125.647 E1974.77902
G1 X101.733 Y126.004 E1977.71503
G1 X101.501 Y126.326 E1980.69242
G1 X101.269 Y126.539 E1983.05506
G1 X101.252 Y126.970 F4500.000
G1 X101.976 Y127.569 F4500.000
G1 X101.544 Y127.856 E1987.19382 F300.000
G1 X101.221 Y128.008 E1990.04496
G1 X100.883 Y128.124 E1992.89603
G1 X100.534 Y128.203 E1995.74692
G1 X100.179 Y128.242 E1998.59798
G1 X99.821 Y128.242 E2001.44919
G1 X99.466 Y128.203 E2004.30023
G1 X99.117 Y128.124 E2007.15115
G1 X98.779 Y128.008 E2010.00222
G1 X98.456 Y127.856 E2012.85336
G1 X98.152 Y127.669 E2015.70435
G1 X97.870 Y127.449 E2018.55541
G1 X97.613 Y127.200 E2021.40646
G1 X97.386 Y126.924 E2024.25756
G1 X97.191 Y126.625 E2027.10856
G1 X97.029 Y126.306 E2029.95961
G1 X96.904 Y125.971 E2032.81066
G1 X96.816 Y125.625 E2035.66172
G1 X96.767 Y125.271 E2038.51278
G1 X96.757 Y124.914 E2041.36381
G1 X96.787 Y124.557 E2044.21485
G1 X96.855 Y124.207 E2047.06593
G1 X96.962 Y123.866 E2049.91694
G1 X97.106 Y123.538 E2052.76798
G1 X97.284 Y123.229 E2055.61908
G1 X97.496 Y122.941 E2058.47015
G1 X97.738 Y122.678 E2061.32112
G1 X98.008 Y122.443 E2064.17217
G1 X98.301 Y122.240 E2067.02328
G1 X98.616 Y122.069 E2069.87425
G1 X98.947 Y121.935 E2072.72538
G1 X99.291 Y121.838 E2075.57638
G1 X99.643 Y121.779 E2078.42747
G1 X100.000 Y121.759 E2081.27851
G1 X100.266 Y121.774 E2083.40391
G1 X100.716 Y121.839 E2087.03012 F300.000
G1 X101.053 Y121.935 E2089.82767
G1 X101.384 Y122.069 E2092.67873
G1 X101.699 Y122.239 E2095.52971
G1 X101.992 Y122.443 E2098.38084
G1 X102.262 Y122.678 E2101.23190
G1 X102.504 Y122.941 E2104.08287
G1 X102.716 Y123.229 E2106.93394
G1 X102.849 Y123.460 E2109.05941
G1 X103.040 Y123.872 E2112.68558
G1 X103.145 Y124.207 E2115.48313
G1 X103.213 Y124.557 E2118.33422
G1 X103.243 Y124.914 E2121.18524
G1 X103.233 Y125.271 E2124.03626
G1 X103.184 Y125.625 E2126.88734
G1 X103.096 Y125.971 E2129.73838
G1 X102.971 Y126.306 E2132.58943
G1 X102.809 Y126.625 E2135.44049
G1 X102.614 Y126.924 E2138.29149
G1 X102.387 Y127.200 E2141.14259
G1 X102.035 Y127.523 E2144.94886
G1 X102.225 Y127.889 F4500.000
G1 X102.080 Y128.002 E2146.33234 F300.000
G1 X101.737 Y128.213 E2149.34805
G1 X101.373 Y128.384 E2152.36383
G1 X100.993 Y128.515 E2155.37959
G1 X100.601 Y128.603 E2158.39525
G1 X100.201 Y128.647 E2161.41099
G1 X99.799 Y128.647 E2164.42681
G1 X99.399 Y128.603 E2167.44255
G1 X99.007 Y128.515 E2170.45823
G1 X98.627 Y128.384 E2173.47399
G1 X98.263 Y128.213 E2176.48976
G1 X97.920 Y128.002 E2179.50547
G1 X97.603 Y127.755 E2182.52123
G1 X97.315 Y127.475 E2185.53696
G1 X97.059 Y127.164 E2188.55275
G1 X96.839 Y126.828 E2191.56844
G1 X96.658 Y126.469 E2194.58421
G1 X96.517 Y126.092 E2197.59995
G1 X96.418 Y125.703 E2200.61568
G1 X96.363 Y125.304 E2203.63143
G1 X96.352 Y124.902 E2206.64716
G1 X96.385 Y124.502 E2209.66288
G1 X96.462 Y124.107 E2212.67864
G1 X96.582 Y123.723 E2215.69437
G1 X96.744 Y123.355 E2218.71013
G1 X96.945 Y123.007 E2221.72587
G1 X97.183 Y122.683 E2224.74163
G1 X97.455 Y122.387 E2227.75732
G1 X97.758 Y122.123 E2230.77306
G1 X98.089 Y121.894 E2233.78887
G1 X98.442 Y121.702 E2236.80453
G1 X98.815 Y121.551 E2239.82031
G1 X99.202 Y121.442 E2242.83602
G1 X99.599 Y121.375 E2245.85179
G1 X100.000 Y121.353 E2248.86753
G1 X100.307 Y121.370 E2251.17001
G1 X100.801 Y121.442 E2254.91456 F300.000
G1 X101.185 Y121.551 E2257.91108
G1 X101.558 Y121.702 E2260.92683
G1 X101.911 Y121.894 E2263.94252
G1 X102.242 Y122.123 E2266.95833
G1 X102.545 Y122.387 E2269.97407
G1 X102.817 Y122.683 E2272.98975
G1 X103.055 Y123.007 E2276.00552
G1 X103.209 Y123.273 E2278.30801
G1 X103.419 Y123.726 E2282.05253
G1 X103.538 Y124.107 E2285.04909
G1 X103.615 Y124.502 E2288.06485
G1 X103.648 Y124.902 E2291.08057
G1 X103.637 Y125.304 E2294.09629
G1 X103.582 Y125.703 E2297.11205
G1 X103.483 Y126.092 E2300.12778
G1 X103.342 Y126.469 E2303.14353
G1 X103.161 Y126.828 E2306.15928
G1 X102.941 Y127.164 E2309.17498
G1 X102.685 Y127.475 E2312.19077
G1 X102.284 Y127.843 E2316.27150
G1 X102.053 Y127.824 F4500.000
G1 X101.723 Y127.238 F4500.000
G1 X101.343 Y127.485 E2324.43843 F1200.000
G1 X101.061 Y127.615 E2330.03424
G1 X100.716 Y127.735 E2336.60778
G1 X100.218 Y127.818 E2345.70016
G1 X99.844 Y127.823 E2352.42788
G1 X99.535 Y127.787 E2358.02886
G1 X99.233 Y127.716 E2363.62486
G1 X98.902 Y127.606 E2369.90032
G1 X98.458 Y127.368 E2378.97102
G1 X98.145 Y127.133 E2386.01973
G1 X97.724 Y126.676 E2397.20906
G1 X97.473 Y126.260 E2405.95695
G1 X97.307 Y125.845 E2413.99533
G1 X97.233 Y125.544 E2419.59031
G1 X97.181 Y125.174 E2426.31340
G1 X97.201 Y124.615 E2436.38275 F1200.000
G1 X97.324 Y124.103 E2445.85277
G1 X97.484 Y123.730 E2453.17280
G1 X97.639 Y123.461 E2458.76606
G1 X97.857 Y123.164 E2465.38029
G1 X98.295 Y122.751 E2476.22933
G1 X98.738 Y122.476 E2485.62230
G1 X99.084 Y122.336 E2492.34526
G1 X99.383 Y122.250 E2497.94007
G1 X99.786 Y122.189 E2505.28117
G1 X100.380 Y122.208 E2515.98649
G1 X100.918 Y122.330 E2525.90669
G1 X101.203 Y122.453 E2531.50781
G1 X101.479 Y122.598 E2537.10486
G1 X101.854 Y122.875 E2545.50721
G1 X102.246 Y123.292 E2555.81277
G1 X102.476 Y123.653 E2563.51742
G1 X102.644 Y124.025 E2570.86415
G1 X102.736 Y124.297 E2576.04383
G1 X102.793 Y124.616 E2581.86546
G1 X102.821 Y124.925 E2587.46121
G1 X102.814 Y125.236 E2593.06097
G1 X102.773 Y125.545 E2598.66376
G1 X102.663 Y125.939 E2606.03278
G1 X102.448 Y126.416 E2615.45983
G1 X102.272 Y126.673 E2621.06093
G1 X102.078 Y126.915 E2626.65891
G1 X101.781 Y127.189 E2633.92816
G1 Z-6.200 F4500.000
G1 X101.444 Y126.922 F4500.000
G1 X101.111 Y127.138 E2637.09584 F300.000
G1 X100.646 Y127.324 E2641.08620
G1 X100.137 Y127.408 E2645.20734
G1 X99.584 Y127.375 E2649.62231
G1 X99.089 Y127.233 E2653.73272
G1 X98.652 Y126.997 E2657.69338
G1 X98.405 Y126.806 E2660.18410
G1 X98.068 Y126.441 E2664.15168
G1 X97.815 Y126.011 E2668.13292
G1 X97.691 Y125.681 E2670.94283
G1 X97.598 Y125.190 E2674.92859
G1 X97.613 Y124.677 E2679.02439
G1 X97.733 Y124.196 E2682.97777
G1 X97.857 Y123.906 E2685.49352
G1 X98.153 Y123.457 E2689.78702
G1 X98.524 Y123.099 E2693.89588
G1 X98.961 Y122.830 E2697.99337
G1 X99.433 Y122.664 E2701.97915
G1 X99.780 Y122.607 E2704.78903 F300.000
G1 X100.279 Y122.610 E2708.77021
G1 X100.780 Y122.724 E2712.86594
G1 X101.245 Y122.941 E2716.96154
G1 X101.641 Y123.243 E2720.93343
G1 X101.881 Y123.501 E2723.74323
G1 X102.153 Y123.922 E2727.73822
G1 X102.333 Y124.402 E2731.83401
G1 X102.407 Y124.912 E2735.94067
G1 X102.366 Y125.448 E2740.23051
G1 X102.287 Y125.754 E2742.74986
G1 X102.086 Y126.207 E2746.70707
G1 X101.783 Y126.622 E2750.80270
G1 X101.500 Y126.873 E2753.81847
G1 X101.176 Y126.619 F4500.000
G1 X100.928 Y126.775 E2756.01503 F300.000
G1 X100.537 Y126.931 E2759.17211
G1 X100.115 Y127.001 E2762.37638
G1 X99.653 Y126.974 E2765.84822
G1 X99.243 Y126.856 E2769.04848
G1 X98.874 Y126.656 E2772.19519
G1 X98.680 Y126.506 E2774.03444
G1 X98.395 Y126.198 E2777.18360
G1 X98.182 Y125.836 E2780.33725
G1 X98.083 Y125.571 E2782.45325
G1 X98.005 Y125.158 E2785.60857
G1 X98.017 Y124.732 E2788.80378
G1 X98.118 Y124.325 E2791.94771
G1 X98.215 Y124.099 E2793.79579
G1 X98.467 Y123.717 E2797.22405
G1 X98.774 Y123.421 E2800.42292
G1 X99.137 Y123.198 E2803.61957
G1 X99.534 Y123.058 E2806.77490
G1 X99.812 Y123.012 E2808.89091 F300.000
G1 X100.232 Y123.015 E2812.04448
G1 X100.648 Y123.109 E2815.23962
G1 X101.034 Y123.290 E2818.43463
G1 X101.368 Y123.545 E2821.58468
G1 X101.560 Y123.751 E2823.70060
G1 X101.789 Y124.105 E2826.85940
G1 X101.938 Y124.504 E2830.05461
G1 X101.999 Y124.926 E2833.25339
G1 X101.965 Y125.381 E2836.68018
G1 X101.903 Y125.620 E2838.52963
G1 X101.733 Y126.004 E2841.67504
G1 X101.482 Y126.348 E2844.87010
G1 X101.232 Y126.569 E2847.37771
G1 X101.203 Y126.911 F4500.000
G1 X101.938 Y127.599 F4500.000
G1 X101.544 Y127.856 E2851.13194 F300.000
G1 X101.221 Y128.008 E2853.98307
G1 X100.883 Y128.124 E2856.83415
G1 X100.534 Y128.203 E2859.68505
G1 X100.179 Y128.242 E2862.53610
G1 X99.821 Y128.242 E2865.38732
G1 X99.466 Y128.203 E2868.23837
G1 X99.117 Y128.124 E2871.08926
G1 X98.779 Y128.008 E2873.94033
G1 X98.456 Y127.856 E2876.79146
G1 X98.152 Y127.669 E2879.64247
G1 X97.870 Y127.449 E2882.49352
G1 X97.613 Y127.200 E2885.34457
G1 X97.386 Y126.924 E2888.19568
G1 X97.191 Y126.625 E2891.04668
G1 X97.029 Y126.306 E2893.89773
G1 X96.937 Y126.060 E2895.98955
G1 X96.815 Y125.618 E2899.65117
G1 X96.767 Y125.271 E2902.44678
G1 X96.757 Y124.914 E2905.29780
G1 X96.787 Y124.557 E2908.14885
G1 X96.831 Y124.332 E2909.97889
G1 X96.966 Y123.858 E2913.91545
G1 X97.106 Y123.538 E2916.69675
G1 X97.284 Y123.229 E2919.54784
G1 X97.496 Y122.941 E2922.39892
G1 X97.738 Y122.678 E2925.24988
G1 X98.008 Y122.443 E2928.10095
G1 X98.301 Y122.240 E2930.95204
G1 X98.616 Y122.069 E2933.80302
G1 X98.947 Y121.935 E2936.65414
G1 X99.291 Y121.838 E2939.50515
G1 X99.643 Y121.779 E2942.35624
G1 X100.000 Y121.759 E2945.20726
G1 X100.229 Y121.772 E2947.03728
G1 X100.718 Y121.840 E2950.97389 F300.000
G1 X101.053 Y121.935 E2953.75519
G1 X101.384 Y122.069 E2956.60624
G1 X101.699 Y122.240 E2959.45722
G1 X101.992 Y122.443 E2962.30835
G1 X102.262 Y122.678 E2965.15942
G1 X102.504 Y122.941 E2968.01037
G1 X102.716 Y123.229 E2970.86145
G1 X102.894 Y123.538 E2973.71255
G1 X103.038 Y123.866 E2976.56359
G1 X103.145 Y124.207 E2979.41462
G1 X103.213 Y124.557 E2982.26567
G1 X103.243 Y124.914 E2985.11673
G1 X103.233 Y125.271 E2987.96775
G1 X103.184 Y125.625 E2990.81882
G1 X103.096 Y125.971 E2993.66987
G1 X102.971 Y126.306 E2996.52092
G1 X102.809 Y126.625 E2999.37196
G1 X102.614 Y126.924 E3002.22298
G1 X102.387 Y127.200 E3005.07407
G1 X102.130 Y127.449 E3007.92513
G1 X101.997 Y127.553 E3009.27046
G1 X102.187 Y127.919 F4500.000
G1 X101.737 Y128.213 E3013.30235 F300.000
G1 X101.373 Y128.384 E3016.31811
G1 X100.993 Y128.515 E3019.33388
G1 X100.601 Y128.603 E3022.34955
G1 X100.201 Y128.647 E3025.36529
G1 X99.799 Y128.647 E3028.38111
G1 X99.399 Y128.603 E3031.39685
G1 X99.007 Y128.515 E3034.41252
G1 X98.627 Y128.384 E3037.42828
G1 X98.263 Y128.213 E3040.44405
G1 X97.920 Y128.002 E3043.45977
G1 X97.603 Y127.755 E3046.47551
G1 X97.315 Y127.475 E3049.49125
G1 X97.059 Y127.164 E3052.50705
G1 X96.839 Y126.828 E3055.52274
G1 X96.658 Y126.469 E3058.53850
G1 X96.552 Y126.186 E3060.80824
G1 X96.418 Y125.700 E3064.58607
G1 X96.363 Y125.304 E3067.58193
G1 X96.352 Y124.902 E3070.59765
G1 X96.385 Y124.502 E3073.61338
G1 X96.436 Y124.238 E3075.62872
G1 X96.583 Y123.720 E3079.66509
G1 X96.744 Y123.355 E3082.65583
G1 X96.945 Y123.007 E3085.67157
G1 X97.183 Y122.683 E3088.68734
G1 X97.455 Y122.387 E3091.70301
G1 X97.758 Y122.123 E3094.71876
G1 X98.089 Y121.894 E3097.73456
G1 X98.442 Y121.702 E3100.75024
G1 X98.815 Y121.551 E3103.76602
G1 X99.202 Y121.442 E3106.78172
G1 X99.599 Y121.375 E3109.79750
G1 X100.000 Y121.353 E3112.81322
G1 X100.268 Y121.368 E3114.82856
G1 X100.801 Y121.443 E3118.86495 F300.000
G1 X101.185 Y121.551 E3121.85565
G1 X101.558 Y121.702 E3124.87140
G1 X101.911 Y121.894 E3127.88709
G1 X102.242 Y122.123 E3130.90289
G1 X102.545 Y122.387 E3133.91865
G1 X102.817 Y122.683 E3136.93432
G1 X103.055 Y123.007 E3139.95009
G1 X103.256 Y123.355 E3142.96584
G1 X103.418 Y123.723 E3145.98158
G1 X103.538 Y124.107 E3148.99733
G1 X103.615 Y124.502 E3152.01307
G1 X103.648 Y124.902 E3155.02880
G1 X103.637 Y125.304 E3158.04453
G1 X103.582 Y125.703 E3161.06029
G1 X103.483 Y126.092 E3164.07602
G1 X103.342 Y126.469 E3167.09176
G1 X103.161 Y126.828 E3170.10751
G1 X102.941 Y127.164 E3173.12322
G1 X102.685 Y127.475 E3176.13900
G1 X102.397 Y127.755 E3179.15474
G1 X102.246 Y127.872 E3180.58719
G1 X101.735 Y127.705 F4500.000
G1 X101.673 Y127.276 F4500.000
G1 X101.315 Y127.502 E3188.21356 F1200.000
G1 X100.780 Y127.719 E3198.60863
G1 X100.182 Y127.823 E3209.53724
G1 X99.535 Y127.790 E3221.20030
G1 X98.936 Y127.622 E3232.39550
G1 X98.439 Y127.356 E3242.54643
G1 X98.145 Y127.133 E3249.19296
G1 X97.723 Y126.677 E3260.38617
G1 X97.446 Y126.206 E3270.20882
G1 X97.337 Y125.931 E3275.54691
G1 X97.231 Y125.532 E3282.97263
G1 X97.182 Y125.201 E3289.00873
G1 X97.203 Y124.598 E3299.86127 F1200.000
G1 X97.344 Y124.048 E3310.08960
G1 X97.479 Y123.727 E3316.35148
G1 X97.819 Y123.206 E3327.54499
G1 X98.286 Y122.757 E3339.22922
G1 X98.794 Y122.447 E3349.93179
G1 X99.312 Y122.265 E3359.81699
G1 X99.730 Y122.192 E3367.45527
G1 X100.000 Y122.184 E3372.32395
G1 X100.348 Y122.204 E3378.60022
G1 X100.918 Y122.329 E3389.10451
G1 X101.203 Y122.453 E3394.70574
G1 X101.480 Y122.595 E3400.30568
G1 X101.908 Y122.923 E3410.00373
G1 X102.180 Y123.208 E3417.09903
G1 X102.360 Y123.461 E3422.69694
G1 X102.522 Y123.727 E3428.29813
G1 X102.731 Y124.277 E3438.89955
G1 X102.822 Y124.875 E3449.78343
G1 X102.775 Y125.535 E3461.69346
G1 X102.686 Y125.875 E3468.02165
G1 X102.582 Y126.135 E3473.07500
G1 X102.448 Y126.416 E3478.67616
G1 X102.106 Y126.886 E3489.13154
G1 X101.731 Y127.229 E3498.27922
G1 Z-5.700 F4500.000
G1 X101.499 Y127.076 F4500.000
G1 X100.964 Y127.377 E3503.17302 F300.000
G1 X100.439 Y127.526 E3507.52575
G1 X100.123 Y127.561 E3510.06503
G1 X99.580 Y127.531 E3514.40622
G1 X99.088 Y127.394 E3518.47749
G1 X98.769 Y127.249 E3521.27188
G1 X98.322 Y126.939 E3525.60750
G1 X98.032 Y126.636 E3528.95622
G1 X97.778 Y126.279 E3532.44999
G1 X97.554 Y125.768 E3536.90457
G1 X97.446 Y125.215 E3541.40266
G1 X97.461 Y124.662 E3545.81571
G1 X97.542 Y124.294 E3548.81423
G1 X97.715 Y123.843 E3552.66806
G1 X98.022 Y123.374 E3557.14414
G1 X98.426 Y122.981 E3561.64221
G1 X98.906 Y122.685 E3566.14038
G1 X99.438 Y122.503 E3570.62692
G1 X99.945 Y122.444 E3574.69812 F300.000
G1 X100.295 Y122.459 E3577.49246
G1 X100.832 Y122.579 E3581.88219
G1 X101.342 Y122.820 E3586.38031
G1 X101.787 Y123.166 E3590.87840
G1 X102.134 Y123.587 E3595.23114
G1 X102.293 Y123.863 E3597.77049
G1 X102.484 Y124.374 E3602.12319
G1 X102.562 Y124.932 E3606.62129
G1 X102.516 Y125.488 E3611.06542
G1 X102.399 Y125.891 E3614.41415
G1 X102.216 Y126.289 E3617.90784
G1 X101.885 Y126.739 E3622.36236
G1 X101.555 Y127.026 E3625.85749
G1 X101.232 Y126.770 F4500.000
G1 X100.811 Y127.000 E3629.45669 F300.000
G1 X100.361 Y127.127 E3632.96070
G1 X100.112 Y127.154 E3634.84437
G1 X99.646 Y127.129 E3638.34426
G1 X99.227 Y127.012 E3641.60519
G1 X98.970 Y126.895 E3643.72201
G1 X98.587 Y126.630 E3647.21988
G1 X98.345 Y126.378 E3649.83923
G1 X98.133 Y126.079 E3652.58887
G1 X97.943 Y125.646 E3656.12943
G1 X97.852 Y125.181 E3659.68558
G1 X97.865 Y124.711 E3663.21128
G1 X97.931 Y124.411 E3665.51390
G1 X98.078 Y124.029 E3668.58395
G1 X98.336 Y123.633 E3672.13225
G1 X98.676 Y123.302 E3675.68840
G1 X99.080 Y123.054 E3679.24461
G1 X99.528 Y122.900 E3682.79663
G1 X99.960 Y122.850 E3686.05754 F300.000
G1 X100.242 Y122.862 E3688.17431
G1 X100.700 Y122.965 E3691.69160
G1 X101.129 Y123.167 E3695.24779
G1 X101.503 Y123.458 E3698.80396
G1 X101.800 Y123.819 E3702.30800
G1 X101.925 Y124.036 E3704.19171
G1 X102.089 Y124.474 E3707.69574
G1 X102.154 Y124.944 E3711.25190
G1 X102.115 Y125.414 E3714.78872
G1 X102.018 Y125.749 E3717.40811
G1 X101.865 Y126.082 E3720.15764
G1 X101.586 Y126.463 E3723.69817
G1 X101.289 Y126.721 E3726.64782
G1 X101.255 Y127.249 F4500.000
G1 X101.900 Y127.628 F4500.000
G1 X101.544 Y127.856 E3730.02147 F300.000
G1 X101.221 Y128.008 E3732.87262
G1 X100.883 Y128.124 E3735.72369
G1 X100.534 Y128.203 E3738.57458
G1 X100.179 Y128.242 E3741.42563
G1 X99.821 Y128.242 E3744.27685
G1 X99.466 Y128.203 E3747.12790
G1 X99.117 Y128.124 E3749.97880
G1 X98.779 Y128.008 E3752.82986
G1 X98.456 Y127.856 E3755.68101
G1 X98.152 Y127.669 E3758.53201
G1 X97.870 Y127.449 E3761.38307
G1 X97.613 Y127.200 E3764.23410
G1 X97.386 Y126.924 E3767.08522
G1 X97.191 Y126.625 E3769.93623
G1 X97.029 Y126.306 E3772.78726
G1 X96.904 Y125.971 E3775.63833
G1 X96.816 Y125.625 E3778.48936
G1 X96.767 Y125.271 E3781.34043
G1 X96.757 Y124.914 E3784.19146
G1 X96.787 Y124.557 E3787.04251
G1 X96.855 Y124.207 E3789.89357
G1 X96.962 Y123.866 E3792.74459
G1 X97.106 Y123.538 E3795.59564
G1 X97.284 Y123.229 E3798.44674
G1 X97.496 Y122.941 E3801.29781
G1 X97.738 Y122.678 E3804.14877
G1 X98.008 Y122.443 E3806.99983
G1 X98.301 Y122.240 E3809.85092
G1 X98.616 Y122.069 E3812.70191
G1 X98.947 Y121.935 E3815.55303
G1 X99.291 Y121.838 E3818.40403
G1 X99.643 Y121.779 E3821.25512
G1 X100.000 Y121.759 E3824.10615
G1 X100.332 Y121.777 E3826.76094
G1 X100.709 Y121.838 E3829.80715 F300.000
G1 X101.053 Y121.935 E3832.65819
G1 X101.384 Y122.069 E3835.50924
G1 X101.699 Y122.239 E3838.36022
G1 X101.992 Y122.443 E3841.21134
G1 X102.262 Y122.678 E3844.06241
G1 X102.504 Y122.941 E3846.91338
G1 X102.716 Y123.229 E3849.76445
G1 X102.894 Y123.538 E3852.61556
G1 X103.038 Y123.866 E3855.46659
G1 X103.145 Y124.207 E3858.31762
G1 X103.213 Y124.557 E3861.16869
G1 X103.243 Y124.914 E3864.01974
G1 X103.233 Y125.271 E3866.87074
G1 X103.184 Y125.625 E3869.72182
G1 X103.096 Y125.971 E3872.57286
G1 X102.971 Y126.306 E3875.42393
G1 X102.809 Y126.625 E3878.27497
G1 X102.614 Y126.924 E3881.12598
G1 X102.387 Y127.200 E3883.97708
G1 X102.130 Y127.449 E3886.82813
G1 X101.959 Y127.582 E3888.55553
G1 X102.149 Y127.948 F4500.000
G1 X101.737 Y128.213 E3892.22957 F300.000
G1 X101.373 Y128.384 E3895.24534
G1 X100.993 Y128.515 E3898.26110
G1 X100.601 Y128.603 E3901.27677
G1 X100.201 Y128.647 E3904.29251
G1 X99.799 Y128.647 E3907.30833
G1 X99.399 Y128.603 E3910.32407
G1 X99.007 Y128.515 E3913.33974
G1 X98.627 Y128.384 E3916.35550
G1 X98.263 Y128.213 E3919.37128
G1 X97.920 Y128.002 E3922.38698
G1 X97.603 Y127.755 E3925.40275
G1 X97.315 Y127.475 E3928.41847
G1 X97.059 Y127.164 E3931.43427
G1 X96.839 Y126.828 E3934.44997
G1 X96.658 Y126.469 E3937.46571
G1 X96.517 Y126.092 E3940.48147
G1 X96.418 Y125.703 E3943.49719
G1 X96.363 Y125.304 E3946.51295
G1 X96.352 Y124.902 E3949.52867
G1 X96.385 Y124.502 E3952.54441
G1 X96.462 Y124.107 E3955.56015
G1 X96.582 Y123.723 E3958.57589
G1 X96.744 Y123.355 E3961.59165
G1 X96.945 Y123.007 E3964.60739
G1 X97.183 Y122.683 E3967.62316
G1 X97.455 Y122.387 E3970.63884
G1 X97.758 Y122.123 E3973.65458
G1 X98.089 Y121.894 E3976.67038
G1 X98.442 Y121.702 E3979.68605
G1 X98.815 Y121.551 E3982.70183
G1 X99.202 Y121.442 E3985.71754
G1 X99.599 Y121.375 E3988.73331
G1 X100.000 Y121.353 E3991.74904
G1 X100.355 Y121.373 E3994.41264
G1 X100.798 Y121.442 E3997.77864 F300.000
G1 X101.185 Y121.551 E4000.79435
G1 X101.558 Y121.702 E4003.81010
G1 X101.911 Y121.894 E4006.82579
G1 X102.242 Y122.123 E4009.84160
G1 X102.545 Y122.387 E4012.85735
G1 X102.817 Y122.683 E4015.87303
G1 X103.055 Y123.007 E4018.88878
G1 X103.256 Y123.355 E4021.90455
G1 X103.418 Y123.723 E4024.92029
G1 X103.538 Y124.107 E4027.93603
G1 X103.615 Y124.502 E4030.95178
G1 X103.648 Y124.902 E4033.96751
G1 X103.637 Y125.304 E4036.98323
G1 X103.582 Y125.703 E4039.99899
G1 X103.483 Y126.092 E4043.01471
G1 X103.342 Y126.469 E4046.03047
G1 X103.161 Y126.828 E4049.04622
G1 X102.941 Y127.164 E4052.06192
G1 X102.685 Y127.475 E4055.07771
G1 X102.397 Y127.755 E4058.09344
G1 X102.208 Y127.902 E4059.88509
G1 X101.707 Y127.737 F4500.000
G1 X101.675 Y127.373 F4500.000
G1 X101.093 Y127.693 E4065.19036 F1200.000
G1 X100.515 Y127.858 E4069.98024
G1 X100.160 Y127.900 E4072.83569
G1 X99.522 Y127.867 E4077.93063
G1 X98.981 Y127.718 E4082.40778
G1 X98.619 Y127.555 E4085.57526
G1 X98.093 Y127.192 E4090.66980
G1 X97.763 Y126.846 E4094.48573
G1 X97.486 Y126.455 E4098.31390
G1 X97.229 Y125.870 E4103.40988
G1 X97.106 Y125.228 E4108.61973
G1 X97.125 Y124.604 E4113.60044 F1200.000
G1 X97.218 Y124.187 E4117.01020
G1 X97.409 Y123.692 E4121.24468
G1 X97.759 Y123.157 E4126.34102
G1 X98.228 Y122.703 E4131.55080
G1 X98.774 Y122.372 E4136.64596
G1 X99.365 Y122.170 E4141.62747
G1 X99.681 Y122.125 E4144.17680
G1 X100.000 Y122.103 E4146.72397
G1 X100.351 Y122.123 E4149.53029
G1 X100.943 Y122.257 E4154.36907
G1 X101.236 Y122.385 E4156.91834
G1 X101.521 Y122.529 E4159.46754
G1 X102.014 Y122.912 E4164.44923
G1 X102.420 Y123.402 E4169.52553
G1 X102.606 Y123.727 E4172.51365
G1 X102.811 Y124.276 E4177.18879
G1 X102.901 Y124.909 E4182.28386
G1 X102.849 Y125.560 E4187.49313
G1 X102.715 Y126.019 E4191.30912
G1 X102.517 Y126.450 E4195.09615
G1 X102.136 Y126.970 E4200.23260
G1 X101.733 Y127.325 E4204.51924
G1 Z-5.200 F4500.000
G1 X101.653 Y127.344 F4500.000
G1 X101.364 Y127.524 E4207.23368 F300.000
G1 X101.079 Y127.659 E4209.75351
G1 X100.780 Y127.762 E4212.27327
G1 X100.472 Y127.831 E4214.79308
G1 X100.158 Y127.866 E4217.31290
G1 X99.842 Y127.866 E4219.83264
G1 X99.514 Y127.829 E4222.46336
G1 X99.038 Y127.701 E4226.39719
G1 X98.644 Y127.530 E4229.82666
G1 X98.366 Y127.359 E4232.42566
G1 X98.117 Y127.165 E4234.94550
G1 X97.891 Y126.945 E4237.46522
G1 X97.681 Y126.690 E4240.09590
G1 X97.429 Y126.266 E4244.02976
G1 X97.266 Y125.868 E4247.45929
G1 X97.186 Y125.553 E4250.05828
G1 X97.143 Y125.240 E4252.57801
G1 X97.134 Y124.924 E4255.09786
G1 X97.161 Y124.596 E4257.72258
G1 X97.272 Y124.130 E4261.54661
G1 X97.437 Y123.718 E4265.08401
G1 X97.600 Y123.435 E4267.69083
G1 X97.787 Y123.180 E4270.21061
G1 X98.001 Y122.948 E4272.73038
G1 X98.239 Y122.741 E4275.25014
G1 X98.499 Y122.561 E4277.77000
G1 X98.776 Y122.410 E4280.28975
G1 X99.069 Y122.291 E4282.80957
G1 X99.386 Y122.202 E4285.44025
G1 X99.876 Y122.141 E4289.37400 F300.000
G1 X100.306 Y122.152 E4292.80348
G1 X100.627 Y122.205 E4295.40254
G1 X100.931 Y122.291 E4297.92227
G1 X101.224 Y122.410 E4300.44208
G1 X101.501 Y122.561 E4302.96187
G1 X101.761 Y122.741 E4305.48172
G1 X101.999 Y122.948 E4308.00148
G1 X102.213 Y123.180 E4310.52125
G1 X102.400 Y123.435 E4313.04102
G1 X102.558 Y123.708 E4315.56087
G1 X102.685 Y123.998 E4318.08066
G1 X102.779 Y124.299 E4320.60044
G1 X102.840 Y124.609 E4323.12016
G1 X102.866 Y124.924 E4325.64006
G1 X102.857 Y125.240 E4328.15984
G1 X102.812 Y125.568 E4330.79998
G1 X102.662 Y126.062 E4334.92506
G1 X102.487 Y126.430 E4338.16886
G1 X102.310 Y126.701 E4340.75317
G1 X102.109 Y126.945 E4343.27282
G1 X101.883 Y127.165 E4345.79257
G1 X101.712 Y127.298 E4347.51832
G1 X101.404 Y127.024 F4500.000
G1 X101.171 Y127.167 E4349.56824 F300.000
G1 X100.926 Y127.283 E4351.60192
G1 X100.670 Y127.371 E4353.63554
G1 X100.405 Y127.430 E4355.66919
G1 X100.136 Y127.460 E4357.70284
G1 X99.864 Y127.460 E4359.73648
G1 X99.590 Y127.430 E4361.80991
G1 X99.172 Y127.318 E4365.05082
G1 X98.832 Y127.169 E4367.83601
G1 X98.598 Y127.025 E4369.89804
G1 X98.384 Y126.859 E4371.93171
G1 X98.189 Y126.670 E4373.96532
G1 X98.014 Y126.456 E4376.03875
G1 X97.793 Y126.085 E4379.27971
G1 X97.652 Y125.741 E4382.06488
G1 X97.585 Y125.475 E4384.12692
G1 X97.547 Y125.206 E4386.16054
G1 X97.540 Y124.935 E4388.19420
G1 X97.563 Y124.660 E4390.26550
G1 X97.659 Y124.252 E4393.40773
G1 X97.802 Y123.895 E4396.29087
G1 X97.940 Y123.657 E4398.35574
G1 X98.100 Y123.438 E4400.38939
G1 X98.284 Y123.239 E4402.42302
G1 X98.488 Y123.061 E4404.45664
G1 X98.711 Y122.906 E4406.49032
G1 X98.950 Y122.777 E4408.52395
G1 X99.201 Y122.675 E4410.55761
G1 X99.467 Y122.600 E4412.63102
G1 X99.896 Y122.547 E4415.87192 F300.000
G1 X100.267 Y122.556 E4418.65707
G1 X100.538 Y122.601 E4420.71915
G1 X100.799 Y122.675 E4422.75277
G1 X101.050 Y122.777 E4424.78641
G1 X101.289 Y122.906 E4426.82006
G1 X101.512 Y123.061 E4428.85375
G1 X101.716 Y123.239 E4430.88736
G1 X101.900 Y123.438 E4432.92100
G1 X102.060 Y123.657 E4434.95464
G1 X102.196 Y123.892 E4436.98831
G1 X102.305 Y124.140 E4439.02195
G1 X102.386 Y124.399 E4441.05560
G1 X102.438 Y124.665 E4443.08920
G1 X102.460 Y124.935 E4445.12291
G1 X102.453 Y125.206 E4447.15654
G1 X102.415 Y125.480 E4449.23336
G1 X102.283 Y125.916 E4452.64547
G1 X102.133 Y126.231 E4455.26156
G1 X101.983 Y126.461 E4457.31836
G1 X101.811 Y126.670 E4459.35192
G1 X101.463 Y126.978 E4462.83518
G1 X101.427 Y127.296 F4500.000
G1 X101.884 Y127.641 F4500.000
G1 X101.544 Y127.856 E4466.04574 F300.000
G1 X101.221 Y128.008 E4468.89687
G1 X100.883 Y128.124 E4471.74792
G1 X100.534 Y128.203 E4474.59883
G1 X100.179 Y128.242 E4477.44989
G1 X99.821 Y128.242 E4480.30109
G1 X99.466 Y128.203 E4483.15215
G1 X99.117 Y128.124 E4486.00306
G1 X98.779 Y128.008 E4488.85412
G1 X98.456 Y127.856 E4491.70526
G1 X98.152 Y127.669 E4494.55625
G1 X97.870 Y127.449 E4497.40730
G1 X97.613 Y127.200 E4500.25836
G1 X97.386 Y126.924 E4503.10946
G1 X97.191 Y126.625 E4505.96048
G1 X97.029 Y126.306 E4508.81151
G1 X96.904 Y125.971 E4511.66258
G1 X96.816 Y125.625 E4514.51361
G1 X96.767 Y125.271 E4517.36469
G1 X96.757 Y124.914 E4520.21571
G1 X96.787 Y124.557 E4523.06676
G1 X96.855 Y124.207 E4525.91782
G1 X96.962 Y123.866 E4528.76885
G1 X97.106 Y123.538 E4531.61989
G1 X97.284 Y123.229 E4534.47100
G1 X97.496 Y122.941 E4537.32206
G1 X97.738 Y122.678 E4540.17303
G1 X98.008 Y122.443 E4543.02409
G1 X98.301 Y122.240 E4545.87517
G1 X98.616 Y122.069 E4548.72616
G1 X98.947 Y121.935 E4551.57729
G1 X99.291 Y121.838 E4554.42828
G1 X99.643 Y121.779 E4557.27938
G1 X100.000 Y121.759 E4560.13041
G1 X100.357 Y121.779 E4562.98144
G1 X100.709 Y121.838 E4565.83253 F300.000
G1 X101.053 Y121.935 E4568.68356
G1 X101.384 Y122.069 E4571.53461
G1 X101.699 Y122.239 E4574.38558
G1 X101.992 Y122.443 E4577.23672
G1 X102.262 Y122.678 E4580.08779
G1 X102.504 Y122.941 E4582.93874
G1 X102.716 Y123.229 E4585.78981
G1 X102.894 Y123.538 E4588.64093
G1 X103.038 Y123.866 E4591.49197
G1 X103.145 Y124.207 E4594.34299
G1 X103.213 Y124.557 E4597.19406
G1 X103.243 Y124.914 E4600.04509
G1 X103.233 Y125.271 E4602.89611
G1 X103.184 Y125.625 E4605.74720
G1 X103.096 Y125.971 E4608.59823
G1 X102.971 Y126.306 E4611.44928
G1 X102.809 Y126.625 E4614.30034
G1 X102.614 Y126.924 E4617.15135
G1 X102.387 Y127.200 E4620.00246
G1 X102.130 Y127.449 E4622.85350
G1 X101.943 Y127.595 E4624.74475
G1 X102.133 Y127.961 F4500.000
G1 X101.737 Y128.213 E4628.26538 F300.000
G1 X101.373 Y128.384 E4631.28115
G1 X100.993 Y128.515 E4634.29691
G1 X100.601 Y128.603 E4637.31257
G1 X100.201 Y128.647 E4640.32833
G1 X99.799 Y128.647 E4643.34414
G1 X99.399 Y128.603 E4646.35988
G1 X99.007 Y128.515 E4649.37556
G1 X98.627 Y128.384 E4652.39131
G1 X98.263 Y128.213 E4655.40709
G1 X97.920 Y128.002 E4658.42279
G1 X97.603 Y127.755 E4661.43854
G1 X97.315 Y127.475 E4664.45428
G1 X97.059 Y127.164 E4667.47007
G1 X96.839 Y126.828 E4670.48578
G1 X96.658 Y126.469 E4673.50153
G1 X96.517 Y126.092 E4676.51728
G1 X96.418 Y125.703 E4679.53300
G1 X96.363 Y125.304 E4682.54876
G1 X96.352 Y124.902 E4685.56448
G1 X96.385 Y124.502 E4688.58021
G1 X96.462 Y124.107 E4691.59596
G1 X96.582 Y123.723 E4694.61170
G1 X96.744 Y123.355 E4697.62745
G1 X96.945 Y123.007 E4700.64321
G1 X97.183 Y122.683 E4703.65896
G1 X97.455 Y122.387 E4706.67465
G1 X97.758 Y122.123 E4709.69040
G1 X98.089 Y121.894 E4712.70619
G1 X98.442 Y121.702 E4715.72186
G1 X98.815 Y121.551 E4718.73765
G1 X99.202 Y121.442 E4721.75335
G1 X99.599 Y121.375 E4724.76913
G1 X100.000 Y121.353 E4727.78486
G1 X100.401 Y121.375 E4730.80060
G1 X100.798 Y121.442 E4733.81637 F300.000
G1 X101.185 Y121.551 E4736.83207
G1 X101.558 Y121.702 E4739.84782
G1 X101.911 Y121.894 E4742.86351
G1 X102.242 Y122.123 E4745.87932
G1 X102.545 Y122.387 E4748.89507
G1 X102.817 Y122.683 E4751.91076
G1 X103.055 Y123.007 E4754.92650
G1 X103.256 Y123.355 E4757.94227
G1 X103.418 Y123.723 E4760.95802
G1 X103.538 Y124.107 E4763.97376
G1 X103.615 Y124.502 E4766.98951
G1 X103.648 Y124.902 E4770.00523
G1 X103.637 Y125.304 E4773.02096
G1 X103.582 Y125.703 E4776.03672
G1 X103.483 Y126.092 E4779.05244
G1 X103.342 Y126.469 E4782.06818
G1 X103.161 Y126.828 E4785.08395
G1 X102.941 Y127.164 E4788.09965
G1 X102.685 Y127.475 E4791.11544
G1 X102.397 Y127.755 E4794.13117
G1 X102.192 Y127.915 E4796.07686
G1 X101.710 Y127.757 F4500.000
G1 Z-4.700 F4500.000
G1 X101.592 Y127.266 F4500.000
G1 X101.318 Y127.438 E4798.50687 F300.000
G1 X101.042 Y127.568 E4800.79434
G1 X100.753 Y127.667 E4803.08176
G1 X100.456 Y127.733 E4805.36922
G1 X100.152 Y127.767 E4807.65666
G1 X99.848 Y127.767 E4809.94408
G1 X99.540 Y127.733 E4812.26354
G1 X99.117 Y127.623 E4815.54352
G1 X98.687 Y127.440 E4819.04917
G1 X98.423 Y127.278 E4821.37352
G1 X98.182 Y127.091 E4823.66099
G1 X97.963 Y126.878 E4825.94841
G1 X97.767 Y126.639 E4828.26788
G1 X97.540 Y126.265 E4831.54789
G1 X97.359 Y125.834 E4835.05353
G1 X97.283 Y125.534 E4837.37787
G1 X97.241 Y125.232 E4839.66531
G1 X97.233 Y124.927 E4841.95277
G1 X97.258 Y124.617 E4844.28261
G1 X97.378 Y124.125 E4848.08106
G1 X97.528 Y123.756 E4851.07058
G1 X97.683 Y123.489 E4853.38249
G1 X97.863 Y123.243 E4855.66995
G1 X98.070 Y123.019 E4857.95737
G1 X98.300 Y122.818 E4860.24480
G1 X98.550 Y122.645 E4862.53228
G1 X98.819 Y122.499 E4864.81971
G1 X99.101 Y122.385 E4867.10716
G1 X99.399 Y122.301 E4869.42659
G1 X99.832 Y122.243 E4872.70657 F300.000
G1 X100.300 Y122.251 E4876.21220
G1 X100.605 Y122.302 E4878.53658
G1 X100.899 Y122.385 E4880.82400
G1 X101.181 Y122.499 E4883.11144
G1 X101.450 Y122.645 E4885.39887
G1 X101.700 Y122.818 E4887.68636
G1 X101.930 Y123.019 E4889.97378
G1 X102.137 Y123.243 E4892.26121
G1 X102.317 Y123.489 E4894.54866
G1 X102.470 Y123.753 E4896.83610
G1 X102.592 Y124.032 E4899.12355
G1 X102.684 Y124.323 E4901.41100
G1 X102.742 Y124.623 E4903.69841
G1 X102.767 Y124.927 E4905.98589
G1 X102.759 Y125.232 E4908.27333
G1 X102.717 Y125.536 E4910.58084
G1 X102.618 Y125.894 E4913.36648
G1 X102.535 Y126.115 E4915.13323
G1 X102.397 Y126.387 E4917.42063
G1 X102.231 Y126.642 E4919.70812
G1 X102.037 Y126.878 E4921.99552
G1 X101.818 Y127.091 E4924.28297
G1 X101.652 Y127.220 E4925.86452
G1 X101.615 Y127.589 F4500.000
G1 X102.133 Y127.961 F4500.000
G1 X101.737 Y128.213 E4929.38524 F300.000
G1 X101.373 Y128.384 E4932.40102
G1 X100.993 Y128.515 E4935.41677
G1 X100.601 Y128.603 E4938.43244
G1 X100.201 Y128.647 E4941.44818
G1 X99.799 Y128.647 E4944.46400
G1 X99.399 Y128.603 E4947.47975
G1 X99.007 Y128.515 E4950.49541
G1 X98.627 Y128.384 E4953.51116
G1 X98.263 Y128.213 E4956.52695
G1 X97.920 Y128.002 E4959.54265
G1 X97.603 Y127.755 E4962.55842
G1 X97.315 Y127.475 E4965.57415
G1 X97.059 Y127.164 E4968.58993
G1 X96.839 Y126.828 E4971.60564
G1 X96.658 Y126.469 E4974.62139
G1 X96.517 Y126.092 E4977.63714
G1 X96.418 Y125.703 E4980.65287
G1 X96.363 Y125.304 E4983.66862
G1 X96.352 Y124.902 E4986.68435
G1 X96.385 Y124.502 E4989.70008
G1 X96.462 Y124.107 E4992.71582
G1 X96.582 Y123.723 E4995.73156
G1 X96.744 Y123.355 E4998.74731
G1 X96.945 Y123.007 E5001.76308
G1 X97.183 Y122.683 E5004.77883
G1 X97.455 Y122.387 E5007.79451
G1 X97.758 Y122.123 E5010.81026
G1 X98.089 Y121.894 E5013.82606
G1 X98.442 Y121.702 E5016.84172
G1 X98.815 Y121.551 E5019.85751
G1 X99.202 Y121.442 E5022.87322
G1 X99.599 Y121.375 E5025.88898
G1 X100.000 Y121.353 E5028.90473
G1 X100.162 Y121.362 E5030.11960
G1 X100.401 Y121.375 E5031.92044 F300.000
G1 X100.798 Y121.442 E5034.93622
G1 X101.185 Y121.551 E5037.95195
G1 X101.558 Y121.702 E5040.96769
G1 X101.911 Y121.894 E5043.98337
G1 X102.242 Y122.123 E5046.99919
G1 X102.545 Y122.387 E5050.01494
G1 X102.817 Y122.683 E5053.03061
G1 X103.055 Y123.007 E5056.04638
G1 X103.256 Y123.355 E5059.06212
G1 X103.418 Y123.723 E5062.07788
G1 X103.538 Y124.107 E5065.09362
G1 X103.615 Y124.502 E5068.10936
G1 X103.648 Y124.902 E5071.12510
G1 X103.637 Y125.304 E5074.14082
G1 X103.582 Y125.703 E5077.15657
G1 X103.483 Y126.092 E5080.17230
G1 X103.342 Y126.469 E5083.18806
G1 X103.161 Y126.828 E5086.20380
G1 X102.941 Y127.164 E5089.21951
G1 X102.685 Y127.475 E5092.23530
G1 X102.397 Y127.755 E5095.25103
G1 X102.192 Y127.915 E5097.19664
G1 X101.710 Y127.757 F4500.000
G1 X101.863 Y127.613 F4500.000
G1 X101.527 Y127.825 E5104.33888 F1200.000
G1 X101.195 Y127.980 E5110.93857
G1 X100.873 Y128.091 E5117.06798
G1 X100.541 Y128.165 E5123.19713
G1 X100.177 Y128.207 E5129.79651
G1 X99.823 Y128.207 E5136.16180
G1 X99.444 Y128.162 E5143.04380
G1 X98.959 Y128.033 E5152.07638
G1 X98.473 Y127.825 E5161.59611
G1 X98.161 Y127.632 E5168.19571
G1 X97.893 Y127.423 E5174.32500
G1 X97.649 Y127.185 E5180.45428
G1 X97.414 Y126.903 E5187.05413
G1 X97.225 Y126.605 E5193.41485
G1 X97.067 Y126.290 E5199.76916
G1 X96.936 Y125.957 E5206.20434
G1 X96.851 Y125.618 E5212.49400
G1 X96.804 Y125.281 E5218.62315
G1 X96.792 Y124.915 E5225.22284
G1 X96.821 Y124.562 E5231.58794 F1200.000
G1 X96.896 Y124.217 E5237.94773
G1 X96.999 Y123.879 E5244.30247
G1 X97.140 Y123.548 E5250.79288
G1 X97.321 Y123.237 E5257.26307
G1 X97.523 Y122.963 E5263.39246
G1 X97.754 Y122.712 E5269.52170
G1 X98.029 Y122.471 E5276.12118
G1 X98.320 Y122.269 E5282.48619
G1 X98.631 Y122.101 E5288.85100
G1 X98.958 Y121.968 E5295.21610
G1 X99.298 Y121.872 E5301.58111
G1 X99.824 Y121.803 E5311.13230
G1 X100.353 Y121.814 E5320.65194
G1 X100.702 Y121.872 E5327.01712
G1 X101.042 Y121.968 E5333.38209
G1 X101.369 Y122.101 E5339.74705
G1 X101.680 Y122.269 E5346.11178
G1 X101.971 Y122.471 E5352.47695
G1 X102.237 Y122.703 E5358.84192
G1 X102.485 Y122.974 E5365.44131
G1 X102.693 Y123.259 E5371.80525
G1 X102.863 Y123.554 E5377.93464
G1 X103.000 Y123.866 E5384.06389
G1 X103.111 Y124.215 E5390.66344
G1 X103.178 Y124.562 E5397.02839
G1 X103.208 Y124.915 E5403.39337
G1 X103.196 Y125.281 E5409.99295
G1 X103.144 Y125.640 E5416.53415
G1 X103.059 Y125.960 E5422.48278
G1 X102.938 Y126.292 E5428.84492
G1 X102.779 Y126.607 E5435.20985
G1 X102.586 Y126.903 E5441.57466
G1 X102.361 Y127.176 E5447.93974
G1 X102.107 Y127.423 E5454.30470
G1 X101.922 Y127.567 E5458.53797
G1 Z-4.200 F4500.000
G1 X101.781 Y127.508 F4500.000
G1 X101.464 Y127.708 E5461.34808 F300.000
G1 X101.157 Y127.852 E5463.88933
G1 X100.837 Y127.962 E5466.43055
G1 X100.506 Y128.036 E5468.97181
G1 X100.169 Y128.074 E5471.51304
G1 X99.831 Y128.074 E5474.05427
G1 X99.491 Y128.036 E5476.62002
G1 X99.069 Y127.930 E5479.88098
G1 X98.843 Y127.852 E5481.67471
G1 X98.536 Y127.708 E5484.21596
G1 X98.248 Y127.530 E5486.75716
G1 X97.979 Y127.321 E5489.31322
G1 X97.703 Y127.044 E5492.24179
G1 X97.522 Y126.824 E5494.37890
G1 X97.337 Y126.541 E5496.92014
G1 X97.184 Y126.238 E5499.46142
G1 X97.057 Y125.901 E5502.16017
G1 X96.982 Y125.592 E5504.55195
G1 X96.935 Y125.257 E5507.08606
G1 X96.926 Y124.918 E5509.62731
G1 X96.954 Y124.581 E5512.16857
G1 X97.019 Y124.248 E5514.70976
G1 X97.099 Y123.991 E5516.73212
G1 X97.255 Y123.616 E5519.77151
G1 X97.425 Y123.321 E5522.33105
G1 X97.626 Y123.048 E5524.87230
G1 X97.856 Y122.799 E5527.41351
G1 X98.111 Y122.576 E5529.95474
G1 X98.390 Y122.383 E5532.49602
G1 X98.688 Y122.222 E5535.03723
G1 X99.001 Y122.094 E5537.57847
G1 X99.331 Y122.001 E5540.14420
G1 X99.761 Y121.941 E5543.40514
G1 X100.000 Y121.928 E5545.19889 F300.000
G1 X100.338 Y121.946 E5547.74013
G1 X100.673 Y122.002 E5550.28137
G1 X100.999 Y122.094 E5552.82258
G1 X101.312 Y122.222 E5555.36382
G1 X101.610 Y122.383 E5557.90506
G1 X101.889 Y122.576 E5560.44632
G1 X102.144 Y122.799 E5562.98755
G1 X102.374 Y123.048 E5565.52876
G1 X102.575 Y123.321 E5568.07002
G1 X102.744 Y123.614 E5570.61126
G1 X102.880 Y123.925 E5573.15250
G1 X102.981 Y124.248 E5575.69375
G1 X103.046 Y124.581 E5578.23496
G1 X103.074 Y124.918 E5580.77622
G1 X103.065 Y125.257 E5583.31746
G1 X103.018 Y125.593 E5585.85868
G1 X102.935 Y125.921 E5588.39989
G1 X102.833 Y126.195 E5590.59456
G1 X102.664 Y126.539 E5593.46770
G1 X102.478 Y126.824 E5596.02192
G1 X102.263 Y127.086 E5598.56312
G1 X102.020 Y127.322 E5601.10434
G1 X101.840 Y127.462 E5602.81274
G1 X101.808 Y127.882 F4500.000
G1 X102.133 Y127.961 F4500.000
G1 X101.737 Y128.213 E5606.33349 F300.000
G1 X101.373 Y128.384 E5609.34926
G1 X100.993 Y128.515 E5612.36501
G1 X100.601 Y128.603 E5615.38070
G1 X100.201 Y128.647 E5618.39643
G1 X99.799 Y128.647 E5621.41224
G1 X99.399 Y128.603 E5624.42799
G1 X99.007 Y128.515 E5627.44366
G1 X98.627 Y128.384 E5630.45943
G1 X98.263 Y128.213 E5633.47519
G1 X97.920 Y128.002 E5636.49091
G1 X97.603 Y127.755 E5639.50666
G1 X97.315 Y127.475 E5642.52240
G1 X97.059 Y127.164 E5645.53819
G1 X96.839 Y126.828 E5648.55388
G1 X96.658 Y126.469 E5651.56964
G1 X96.517 Y126.092 E5654.58538
G1 X96.418 Y125.703 E5657.60111
G1 X96.363 Y125.304 E5660.61686
G1 X96.352 Y124.902 E5663.63259
G1 X96.385 Y124.502 E5666.64833
G1 X96.462 Y124.107 E5669.66407
G1 X96.582 Y123.723 E5672.67981
G1 X96.744 Y123.355 E5675.69555
G1 X96.945 Y123.007 E5678.71131
G1 X97.183 Y122.683 E5681.72707
G1 X97.455 Y122.387 E5684.74275
G1 X97.758 Y122.123 E5687.75850
G1 X98.089 Y121.894 E5690.77429
G1 X98.442 Y121.702 E5693.78997
G1 X98.815 Y121.551 E5696.80576
G1 X99.202 Y121.442 E5699.82145
G1 X99.595 Y121.376 E5702.81222
G1 X100.133 Y121.361 E5706.84856
G1 X100.401 Y121.375 E5708.86390
G1 X100.798 Y121.442 E5711.87967 F300.000
G1 X101.185 Y121.551 E5714.89539
G1 X101.558 Y121.702 E5717.91113
G1 X101.911 Y121.894 E5720.92683
G1 X102.242 Y122.123 E5723.94263
G1 X102.545 Y122.387 E5726.95837
G1 X102.817 Y122.683 E5729.97406
G1 X103.055 Y123.007 E5732.98982
G1 X103.256 Y123.355 E5736.00557
G1 X103.418 Y123.723 E5739.02133
G1 X103.538 Y124.107 E5742.03707
G1 X103.615 Y124.502 E5745.05281
G1 X103.648 Y124.902 E5748.06855
G1 X103.637 Y125.304 E5751.08426
G1 X103.582 Y125.703 E5754.10002
G1 X103.483 Y126.092 E5757.11575
G1 X103.342 Y126.469 E5760.13149
G1 X103.161 Y126.828 E5763.14726
G1 X102.941 Y127.164 E5766.16295
G1 X102.685 Y127.475 E5769.17875
G1 X102.397 Y127.755 E5772.19449
G1 X102.192 Y127.915 E5774.14007
G1 X101.710 Y127.757 F4500.000
G1 X101.957 Y127.734 F4500.000
G1 X101.600 Y127.960 E5777.50694 F1200.000
G1 X101.261 Y128.120 E5780.49907
G1 X100.915 Y128.239 E5783.41748
G1 X100.558 Y128.319 E5786.33577
G1 X100.185 Y128.360 E5789.32780
G1 X99.815 Y128.360 E5792.28324
G1 X99.434 Y128.317 E5795.33951
G1 X99.086 Y128.234 E5798.19184
G1 X98.739 Y128.120 E5801.10859
G1 X98.400 Y127.960 E5804.10071
G1 X98.084 Y127.766 E5807.05597
G1 X97.785 Y127.532 E5810.08691
G1 X97.528 Y127.279 E5812.96532
G1 X97.294 Y126.998 E5815.88260
G1 X97.088 Y126.684 E5818.87471
G1 X96.921 Y126.354 E5821.83003
G1 X96.783 Y125.981 E5824.99986
G1 X96.700 Y125.648 E5827.74049
G1 X96.650 Y125.285 E5830.65876
G1 X96.639 Y124.910 E5833.65090
G1 X96.669 Y124.541 E5836.60622 F1200.000
G1 X96.740 Y124.178 E5839.56154
G1 X96.854 Y123.825 E5842.51553
G1 X97.000 Y123.485 E5845.46958
G1 X97.188 Y123.160 E5848.46175
G1 X97.404 Y122.865 E5851.38012
G1 X97.652 Y122.596 E5854.29841
G1 X97.935 Y122.350 E5857.29051
G1 X98.239 Y122.138 E5860.24585
G1 X98.565 Y121.962 E5863.20111
G1 X98.908 Y121.823 E5866.15649
G1 X99.266 Y121.722 E5869.12199
G1 X99.737 Y121.657 E5872.91506
G1 X100.004 Y121.646 E5875.04966
G1 X100.365 Y121.661 E5877.93133
G1 X100.731 Y121.721 E5880.88648
G1 X101.092 Y121.823 E5883.87860
G1 X101.435 Y121.962 E5886.83391
G1 X101.761 Y122.138 E5889.78915
G1 X102.065 Y122.350 E5892.74453
G1 X102.345 Y122.593 E5895.69987
G1 X102.598 Y122.869 E5898.69194
G1 X102.815 Y123.164 E5901.61026
G1 X102.998 Y123.481 E5904.52860
G1 X103.147 Y123.820 E5907.48375
G1 X103.260 Y124.178 E5910.47588
G1 X103.331 Y124.541 E5913.43120
G1 X103.361 Y124.910 E5916.38651
G1 X103.350 Y125.285 E5919.37865
G1 X103.299 Y125.652 E5922.33374
G1 X103.209 Y126.007 E5925.25208
G1 X103.095 Y126.312 E5927.85536
G1 X102.912 Y126.684 E5931.16074
G1 X102.709 Y126.994 E5934.11602
G1 X102.474 Y127.280 E5937.07141
G1 X102.208 Y127.539 E5940.02671
G1 X102.016 Y127.688 E5941.96996
G1 Z-3.700 F4500.000
G1 X101.969 Y127.750 F4500.000
G1 X101.610 Y127.978 E5945.16016 F300.000
G1 X101.273 Y128.137 E5947.95519
G1 X100.920 Y128.258 E5950.75022
G1 X100.557 Y128.339 E5953.54527
G1 X100.186 Y128.380 E5956.34031
G1 X99.814 Y128.380 E5959.13532
G1 X99.441 Y128.339 E5961.94759
G1 X99.012 Y128.235 E5965.25649
G1 X98.727 Y128.137 E5967.51787
G1 X98.390 Y127.978 E5970.31290
G1 X98.073 Y127.783 E5973.10792
G1 X97.777 Y127.553 E5975.91301
G1 X97.487 Y127.264 E5978.98462
G1 X97.274 Y127.006 E5981.49154
G1 X97.071 Y126.694 E5984.28656
G1 X96.902 Y126.362 E5987.08163
G1 X96.772 Y126.013 E5989.87666
G1 X96.680 Y125.651 E5992.67166
G1 X96.629 Y125.282 E5995.46670
G1 X96.619 Y124.910 E5998.26174
G1 X96.650 Y124.538 E6001.05676
G1 X96.721 Y124.173 E6003.85178
G1 X96.817 Y123.864 E6006.27669
G1 X96.981 Y123.477 E6009.42745
G1 X97.168 Y123.153 E6012.23502
G1 X97.389 Y122.853 E6015.03007
G1 X97.641 Y122.578 E6017.82510
G1 X97.922 Y122.334 E6020.62011
G1 X98.229 Y122.121 E6023.41520
G1 X98.556 Y121.944 E6026.21020
G1 X98.902 Y121.804 E6029.00523
G1 X99.263 Y121.702 E6031.81748
G1 X99.699 Y121.637 E6035.12638
G1 X100.000 Y121.620 E6037.38775 F300.000
G1 X100.372 Y121.641 E6040.18279
G1 X100.740 Y121.702 E6042.97784
G1 X101.098 Y121.804 E6045.77284
G1 X101.444 Y121.944 E6048.56787
G1 X101.771 Y122.121 E6051.36291
G1 X102.078 Y122.334 E6054.15798
G1 X102.359 Y122.578 E6056.95299
G1 X102.611 Y122.853 E6059.74802
G1 X102.832 Y123.153 E6062.54306
G1 X103.018 Y123.476 E6065.33809
G1 X103.169 Y123.819 E6068.15036
G1 X103.293 Y124.242 E6071.45926
G1 X103.350 Y124.538 E6073.72063
G1 X103.381 Y124.910 E6076.51568
G1 X103.371 Y125.282 E6079.31071
G1 X103.320 Y125.651 E6082.10572
G1 X103.228 Y126.013 E6084.90074
G1 X103.109 Y126.331 E6087.44874
G1 X102.930 Y126.693 E6090.48081
G1 X102.726 Y127.006 E6093.28456
G1 X102.489 Y127.294 E6096.07959
G1 X102.221 Y127.554 E6098.87463
G1 X102.028 Y127.704 E6100.70988
G1 X102.000 Y128.174 F4500.000
G1 X102.133 Y127.961 F4500.000
G1 X101.737 Y128.213 E6104.23063 F300.000
G1 X101.373 Y128.384 E6107.24640
G1 X100.993 Y128.515 E6110.26216
G1 X100.601 Y128.603 E6113.27784
G1 X100.201 Y128.647 E6116.29358
G1 X99.799 Y128.647 E6119.30940
G1 X99.399 Y128.603 E6122.32513
G1 X99.007 Y128.515 E6125.34080
G1 X98.627 Y128.384 E6128.35656
G1 X98.263 Y128.213 E6131.37234
G1 X97.920 Y128.002 E6134.38804
G1 X97.603 Y127.755 E6137.40381
G1 X97.315 Y127.475 E6140.41954
G1 X97.059 Y127.164 E6143.43533
G1 X96.839 Y126.828 E6146.45103
G1 X96.658 Y126.469 E6149.46679
G1 X96.517 Y126.092 E6152.48253
G1 X96.418 Y125.703 E6155.49826
G1 X96.363 Y125.304 E6158.51401
G1 X96.352 Y124.905 E6161.51056
G1 X96.403 Y124.408 E6165.25505
G1 X96.462 Y124.107 E6167.55755
G1 X96.582 Y123.723 E6170.57329
G1 X96.744 Y123.355 E6173.58904
G1 X96.945 Y123.007 E6176.60480
G1 X97.183 Y122.683 E6179.62056
G1 X97.455 Y122.387 E6182.63624
G1 X97.758 Y122.123 E6185.65198
G1 X98.089 Y121.894 E6188.66778
G1 X98.442 Y121.702 E6191.68346
G1 X98.815 Y121.551 E6194.69923
G1 X99.202 Y121.442 E6197.71493
G1 X99.596 Y121.376 E6200.71152
G1 X100.095 Y121.359 E6204.45603
G1 X100.401 Y121.375 E6206.75850
G1 X100.798 Y121.442 E6209.77428 F300.000
G1 X101.185 Y121.551 E6212.79000
G1 X101.558 Y121.702 E6215.80574
G1 X101.911 Y121.894 E6218.82144
G1 X102.242 Y122.123 E6221.83725
G1 X102.545 Y122.387 E6224.85298
G1 X102.817 Y122.683 E6227.86868
G1 X103.055 Y123.007 E6230.88443
G1 X103.255 Y123.353 E6233.88098
G1 X103.446 Y123.814 E6237.62553
G1 X103.538 Y124.107 E6239.92800
G1 X103.615 Y124.502 E6242.94376
G1 X103.648 Y124.902 E6245.95948
G1 X103.637 Y125.304 E6248.97521
G1 X103.582 Y125.703 E6251.99096
G1 X103.483 Y126.092 E6255.00670
G1 X103.342 Y126.469 E6258.02244
G1 X103.161 Y126.828 E6261.03820
G1 X102.941 Y127.164 E6264.05389
G1 X102.685 Y127.475 E6267.06968
G1 X102.397 Y127.755 E6270.08542
G1 X102.192 Y127.915 E6272.03100
G1 X101.710 Y127.757 F4500.000
G1 Z-3.200 F4500.000
G1 E6270.03100 F2400.00000
G92 E0
G1 X96.332 Y124.902 F4500.000
G1 E2.00000 F2400.00000
G1 X96.365 Y124.499 E5.22517 F480.000
G1 X96.443 Y124.102 E8.45034
G1 X96.565 Y123.717 E11.67494
G1 X96.720 Y123.359 E14.78428
G1 X96.935 Y122.986 E18.22488
G1 X97.167 Y122.670 E21.34892
G1 X97.441 Y122.373 E24.57403
G1 X97.746 Y122.107 E27.79922
G1 X98.078 Y121.877 E31.02446
G1 X98.434 Y121.684 E34.24956
G1 X98.797 Y121.537 E37.37361
G1 X99.212 Y121.420 E40.81987
G1 X99.595 Y121.358 E43.91100
G1 X100.013 Y121.336 E47.24635
G1 X100.404 Y121.356 E50.37038
G1 X100.802 Y121.422 E53.59558
G1 X101.191 Y121.532 E56.82074
G1 X101.554 Y121.680 E59.94473
G1 X101.932 Y121.884 E63.37128
G1 X102.254 Y122.107 E66.49535
G1 X102.559 Y122.373 E69.72054
G1 X102.833 Y122.670 E72.94566
G1 X103.072 Y122.996 E76.17084
G1 X103.274 Y123.346 E79.39602
G1 X103.432 Y123.705 E82.52002
G1 X103.568 Y124.155 E86.27437
G1 X103.635 Y124.499 E89.06881
G1 X103.668 Y124.902 E92.29399
G1 X103.657 Y125.306 E95.51914
G1 X103.603 Y125.694 E98.64319
G1 X103.490 Y126.131 E102.24620
G1 X103.360 Y126.477 E105.19274
G1 X103.178 Y126.838 E108.41791
G1 X102.957 Y127.176 E111.64304
G1 X102.700 Y127.488 E114.86827
G1 X102.410 Y127.770 E118.09342
G1 X102.091 Y128.018 E121.31862
G1 X101.746 Y128.230 E124.54375
G1 X101.392 Y128.397 E127.66780
G1 X100.998 Y128.534 E130.99373
G1 X100.616 Y128.620 E134.11768
G1 X100.189 Y128.667 E137.54426
G1 X99.798 Y128.667 E140.66832
G1 X99.396 Y128.622 E143.89350
G1 X99.002 Y128.532 E147.11777
G1 X98.619 Y128.403 E150.34216
G1 X98.254 Y128.230 E153.56736
G1 X97.909 Y128.018 E156.79252
G1 X97.590 Y127.770 E160.01770
G1 X97.309 Y127.497 E163.14168
G1 X97.035 Y127.164 E166.58801
G1 X96.824 Y126.837 E169.69135
G1 X96.635 Y126.465 E173.01640
G1 X96.498 Y126.098 E176.14043
G1 X96.399 Y125.706 E179.36558
G1 X96.343 Y125.306 E182.59078
G1 X96.332 Y124.902 E185.81594
G1 Z-2.700 F4500.000
G1 E183.81594 F2400.00000
G92 E0
M107
M104 S0 ; turn off the hotend
M140 S0 ; turn off the bed
M106 S0 ; turn off the bed fan
G28 X0  ; home X axis
M84     ; disable motors

; filament used = 7608.1mm (6.0cm3)

; avoid_crossing_perimeters = 0
; bed_shape = 0x0,200x0,200x250,0x250
; bed_temperature = 0
; before_layer_gcode = 
; bridge_acceleration = 0
; bridge_fan_speed = 100
; brim_width = 0
; complete_objects = 0
; cooling = 0
; default_acceleration = 0
; disable_fan_first_layers = 1
; duplicate_distance = 6
; end_gcode = M104 S0 ; turn off the hotend\nM140 S0 ; turn off the bed\nM106 S0 ; turn off the bed fan\nG28 X0  ; home X axis\nM84     ; disable motors\n
; extruder_clearance_height = 20
; extruder_clearance_radius = 20
; extruder_offset = 0x0
; extrusion_axis = E
; extrusion_multiplier = 30
; fan_always_on = 1
; fan_below_layer_time = 60
; filament_colour = #FFFFFF
; filament_diameter = 1
; first_layer_acceleration = 0
; first_layer_bed_temperature = 0
; first_layer_extrusion_width = 200%
; first_layer_speed = 30
; first_layer_temperature = 256
; gcode_arcs = 0
; gcode_comments = 0
; gcode_flavor = reprap
; infill_acceleration = 0
; infill_first = 0
; layer_gcode = 
; max_fan_speed = 100
; max_print_speed = 80
; max_volumetric_speed = 0
; min_fan_speed = 100
; min_print_speed = 10
; min_skirt_length = 0
; notes = 
; nozzle_diameter = 0.5
; only_retract_when_crossing_perimeters = 1
; ooze_prevention = 0
; output_filename_format = [input_filename_base]-[timestamp].gcode
; perimeter_acceleration = 0
; post_process = 
; pressure_advance = 0
; resolution = 0
; retract_before_travel = 2
; retract_layer_change = 0
; retract_length = 2
; retract_length_toolchange = 10
; retract_lift = 0
; retract_restart_extra = 0
; retract_restart_extra_toolchange = 0
; retract_speed = 40
; skirt_distance = 6
; skirt_height = 1
; skirts = 1
; slowdown_below_layer_time = 30
; spiral_vase = 0
; standby_temperature_delta = -5
; start_gcode = G28 ; home all axes\nG92 E0\nG1 X30 Y30 F3000\nG1 Z5 F2000 ; lift nozzle\nG1 F3000 X220\nG1 F2000 Z0\nG1 F200 E10\nG1 F1000 E9\nG1 F3000 X190 Y50\nG92 E-1\nG1 F2000 Z2
; temperature = 256
; threads = 6
; toolchange_gcode = 
; travel_speed = 75
; use_firmware_retraction = 0
; use_relative_e_distances = 0
; use_volumetric_e = 0
; vibration_limit = 0
; wipe = 0
; z_offset = -8.2
; dont_support_bridges = 1
; extrusion_width = 0
; first_layer_height = 100%
; infill_only_where_needed = 0
; interface_shells = 0
; layer_height = 0.5
; raft_layers = 0
; seam_position = aligned
; support_material = 0
; support_material_angle = 0
; support_material_contact_distance = 0.2
; support_material_enforce_layers = 0
; support_material_extruder = 1
; support_material_extrusion_width = 0
; support_material_interface_extruder = 1
; support_material_interface_layers = 1
; support_material_interface_spacing = 0
; support_material_interface_speed = 100%
; support_material_pattern = pillars
; support_material_spacing = 20
; support_material_speed = 60
; support_material_threshold = 40
; xy_size_compensation = 0
; bottom_solid_layers = 3
; bridge_flow_ratio = 1
; bridge_speed = 60
; external_fill_pattern = rectilinear
; external_perimeter_extrusion_width = 0
; external_perimeter_speed = 80%
; external_perimeters_first = 0
; extra_perimeters = 1
; fill_angle = 45
; fill_density = 100%
; fill_pattern = rectilinear
; gap_fill_speed = 20
; infill_every_layers = 1
; infill_extruder = 1
; infill_extrusion_width = 0
; infill_overlap = 15%
; infill_speed = 45
; overhangs = 1
; perimeter_extruder = 1
; perimeter_extrusion_width = 0
; perimeter_speed = 10
; perimeters = 5
; small_perimeter_speed = 5
; solid_infill_below_area = 70
; solid_infill_every_layers = 0
; solid_infill_extruder = 1
; solid_infill_extrusion_width = 0
; solid_infill_speed = 20
; thin_walls = 1
; top_infill_extrusion_width = 0
; top_solid_infill_speed = 15
; top_solid_layers = 0

